;FLAVOR:Marlin
;TIME:2397
;Filament used: 3.84249m
;Layer height: 0.2
;MINX:80.2
;MINY:93.876
;MINZ:0.2
;MAXX:139.791
;MAXY:125.302
;MAXZ:48
;LINEARADVANCEPROCESSED
;Generated with Cura_SteamEngine 4.8.0
M140 S75
M105
M190 S75
M104 S245
M105
M109 S245
M82 ;absolute extrusion mode
G92 E0 ; Reset Extruder
G28 ; Home all axes
G29; Probe Bed
M500; Save to eprom
G1 Z2.0 F3000 ; Move Z Axis up little to prevent scratching of Heat Bed
G1 X0.1 Y20 Z0.3 F5000.0 ; Move to start position
G1 X0.1 Y200.0 Z0.3 F1500.0 E15 ; Draw the first line
G1 X0.4 Y200.0 Z0.3 F5000.0 ; Move to side a little
G1 X0.4 Y20 Z0.3 F1500.0 E30 ; Draw the second line
G92 E0 ; Reset Extruder
G1 Z2.0 F3000 ; Move Z Axis up little to prevent scratching of Heat Bed
G1 X5 Y20 Z0.3 F5000.0 ; Move over to prevent blob squish
G92 E0
G92 E0
G1 F2400 E-1.2
;LAYER_COUNT:240
M900 K0.000000 T0 ;added by LinearAdvanceSettingPlugin
;LAYER:0
M107
G1 F600 Z0.4
;MESH:3DBenchy.stl
G0 F3600 X102.727 Y110.947 Z0.4
;TYPE:WALL-INNER
G1 F600 Z0.2
G1 F2400 E0
G1 F3600 X102.727 Y110.914 E0.0011
G1 X102.727 Y108.864 E0.06928
G1 X102.727 Y108.863 E0.06931
G1 X102.727 Y108.647 E0.0765
G1 X102.943 Y108.665 E0.08105
G1 X103.518 Y108.714 E0.10025
G1 X103.713 Y108.8 E0.10734
G1 X103.837 Y108.979 E0.11458
G1 X103.956 Y109.321 E0.12662
G1 X104.014 Y109.792 E0.14241
G1 X104.003 Y110.271 E0.15834
G1 X103.927 Y110.677 E0.17208
G1 X103.796 Y110.976 E0.18294
G1 X103.661 Y111.128 E0.1897
G1 X103.512 Y111.207 E0.19531
G1 X103.137 Y111.271 E0.20796
G1 X102.768 Y111.28 E0.22024
G1 X102.735 Y111.28 E0.22134
G1 X102.718 Y111.281 E0.2219
G1 X102.727 Y110.947 E0.22976
G0 X102.327 Y110.942
;TYPE:WALL-OUTER
G1 X102.327 Y108.548 E0.30938
G1 X102.343 Y108.284 E0.31818
G1 X102.647 Y108.244 E0.32838
G1 X103.149 Y108.261 E0.34508
G1 X103.621 Y108.325 E0.36093
G1 X103.897 Y108.434 E0.3708
G1 X104.01 Y108.526 E0.37564
G1 X104.197 Y108.796 E0.38657
G1 X104.348 Y109.228 E0.40179
G1 X104.415 Y109.773 E0.42005
G1 X104.402 Y110.31 E0.43792
G1 X104.311 Y110.798 E0.45443
G1 X104.139 Y111.192 E0.46873
G1 X103.911 Y111.449 E0.48015
G1 X103.642 Y111.59 E0.49025
G1 X103.173 Y111.67 E0.50608
G1 X102.66 Y111.683 E0.52315
G1 X102.493 Y111.679 E0.5287
G1 X102.409 Y111.678 E0.5315
G1 X102.35 Y111.628 E0.53407
G1 X102.313 Y111.465 E0.53963
G1 X102.315 Y111.381 E0.54242
G1 X102.327 Y110.942 E0.55703
G0 X102.327 Y110.742
G0 X102.767 Y110.742
G0 X103.117 Y110.879
;TYPE:SKIN
G1 X103.117 Y109.071 E0.61716
G1 X103.455 Y109.113 E0.62849
G1 X103.573 Y109.407 E0.63903
G1 X103.624 Y109.817 E0.65277
G1 X103.613 Y110.227 E0.66641
G1 X103.551 Y110.566 E0.67787
G1 X103.415 Y110.817 E0.68737
G1 X103.117 Y110.879 E0.69749
G0 X103.431 Y110.219
G1 X103.296 Y110.085 E0.70382
G0 X103.422 Y109.644
G1 X103.296 Y109.519 E0.70972
G1 F2400 E-0.49028
G0 F3600 X102.747 Y110.269
G0 X100.724 Y110.271
G0 X100.524 Y110.269
;TYPE:WALL-INNER
G1 F2400 E0.70972
G1 F3600 X100.524 Y110.316 E0.71129
G1 X100.525 Y110.984 E0.7335
G1 X100.526 Y111.595 E0.75383
G1 X100.527 Y111.841 E0.76201
G1 X100.523 Y112.183 E0.77338
G1 X100.518 Y112.474 E0.78306
G1 X100.67 Y113.028 E0.80217
G1 X101.051 Y113.431 E0.82062
G1 X101.559 Y113.521 E0.83778
G1 X102.114 Y113.475 E0.8563
G1 X102.652 Y113.484 E0.8742
G1 X103.24 Y113.469 E0.89376
G1 X103.825 Y113.399 E0.91335
G1 X104.463 Y113.211 E0.93548
G1 X104.928 Y112.926 E0.95362
G1 X105.007 Y112.878 E0.95669
G1 X105.196 Y112.703 E0.96526
G1 X105.23 Y112.787
G1 X105.265 Y112.873 E0.96787
G1 X105.399 Y113.204 E0.97975
G1 X105.677 Y113.545 E0.99438
G1 X106.152 Y113.852 E1.0132
G1 X106.707 Y113.971 E1.03207
G1 X107.268 Y113.893 E1.05091
G1 X107.766 Y113.625 E1.06972
G1 X107.999 Y113.362 E1.08141
G1 X108.144 Y113.199 E1.08867
G1 X108.293 Y113.359 E1.09324
G1 X108.426 Y113.503 E1.09976
G1 X108.972 Y113.709 E1.11917
G1 X109.52 Y113.576 E1.13793
G1 X109.882 Y113.212 E1.155
G1 X109.893 Y113.201 E1.15552
G1 X110.051 Y112.96 E1.16511
G1 X110.116 Y112.86 E1.16907
G1 X110.208 Y113.021 E1.17179
G1 X110.245 Y113.086 E1.17248
G1 X110.255 Y113.098 E1.173
G1 X110.608 Y113.533 E1.19163
G1 X111.151 Y113.72 E1.21073
G1 X111.75 Y113.598 E1.23106
G1 X112.178 Y113.209 E1.2503
G1 X112.309 Y112.631 E1.27001
G1 X112.182 Y112.083 E1.28872
G1 X111.862 Y111.554 E1.30928
G1 X111.61 Y111.106 E1.32638
G1 X111.397 Y110.715 E1.34119
G1 X111.45 Y110.556 E1.34676
G1 X111.707 Y110.138 E1.36308
G1 X111.979 Y109.674 E1.38097
G1 X112.014 Y109.614 E1.38328
G1 X112.042 Y109.566 E1.38513
G1 X112.16 Y109.283 E1.39533
G1 X112.224 Y109.514 E1.39673
G1 X112.299 Y109.78 E1.40407
G1 X112.326 Y109.844 E1.4062
G1 X112.542 Y110.362 E1.42487
G1 X112.853 Y111.191 E1.45432
G1 X113.056 Y111.743 E1.47388
G1 X113.248 Y112.241 E1.49163
G1 X113.436 Y112.702 E1.50819
G1 X113.387 Y112.877 E1.51424
G1 X113.164 Y113.37 E1.53223
G1 X113 Y113.786 E1.5471
G1 X112.89 Y113.931 E1.55316
G1 X112.752 Y114.019 E1.5586
G1 X112.213 Y114.176 E1.57727
G1 X111.777 Y114.522 E1.59579
G1 X111.67 Y115.098 E1.61527
G1 X111.828 Y115.641 E1.63408
G1 X112.197 Y116.065 E1.65278
G1 X112.735 Y116.232 E1.67151
G1 X113.378 Y116.145 E1.69309
G1 X114.007 Y115.882 E1.71577
G1 X114.443 Y115.503 E1.73498
G1 X114.816 Y114.881 E1.75911
G1 X115.058 Y114.306 E1.77986
G1 X115.247 Y113.823 E1.79711
G1 X115.469 Y113.233 E1.81807
G1 X115.7 Y112.591 E1.84077
G1 X116.306 Y110.887 E1.90092
G1 X116.472 Y110.39 E1.91835
G1 X116.74 Y109.725 E1.94219
G1 X116.809 Y109.556 E1.94826
G1 X116.992 Y109.826 E1.95414
G1 X117.536 Y110.034 E1.97351
G1 X117.652 Y110.043 E1.97738
G1 X118.006 Y110.068 E1.98918
G1 X117.8 Y110.356 E1.99582
G1 X117.378 Y110.947 E2.01997
G1 X116.964 Y111.51 E2.04321
G1 X116.657 Y112.088 E2.06498
G1 X116.587 Y112.647 E2.08372
G1 X116.765 Y113.226 E2.10387
G1 X117.194 Y113.63 E2.12347
G1 X117.758 Y113.704 E2.14239
G1 X118.32 Y113.674 E2.1611
G1 X118.824 Y113.682 E2.17787
G1 X119.274 Y113.682 E2.19284
G1 X119.613 Y113.682 E2.20411
G1 X119.768 Y113.683 E2.20927
G1 X119.613 Y113.827 E2.21165
G1 X119.358 Y114.05 E2.21955
G1 X119.185 Y114.2 E2.22717
G1 X118.792 Y114.514 E2.2439
G1 X118.328 Y114.86 E2.26315
G1 X117.93 Y115.13 E2.27915
G1 X117.482 Y115.416 E2.29683
G1 X117.008 Y115.692 E2.31507
G1 X116.595 Y115.914 E2.33067
G1 X116.098 Y116.158 E2.34908
G1 X115.638 Y116.361 E2.3658
G1 X115.107 Y116.576 E2.38486
G1 X114.622 Y116.749 E2.40198
G1 X114.147 Y116.9 E2.41856
G1 X113.633 Y117.042 E2.4363
G1 X113.127 Y117.163 E2.4536
G1 X112.645 Y117.262 E2.46997
G1 X111.682 Y117.405 E2.50235
G1 X111.21 Y117.452 E2.51812
G1 X110.663 Y117.487 E2.53636
G1 X110.142 Y117.5 E2.55369
G1 X109.667 Y117.492 E2.56949
G1 X109.157 Y117.47 E2.58647
G1 X108.309 Y117.42 E2.61472
G1 X107.243 Y117.353 E2.65025
G1 X105.788 Y117.266 E2.69873
G1 X105.187 Y117.228 E2.71876
G1 X104.669 Y117.198 E2.73601
G1 X104.482 Y117.185 E2.74225
G1 X92.468 Y116.458 E3.14257
G1 X91.659 Y116.407 E3.16953
G1 X89.986 Y116.307 E3.22527
G1 X85.807 Y116.051 E3.36453
G1 X85.436 Y115.967 E3.37718
G1 X85.181 Y115.827 E3.38685
G1 X84.98 Y115.632 E3.39617
G1 X84.829 Y115.37 E3.40623
G1 X84.741 Y115.024 E3.4181
G1 X84.728 Y114.607 E3.43198
G1 X84.728 Y112.443 E3.50395
G1 X84.728 Y112.139 E3.51406
G1 X84.728 Y111.658 E3.53006
G1 X84.932 Y112.139 E3.53526
G1 X85.108 Y112.386 E3.543
G1 X85.34 Y112.71 E3.55625
G1 X85.873 Y113.166 E3.57958
G1 X86.499 Y113.479 E3.60286
G1 X87.152 Y113.633 E3.62517
G1 X87.79 Y113.653 E3.6464
G1 X88.431 Y113.564 E3.66793
G1 X89.059 Y113.308 E3.69048
G1 X89.538 Y112.92 E3.71099
G1 X89.874 Y112.407 E3.73138
G1 X89.997 Y111.883 E3.74928
G1 X89.738 Y111.336 E3.76941
G1 X89.252 Y111.009 E3.7889
G1 X88.655 Y110.928 E3.80893
G1 X88.173 Y111.113 E3.82611
G1 X87.886 Y111.393 E3.83944
G1 X87.707 Y111.448 E3.84567
G1 X87.43 Y111.446 E3.85488
G1 X87.181 Y111.369 E3.86355
G1 X86.999 Y111.242 E3.87093
G1 X86.86 Y111.053 E3.87874
G1 X86.73 Y110.684 E3.89175
G1 X86.674 Y110.261 E3.90594
G1 X86.667 Y109.776 E3.92207
G1 X86.713 Y109.327 E3.93709
G1 X86.823 Y108.954 E3.95002
G1 X86.957 Y108.732 E3.95865
G1 X87.128 Y108.588 E3.96608
G1 X87.353 Y108.496 E3.97417
G1 X87.576 Y108.48 E3.9816
G1 X87.727 Y108.524 E3.98683
G1 X88.151 Y108.779 E4.00329
G1 X88.676 Y108.996 E4.02218
G1 X89.24 Y108.962 E4.04098
G1 X89.71 Y108.602 E4.06067
G1 X89.8 Y108.401 E4.06799
G1 X89.933 Y108.101 E4.07891
G1 X90.137 Y108.358 E4.08515
G1 X90.254 Y108.505 E4.0914
G1 X90.775 Y108.652 E4.10941
G1 X91.335 Y108.592 E4.12814
G1 X91.372 Y108.589 E4.12937
G1 X91.705 Y108.585 E4.14045
G1 X91.705 Y108.602
G1 X91.704 Y108.64 E4.14172
G1 X91.683 Y109.136 E4.15823
G1 X91.692 Y109.701 E4.17702
G1 X91.689 Y111.071 E4.22259
G1 X91.693 Y111.625 E4.24101
G1 X91.687 Y112.138 E4.25808
G1 X91.669 Y112.806 E4.2803
G1 X91.996 Y113.307 E4.3002
G1 X92.561 Y113.514 E4.32022
G1 X93.134 Y113.465 E4.33934
G1 X93.594 Y113.137 E4.35813
G1 X93.819 Y112.619 E4.37692
G1 X93.837 Y111.916 E4.40031
G1 X93.827 Y111.385 E4.41797
G1 X93.831 Y110.746 E4.43923
G1 X93.83 Y109.4 E4.48399
G1 X93.835 Y108.597 E4.5107
G1 X94.139 Y108.607 E4.52082
G1 X94.768 Y108.586 E4.54175
G1 X95.297 Y108.431 E4.56009
G1 X95.541 Y108.163 E4.57214
G1 X95.579 Y108.121 E4.57402
G1 X95.67 Y108.021 E4.57852
G1 X95.792 Y108.314 E4.58488
G1 X95.833 Y108.353 E4.58657
G1 X96.238 Y108.741 E4.60522
G1 X96.664 Y108.819 E4.61963
G1 X96.565 Y108.964 E4.62101
G1 X96.36 Y109.262 E4.63304
G1 X96.268 Y109.835 E4.65234
G1 X96.454 Y110.376 E4.67137
G1 X96.904 Y110.663 E4.68912
G1 X97.471 Y110.772 E4.70832
G1 X97.734 Y110.882 E4.71781
G1 X97.904 Y111.034 E4.72539
G1 X97.969 Y111.192 E4.73107
G1 X98.018 Y111.314 E4.73545
G1 X97.943 Y111.49 E4.74181
G1 X97.796 Y111.549 E4.74708
G1 X97.689 Y111.472 E4.75106
G1 X97.385 Y111.252 E4.76354
G1 X96.867 Y111.081 E4.78168
G1 X96.292 Y111.138 E4.8009
G1 X95.803 Y111.465 E4.82047
G1 X95.591 Y112.017 E4.84014
G1 X95.664 Y112.599 E4.85964
G1 X95.949 Y113.071 E4.87798
G1 X96.403 Y113.394 E4.89652
G1 X96.784 Y113.538 E4.91006
G1 X97.41 Y113.649 E4.93121
G1 X98.026 Y113.648 E4.9517
G1 X98.673 Y113.525 E4.9736
G1 X99.259 Y113.237 E4.99532
G1 X99.739 Y112.799 E5.01693
G1 X100.094 Y112.226 E5.03935
G1 X100.139 Y112.08 E5.04443
G1 X100.238 Y111.753 E5.05443
G1 X100.286 Y111.596 E5.05772
G1 X100.302 Y110.985 E5.06957
G1 X100.143 Y110.317 E5.08697
G1 X100.126 Y110.274 E5.08847
G1 X99.9 Y109.704 E5.10887
G1 X99.681 Y109.479 E5.11931
G1 X99.85 Y109.304 E5.1274
G1 X100.028 Y108.755 E5.1466
G1 X100.071 Y108.093 E5.16866
G1 X99.975 Y107.51 E5.18831
G1 X99.657 Y106.979 E5.2089
G1 X99.181 Y106.588 E5.22939
G1 X98.594 Y106.36 E5.25033
G1 X97.913 Y106.271 E5.27318
G1 X97.244 Y106.303 E5.29545
G1 X96.615 Y106.467 E5.31707
G1 X96.054 Y106.788 E5.33857
G1 X95.833 Y107.044 E5.34982
G1 X95.707 Y107.191 E5.35626
G1 X95.602 Y106.846 E5.36318
G1 X95.158 Y106.494 E5.38202
G1 X94.554 Y106.444 E5.40218
G1 X93.908 Y106.449 E5.42367
G1 X91.987 Y106.446 E5.48756
G1 X91.491 Y106.456 E5.50406
G1 X90.877 Y106.409 E5.52454
G1 X90.356 Y106.508 E5.54218
G1 X89.94 Y106.917 E5.56158
G1 X89.888 Y107.103 E5.56801
G1 X89.808 Y107.383 E5.57769
G1 X89.633 Y107.127 E5.58186
G1 X89.553 Y107.009 E5.58543
G1 X89.029 Y106.608 E5.60737
G1 X88.432 Y106.365 E5.62881
G1 X87.746 Y106.274 E5.65183
G1 X87.061 Y106.309 E5.67464
G1 X86.386 Y106.492 E5.6979
G1 X85.778 Y106.83 E5.72104
G1 X85.267 Y107.305 E5.74424
G1 X85.108 Y107.54 E5.75368
G1 X84.911 Y107.83 E5.76534
G1 X84.728 Y108.291 E5.78184
G1 X84.728 Y107.83 E5.78514
G1 X84.728 Y107.479 E5.7938
G1 X84.728 Y105.142 E5.87152
G1 X84.779 Y104.783 E5.88359
G1 X84.906 Y104.479 E5.89454
G1 X85.09 Y104.249 E5.90434
G1 X85.329 Y104.081 E5.91406
G1 X85.672 Y103.968 E5.92607
G1 X85.97 Y103.94 E5.93602
G1 X109.019 Y102.538 E6.70405
G1 X109.639 Y102.508 E6.7247
G1 X110.21 Y102.502 E6.74369
G1 X110.801 Y102.52 E6.76336
G1 X111.334 Y102.558 E6.78113
G1 X111.883 Y102.618 E6.7995
G1 X112.42 Y102.699 E6.81756
G1 X112.95 Y102.798 E6.83549
G1 X113.473 Y102.917 E6.85333
G1 X114.011 Y103.059 E6.87184
G1 X114.488 Y103.206 E6.88844
G1 X114.983 Y103.379 E6.90588
G1 X115.447 Y103.558 E6.92242
G1 X115.917 Y103.759 E6.93942
G1 X116.344 Y103.96 E6.95512
G1 X116.79 Y104.189 E6.9718
G1 X117.241 Y104.44 E6.98896
G1 X117.695 Y104.718 E7.00667
G1 X118.127 Y105.001 E7.02385
G1 X118.53 Y105.289 E7.04032
G1 X118.98 Y105.632 E7.05914
G1 X119.358 Y105.948 E7.07553
G1 X119.784 Y106.327 E7.09449
G1 X120.19 Y106.722 E7.11333
G1 X120.538 Y107.088 E7.13013
G1 X120.99 Y107.597 E7.15277
G1 X121.59 Y108.363 E7.18513
G1 X121.869 Y108.76 E7.20127
G1 X122.15 Y109.189 E7.21833
G1 X122.386 Y109.583 E7.2336
G1 X122.492 Y109.845 E7.243
G1 X122.508 Y110.054 E7.24998
G1 X122.439 Y110.315 E7.25896
G1 X122.173 Y110.775 E7.27663
G1 X121.898 Y111.2 E7.29347
G1 X121.61 Y111.612 E7.31018
G1 X121.262 Y112.058 E7.329
G1 X121.169 Y112.177 E7.33402
G1 X121.087 Y112.282 E7.33845
G1 X121.057 Y112.09 E7.34079
G1 X120.955 Y111.98 E7.34455
G1 X120.677 Y111.681 E7.35813
G1 X120.123 Y111.515 E7.37736
G1 X120.104 Y111.51 E7.37802
G1 X119.662 Y111.494 E7.39273
G1 X119.801 Y111.297 E7.39532
G1 X119.812 Y111.281 E7.39595
G1 X120.733 Y109.976 E7.44907
G1 X121.018 Y109.411 E7.47012
G1 X121.057 Y108.803 E7.49038
G1 X120.857 Y108.268 E7.50938
G1 X120.413 Y107.936 E7.52782
G1 X119.779 Y107.881 E7.54899
G1 X119.216 Y107.884 E7.56771
G1 X118.559 Y107.884 E7.58956
G1 X117.93 Y107.879 E7.61048
G1 X117.319 Y107.956 E7.63097
G1 X116.856 Y108.251 E7.64923
G1 X116.8 Y108.388 E7.65415
G1 X116.771 Y108.458 E7.65667
G1 X116.731 Y108.36 E7.65744
G1 X116.325 Y107.98 E7.67593
G1 X115.774 Y107.852 E7.69475
G1 X115.271 Y108.1 E7.7134
G1 X114.924 Y108.546 E7.73219
G1 X114.746 Y108.976 E7.74767
G1 X114.689 Y109.113 E7.75261
G1 X114.604 Y109.369 E7.76158
G1 X114.538 Y109.566 E7.76849
G1 X114.437 Y109.314 E7.77167
G1 X114.404 Y109.193 E7.77324
G1 X114.365 Y109.05 E7.77757
G1 X114.293 Y108.794 E7.78641
G1 X114.056 Y108.292 E7.80488
G1 X113.598 Y107.968 E7.82354
G1 X113.029 Y107.867 E7.84276
G1 X112.477 Y108.039 E7.86199
G1 X112.312 Y108.283 E7.87178
G1 X112.164 Y108.503 E7.8806
G1 X111.995 Y108.298 E7.8859
G1 X111.771 Y108.028 E7.89756
G1 X111.195 Y107.849 E7.91763
G1 X110.664 Y108.044 E7.93644
G1 X110.346 Y108.366 E7.95149
G1 X110.216 Y108.497 E7.95763
G1 X110.171 Y108.586 E7.96095
G1 X110.145 Y108.548
G1 X110.038 Y108.398 E7.96525
G1 X109.916 Y108.226 E7.97226
G1 X109.477 Y107.917 E7.99012
G1 X108.92 Y107.881 E8.00868
G1 X108.391 Y108.132 E8.02816
G1 X108.071 Y108.616 E8.04745
G1 X108.1 Y109.208 E8.06717
G1 X108.367 Y109.786 E8.08834
G1 X108.652 Y110.285 E8.10746
G1 X108.93 Y110.732 E8.12496
G1 X108.765 Y111.006 E8.1356
G1 X108.508 Y111.449 E8.15264
G1 X108.481 Y111.495 E8.15441
G1 X108.366 Y111.688 E8.16188
G1 X108.267 Y111.854 E8.16831
G1 X108.178 Y111.603 E8.17202
G1 X108.166 Y111.57
G1 X108.132 Y111.529 E8.17379
G1 X107.805 Y111.135 E8.19082
G1 X107.314 Y110.852 E8.20967
G1 X106.758 Y110.756 E8.22844
G1 X106.32 Y110.837 E8.24325
G1 X106.228 Y110.853 E8.24636
G1 X106.199 Y110.859 E8.24734
G1 X106.126 Y110.903 E8.25018
G1 X106.136 Y110.848
G1 X106.182 Y110.606 E8.25575
G1 X106.187 Y110.513 E8.2584
G1 X106.221 Y109.984 E8.27603
G1 X106.188 Y109.327 E8.29791
G1 X106.071 Y108.679 E8.31981
G1 X105.851 Y108.07 E8.34135
G1 X105.51 Y107.511 E8.36313
G1 X105.056 Y107.042 E8.38484
G1 X104.515 Y106.72 E8.40578
G1 X103.91 Y106.545 E8.42673
G1 X103.245 Y106.464 E8.44901
G1 X102.617 Y106.448 E8.4699
G1 X102.027 Y106.443 E8.48953
G1 X101.377 Y106.459 E8.51115
G1 X100.828 Y106.687 E8.53092
G1 X100.504 Y107.175 E8.55041
G1 X100.532 Y108.254 E8.58631
G1 X100.523 Y108.767 E8.60337
G1 X100.524 Y110.269 E8.65333
G0 X99.82 Y107.567
G0 X99.533 Y107.086
G0 X99.099 Y106.729
G0 X98.554 Y106.518
G0 X97.906 Y106.433
G0 X97.266 Y106.463
G0 X96.677 Y106.617
G0 X96.158 Y106.914
G0 X95.83 Y107.318
G0 X95.927 Y108.219
G0 X96.316 Y108.591
G0 X97.719 Y108.395
G1 X97.666 Y108.443 E8.65571
G1 X97.609 Y108.494 E8.65825
G1 X97.426 Y108.53 E8.66445
G1 X97.577 Y108.441 E8.66481
G1 X97.633 Y108.407
G1 X97.719 Y108.395 E8.66531
G0 X96.805 Y108.664
G0 X95.927 Y108.219
G0 X95.739 Y107.727
G0 X96.158 Y106.914
G0 X96.677 Y106.617
G0 X97.266 Y106.463
G0 X97.906 Y106.433
G0 X103.235 Y106.625
G0 X103.879 Y106.702
G0 X104.447 Y106.868
G0 X104.957 Y107.172
G0 X108.781 Y111.3
