;FLAVOR:Marlin
;TIME:2220
;Filament used: 2.88419m
;Layer height: 0.2
;MINX:69.4
;MINY:69.4
;MINZ:0.2
;MAXX:150.6
;MAXY:150.6
;MAXZ:2.4
;LINEARADVANCEPROCESSED
;Generated with Cura_SteamEngine 4.8.0
M104 S215
M105
M109 S215
M82 ;absolute extrusion mode
G92 E0 ; Reset Extruder
G28 ; Home all axes
G29; Probe Bed
M500; Save to eprom
G1 Z2.0 F3000 ; Move Z Axis up little to prevent scratching of Heat Bed
G1 X0.1 Y20 Z0.3 F5000.0 ; Move to start position
G1 X0.1 Y200.0 Z0.3 F1500.0 E15 ; Draw the first line
G1 X0.4 Y200.0 Z0.3 F5000.0 ; Move to side a little
G1 X0.4 Y20 Z0.3 F1500.0 E30 ; Draw the second line
G92 E0 ; Reset Extruder
G1 Z2.0 F3000 ; Move Z Axis up little to prevent scratching of Heat Bed
G1 X5 Y20 Z0.3 F5000.0 ; Move over to prevent blob squish
G92 E0
G92 E0
G1 F2400 E-1.2
;LAYER_COUNT:12
M900 K0.000000 T0 ;added by LinearAdvanceSettingPlugin
;LAYER:0
M107
;MESH:b71a0c5c-6204-49a8-b622-17f4a4983700.stl
G0 F3600 X114.36 Y117.189 Z0.2
;TYPE:WALL-INNER
G1 F2400 E0
G1 F3600 X113.668 Y117.556 E0.02475
G1 X113.174 Y117.785 E0.04195
G1 X112.436 Y118.04 E0.06663
G1 X111.908 Y118.188 E0.08395
G1 X111.155 Y118.32 E0.10811
G1 X110.618 Y118.385 E0.1252
G1 X109.842 Y118.398 E0.14972
G1 X109.305 Y118.379 E0.1667
G1 X108.513 Y118.268 E0.19197
G1 X107.999 Y118.166 E0.20853
G1 X107.262 Y117.94 E0.23288
G1 X106.737 Y117.749 E0.25054
G1 X106.042 Y117.408 E0.275
G1 X105.569 Y117.146 E0.29208
G1 X104.918 Y116.689 E0.31721
G1 X104.511 Y116.368 E0.33359
G1 X103.94 Y115.816 E0.35869
G1 X103.575 Y115.422 E0.37566
G1 X103.099 Y114.791 E0.40063
G1 X102.811 Y114.359 E0.41704
G1 X102.441 Y113.663 E0.44194
G1 X102.213 Y113.17 E0.45911
G1 X101.959 Y112.433 E0.48374
G1 X101.812 Y111.908 E0.50096
G1 X101.679 Y111.147 E0.52537
G1 X101.615 Y110.617 E0.54224
G1 X101.602 Y109.851 E0.56645
G1 X101.622 Y109.304 E0.58374
G1 X101.733 Y108.507 E0.60917
G1 X101.836 Y107.99 E0.62583
G1 X102.059 Y107.264 E0.64982
G1 X102.253 Y106.734 E0.66766
G1 X102.59 Y106.045 E0.69189
G1 X102.854 Y105.569 E0.70909
G1 X103.311 Y104.918 E0.73422
G1 X103.632 Y104.511 E0.7506
G1 X104.17 Y103.953 E0.77509
G1 X104.581 Y103.573 E0.79278
G1 X105.209 Y103.099 E0.81764
G1 X105.64 Y102.811 E0.83402
G1 X106.332 Y102.444 E0.85877
G1 X106.827 Y102.215 E0.876
G1 X107.563 Y101.96 E0.90061
G1 X108.092 Y101.812 E0.91797
G1 X108.845 Y101.68 E0.94213
G1 X109.383 Y101.615 E0.95925
G1 X110.158 Y101.602 E0.98374
G1 X110.695 Y101.621 E1.00072
G1 X111.487 Y101.732 E1.02599
G1 X112.003 Y101.834 E1.04261
G1 X112.736 Y102.059 E1.06683
G1 X113.266 Y102.253 E1.08467
G1 X113.955 Y102.59 E1.1089
G1 X114.431 Y102.854 E1.1261
G1 X115.082 Y103.311 E1.15123
G1 X115.489 Y103.632 E1.16761
G1 X116.047 Y104.17 E1.1921
G1 X116.427 Y104.581 E1.20979
G1 X116.901 Y105.209 E1.23465
G1 X117.19 Y105.641 E1.25107
G1 X117.554 Y106.327 E1.27561
G1 X117.785 Y106.825 E1.29296
G1 X118.04 Y107.563 E1.31763
G1 X118.188 Y108.092 E1.33499
G1 X118.321 Y108.853 E1.3594
G1 X118.385 Y109.38 E1.37617
G1 X118.398 Y110.149 E1.40047
G1 X118.378 Y110.696 E1.41777
G1 X118.268 Y111.484 E1.44291
G1 X118.166 Y112.003 E1.45962
G1 X117.941 Y112.736 E1.48385
G1 X117.747 Y113.266 E1.50168
G1 X117.41 Y113.955 E1.52591
G1 X117.149 Y114.427 E1.54296
G1 X116.703 Y115.063 E1.5675
G1 X116.362 Y115.495 E1.58489
G1 X115.83 Y116.047 E1.60911
G1 X115.419 Y116.427 E1.6268
G1 X114.794 Y116.898 E1.65153
G1 X114.36 Y117.189 E1.66804
G0 X114.558 Y117.537
;TYPE:WALL-OUTER
G1 X114.748 Y117.707 E1.6761
G1 X114.749 Y117.708 E1.67614
G1 X115.905 Y118.747 E1.72525
G1 X115.992 Y118.826 E1.72896
G1 X117.209 Y119.75 E1.77725
G1 X117.331 Y119.843 E1.78209
G1 X118.588 Y120.645 E1.82921
G1 X118.747 Y120.747 E1.83517
G1 X120.023 Y121.42 E1.88076
G1 X120.234 Y121.531 E1.88829
G1 X121.525 Y122.081 E1.93263
G1 X121.779 Y122.19 E1.94136
G1 X123.374 Y122.719 E1.99446
G1 X123.599 Y122.773 E2.00177
G1 X125.007 Y123.117 E2.04757
G1 X126.666 Y123.379 E2.10064
G1 X128.342 Y123.503 E2.15374
G1 X130.022 Y123.49 E2.20682
G1 X131.695 Y123.338 E2.2599
G1 X133.351 Y123.051 E2.31301
G1 X134.977 Y122.626 E2.36611
G1 X136.563 Y122.071 E2.4192
G1 X138.098 Y121.387 E2.4723
G1 X139.571 Y120.58 E2.52537
G1 X140.973 Y119.654 E2.57846
G1 X142.295 Y118.616 E2.63157
G1 X143.527 Y117.473 E2.68467
G1 X144.389 Y116.529 E2.72506
G1 X144.66 Y116.233 E2.73775
G1 X144.921 Y115.895 E2.75124
G1 X145.688 Y114.904 E2.79083
G1 X145.894 Y114.587 E2.80278
G1 X146.603 Y113.495 E2.84392
G1 X146.759 Y113.205 E2.85432
G1 X147.4 Y112.016 E2.897
G1 X147.522 Y111.737 E2.90663
G1 X148.073 Y110.475 E2.95014
G1 X148.156 Y110.23 E2.95831
G1 X148.616 Y108.885 E3.00322
G1 X148.672 Y108.662 E3.01049
G1 X149.027 Y107.256 E3.05631
G1 X149.06 Y107.055 E3.06275
G1 X149.12 Y106.695 E3.07428
G1 X149.08 Y107.058 E3.07458
G1 X149.041 Y107.258 E3.07484
G1 X148.762 Y108.684 E3.08098
G1 X148.699 Y108.908 E3.08264
G1 X148.309 Y110.282 E3.09666
G1 X148.217 Y110.528 E3.09995
G1 X147.729 Y111.827 E3.12075
G1 X147.596 Y112.108 E3.1262
G1 X147.013 Y113.341 E3.15343
G1 X146.844 Y113.634 E3.16103
G1 X146.183 Y114.774 E3.19346
G1 X145.961 Y115.093 E3.20386
G1 X145.234 Y116.136 E3.2404
G1 X144.954 Y116.475 E3.25386
G1 X144.698 Y116.784 E3.26623
G1 X144.183 Y117.408 E3.2918
G1 X143.015 Y118.602 E3.34457
G1 X141.768 Y119.682 E3.3967
G1 X140.421 Y120.666 E3.44941
G1 X139.006 Y121.529 E3.50178
G1 X137.522 Y122.273 E3.55423
G1 X135.972 Y122.896 E3.60701
G1 X134.391 Y123.382 E3.65927
G1 X132.772 Y123.737 E3.71165
G1 X131.132 Y123.956 E3.76392
G1 X129.466 Y124.039 E3.81663
G1 X127.811 Y123.983 E3.86895
G1 X126.156 Y123.79 E3.9216
G1 X124.532 Y123.461 E3.97396
G1 X123.488 Y123.158 E4.00831
G1 X123.266 Y123.094 E4.01552
G1 X122.939 Y122.999 E4.02627
G1 X121.658 Y122.51 E4.0696
G1 X121.387 Y122.406 E4.0776
G1 X120.109 Y121.791 E4.11355
G1 X119.885 Y121.683 E4.11934
G1 X118.631 Y120.946 E4.14968
G1 X118.46 Y120.846 E4.15341
G1 X117.234 Y119.981 E4.17754
G1 X117.104 Y119.889 E4.17975
G1 X115.928 Y118.904 E4.19642
G1 X115.835 Y118.826 E4.19745
G1 X114.731 Y117.732 E4.22851
G1 X114.722 Y117.723 E4.22891
G1 X114.542 Y117.545 E4.23317
G1 X113.845 Y117.915 E4.2581
G1 X113.555 Y118.05 E4.26821
G1 X113.323 Y118.157 E4.27628
G1 X113.484 Y118.355 E4.28116
G1 X114.456 Y119.554 E4.32993
G1 X114.538 Y119.655 E4.33404
G1 X115.598 Y120.763 E4.38249
G1 X115.7 Y120.869 E4.38714
G1 X116.815 Y121.856 E4.43419
G1 X116.959 Y121.983 E4.44026
G1 X118.119 Y122.85 E4.48602
G1 X118.304 Y122.989 E4.49333
G1 X119.493 Y123.735 E4.53768
G1 X119.728 Y123.883 E4.54645
G1 X121.219 Y124.655 E4.59951
G1 X121.432 Y124.744 E4.6068
G1 X122.77 Y125.303 E4.65262
G1 X124.368 Y125.821 E4.7057
G1 X126.004 Y126.207 E4.75881
G1 X127.665 Y126.456 E4.81188
G1 X129.342 Y126.568 E4.86498
G1 X131.022 Y126.543 E4.91807
G1 X132.695 Y126.378 E4.97119
G1 X134.348 Y126.078 E5.02428
G1 X135.971 Y125.643 E5.07737
G1 X137.552 Y125.075 E5.13045
G1 X139.082 Y124.381 E5.18353
G1 X140.55 Y123.562 E5.23665
G1 X141.944 Y122.625 E5.28972
G1 X142.943 Y121.829 E5.33008
G1 X143.258 Y121.578 E5.34281
G1 X143.576 Y121.278 E5.35662
G1 X144.482 Y120.426 E5.39592
G1 X144.733 Y120.147 E5.40778
G1 X145.606 Y119.178 E5.44899
G1 X145.807 Y118.914 E5.45947
G1 X146.624 Y117.841 E5.50208
G1 X146.781 Y117.594 E5.51133
G1 X147.529 Y116.425 E5.55518
G1 X147.649 Y116.198 E5.5633
G1 X148.315 Y114.94 E5.60827
G1 X148.408 Y114.723 E5.61573
G1 X148.976 Y113.395 E5.66137
G1 X149.041 Y113.197 E5.66795
G1 X149.15 Y112.871 E5.67882
G1 X149.06 Y113.203 E5.67906
G1 X148.989 Y113.399 E5.67932
G1 X148.492 Y114.758 E5.68532
G1 X148.392 Y114.975 E5.687
G1 X147.791 Y116.273 E5.70087
G1 X147.663 Y116.5 E5.70412
G1 X146.973 Y117.716 E5.7252
G1 X146.804 Y117.963 E5.7305
G1 X146.036 Y119.088 E5.7577
G1 X145.822 Y119.352 E5.76531
G1 X144.989 Y120.377 E5.79776
G1 X144.722 Y120.655 E5.80806
G1 X143.848 Y121.566 E5.84434
G1 X143.51 Y121.863 E5.85813
G1 X143.208 Y122.129 E5.87054
G1 X142.592 Y122.672 E5.89649
G1 X141.271 Y123.655 E5.94851
G1 X139.851 Y124.539 E6.00137
G1 X138.379 Y125.294 E6.05364
G1 X136.85 Y125.923 E6.10588
G1 X135.256 Y126.43 E6.15873
G1 X133.641 Y126.798 E6.21107
G1 X132.004 Y127.032 E6.26332
G1 X130.338 Y127.13 E6.31605
G1 X128.683 Y127.089 E6.36836
G1 X127.026 Y126.91 E6.42102
G1 X125.411 Y126.599 E6.47299
G1 X123.796 Y126.146 E6.52599
G1 X122.251 Y125.571 E6.57807
G1 X121.263 Y125.107 E6.61256
G1 X121.054 Y125.009 E6.61977
G1 X120.744 Y124.863 E6.63059
G1 X119.558 Y124.179 E6.67385
G1 X119.306 Y124.034 E6.68184
G1 X118.14 Y123.228 E6.71777
G1 X117.94 Y123.09 E6.72345
G1 X116.812 Y122.162 E6.75409
G1 X116.658 Y122.035 E6.75784
G1 X115.584 Y120.99 E6.78188
G1 X115.474 Y120.883 E6.78399
G1 X114.463 Y119.721 E6.80056
G1 X114.375 Y119.62 E6.80166
G1 X113.462 Y118.376 E6.83242
G1 X113.456 Y118.368 E6.83274
G1 X113.305 Y118.163 E6.83702
G1 X112.553 Y118.422 E6.86216
G1 X112.252 Y118.507 E6.87204
G1 X112.005 Y118.576 E6.88014
G1 X112.133 Y118.798 E6.88504
G1 X112.911 Y120.142 E6.9341
G1 X112.972 Y120.246 E6.93791
G1 X113.838 Y121.494 E6.98591
G1 X113.93 Y121.627 E6.99102
G1 X114.873 Y122.771 E7.03787
G1 X114.999 Y122.923 E7.0441
G1 X116.011 Y123.966 E7.09002
G1 X116.169 Y124.128 E7.09717
G1 X117.222 Y125.046 E7.14131
G1 X117.436 Y125.233 E7.15029
G1 X118.789 Y126.23 E7.2034
G1 X118.983 Y126.35 E7.21061
G1 X120.219 Y127.113 E7.2565
G1 X121.717 Y127.874 E7.30959
G1 X123.272 Y128.51 E7.36268
G1 X124.874 Y129.017 E7.41577
G1 X126.512 Y129.39 E7.46885
G1 X128.176 Y129.627 E7.52196
G1 X129.852 Y129.727 E7.57501
G1 X131.533 Y129.689 E7.62814
G1 X133.204 Y129.513 E7.68123
G1 X134.854 Y129.2 E7.73429
G1 X136.474 Y128.753 E7.78739
G1 X138.052 Y128.174 E7.8405
G1 X139.577 Y127.468 E7.8936
G1 X140.665 Y126.85 E7.93314
G1 X141.038 Y126.639 E7.94668
G1 X141.394 Y126.396 E7.9603
G1 X142.426 Y125.692 E7.99977
G1 X142.715 Y125.458 E8.01152
G1 X143.732 Y124.634 E8.05288
G1 X143.98 Y124.397 E8.06372
G1 X144.947 Y123.474 E8.10596
G1 X145.139 Y123.258 E8.11509
G1 X146.062 Y122.217 E8.15905
G1 X146.219 Y122.007 E8.16733
G1 X147.07 Y120.872 E8.21216
G1 X147.19 Y120.682 E8.21926
G1 X147.965 Y119.451 E8.26522
G1 X148.064 Y119.26 E8.27202
G1 X148.221 Y118.958 E8.28277
G1 X148.081 Y119.268 E8.28301
G1 X147.977 Y119.457 E8.28328
G1 X147.269 Y120.731 E8.28936
G1 X147.143 Y120.92 E8.29101
G1 X146.349 Y122.104 E8.3051
G1 X146.183 Y122.312 E8.30845
G1 X145.309 Y123.408 E8.32952
G1 X145.106 Y123.623 E8.33474
G1 X144.179 Y124.605 E8.3617
G1 X143.917 Y124.84 E8.36956
G1 X142.932 Y125.724 E8.40197
G1 X142.627 Y125.955 E8.41218
G1 X141.617 Y126.721 E8.44851
G1 X141.242 Y126.959 E8.46208
G1 X140.88 Y127.188 E8.47526
G1 X140.212 Y127.612 E8.50026
G1 X138.741 Y128.383 E8.55274
G1 X137.214 Y129.029 E8.60513
G1 X135.641 Y129.543 E8.65742
G1 X134.02 Y129.928 E8.71006
G1 X132.382 Y130.177 E8.76241
G1 X130.719 Y130.29 E8.81508
G1 X129.063 Y130.264 E8.86741
G1 X127.415 Y130.101 E8.91974
G1 X125.775 Y129.801 E8.97242
G1 X124.177 Y129.367 E9.02474
G1 X122.617 Y128.802 E9.07716
G1 X121.103 Y128.108 E9.12979
G1 X119.658 Y127.292 E9.18222
G1 X118.759 Y126.681 E9.21657
G1 X118.57 Y126.553 E9.22369
G1 X118.295 Y126.366 E9.2342
G1 X117.222 Y125.499 E9.27779
G1 X116.991 Y125.312 E9.28595
G1 X115.97 Y124.337 E9.32168
G1 X115.799 Y124.173 E9.32718
G1 X114.827 Y123.077 E9.35768
G1 X114.69 Y122.923 E9.36154
G1 X113.797 Y121.728 E9.38541
G1 X113.696 Y121.593 E9.38773
G1 X112.887 Y120.3 E9.40425
G1 X112.821 Y120.195 E9.4053
G1 X112.11 Y118.816 E9.43622
G1 X112.105 Y118.807 E9.43655
G1 X111.988 Y118.58 E9.44082
G1 X111.216 Y118.715 E9.46558
G1 X110.893 Y118.755 E9.47587
G1 X110.639 Y118.785 E9.48395
G1 X110.73 Y119.024 E9.48884
G1 X111.289 Y120.474 E9.53794
G1 X111.332 Y120.586 E9.54173
G1 X111.993 Y121.955 E9.58976
G1 X112.062 Y122.098 E9.59478
G1 X112.814 Y123.376 E9.64163
G1 X112.915 Y123.547 E9.64791
G1 X113.755 Y124.739 E9.69399
G1 X113.883 Y124.92 E9.70099
G1 X114.786 Y125.998 E9.74542
G1 X114.962 Y126.209 E9.75411
G1 X116.141 Y127.405 E9.80717
G1 X116.326 Y127.564 E9.81488
G1 X117.416 Y128.5 E9.86027
G1 X118.776 Y129.487 E9.91337
G1 X120.212 Y130.358 E9.96644
G1 X121.716 Y131.11 E10.01957
G1 X123.275 Y131.735 E10.07264
G1 X124.881 Y132.229 E10.12573
G1 X126.522 Y132.59 E10.17882
G1 X128.187 Y132.815 E10.23191
G1 X129.866 Y132.902 E10.28503
G1 X131.545 Y132.852 E10.33811
G1 X133.215 Y132.664 E10.39121
G1 X134.864 Y132.339 E10.44431
G1 X136.48 Y131.879 E10.4974
G1 X137.656 Y131.438 E10.53709
G1 X138.053 Y131.289 E10.55049
G1 X138.449 Y131.102 E10.56432
G1 X139.572 Y130.571 E10.60358
G1 X139.895 Y130.384 E10.61537
G1 X141.027 Y129.731 E10.65666
G1 X141.309 Y129.536 E10.66749
G1 X142.409 Y128.775 E10.70976
G1 X142.63 Y128.594 E10.71878
G1 X143.707 Y127.708 E10.76285
G1 X143.894 Y127.527 E10.77107
G1 X144.913 Y126.538 E10.81594
G1 X145.065 Y126.364 E10.82324
G1 X146.019 Y125.272 E10.86906
G1 X146.145 Y125.101 E10.87577
G1 X146.354 Y124.818 E10.88689
G1 X146.162 Y125.112 E10.88716
G1 X146.031 Y125.28 E10.88749
G1 X145.135 Y126.425 E10.89364
G1 X144.976 Y126.596 E10.89529
G1 X144.006 Y127.642 E10.90917
G1 X143.811 Y127.82 E10.91247
G1 X142.774 Y128.768 E10.93349
G1 X142.542 Y128.947 E10.93866
G1 X141.473 Y129.772 E10.96562
G1 X141.178 Y129.963 E10.97347
G1 X140.068 Y130.682 E11.00592
G1 X139.729 Y130.863 E11.01619
G1 X138.618 Y131.459 E11.05232
G1 X138.204 Y131.637 E11.06608
G1 X137.814 Y131.805 E11.07915
G1 X137.078 Y132.124 E11.10449
G1 X135.517 Y132.652 E11.15656
G1 X133.899 Y133.052 E11.20922
G1 X132.262 Y133.315 E11.26161
G1 X130.613 Y133.441 E11.31387
G1 X128.945 Y133.43 E11.36657
G1 X127.295 Y133.282 E11.41892
G1 X125.664 Y132.997 E11.47123
G1 X124.051 Y132.577 E11.5239
G1 X122.479 Y132.023 E11.57656
G1 X120.977 Y131.35 E11.62857
G1 X119.512 Y130.54 E11.68146
G1 X118.136 Y129.623 E11.73371
G1 X116.838 Y128.594 E11.78605
G1 X116.053 Y127.856 E11.82009
G1 X115.875 Y127.689 E11.8277
G1 X115.621 Y127.451 E11.8387
G1 X114.708 Y126.439 E11.88176
G1 X114.515 Y126.226 E11.88969
G1 X113.654 Y125.095 E11.92578
G1 X113.513 Y124.91 E11.93119
G1 X112.722 Y123.671 E11.96173
G1 X112.611 Y123.497 E11.96557
G1 X111.915 Y122.176 E11.98937
G1 X111.838 Y122.031 E11.99161
G1 X111.241 Y120.625 E12.00805
G1 X111.193 Y120.512 E12.00905
G1 X110.622 Y118.785 E12.06652
G1 X109.834 Y118.798 E12.09143
G1 X109.513 Y118.786 E12.10158
G1 X109.512 Y118.785 E12.10162
G1 X109.257 Y118.777 E12.10968
G1 X109.31 Y119.027 E12.11458
G1 X109.632 Y120.535 E12.16331
G1 X109.66 Y120.664 E12.16748
G1 X110.101 Y122.129 E12.21582
G1 X110.145 Y122.273 E12.22058
G1 X110.691 Y123.662 E12.26773
G1 X110.76 Y123.836 E12.27365
G1 X111.397 Y125.13 E12.31922
G1 X111.502 Y125.344 E12.32675
G1 X112.219 Y126.542 E12.37087
G1 X112.365 Y126.786 E12.37985
G1 X113.343 Y128.151 E12.43291
G1 X113.506 Y128.343 E12.44087
G1 X114.431 Y129.433 E12.48604
G1 X115.619 Y130.62 E12.5391
G1 X116.902 Y131.706 E12.59221
G1 X118.269 Y132.683 E12.6453
G1 X119.712 Y133.544 E12.6984
G1 X121.22 Y134.283 E12.75146
G1 X122.785 Y134.896 E12.80457
G1 X124.394 Y135.379 E12.85765
G1 X126.038 Y135.728 E12.91075
G1 X127.705 Y135.941 E12.96385
G1 X129.383 Y136.016 E13.01693
G1 X131.063 Y135.954 E13.07005
G1 X132.731 Y135.753 E13.12313
G1 X133.975 Y135.497 E13.16326
G1 X134.377 Y135.415 E13.17622
G1 X134.791 Y135.295 E13.18984
G1 X135.99 Y134.945 E13.22931
G1 X136.345 Y134.809 E13.24132
G1 X137.558 Y134.342 E13.28239
G1 X137.868 Y134.193 E13.29326
G1 X139.073 Y133.614 E13.3355
G1 X139.323 Y133.467 E13.34467
G1 X140.521 Y132.762 E13.38859
G1 X140.733 Y132.613 E13.39677
G1 X141.896 Y131.796 E13.44168
G1 X142.078 Y131.644 E13.44918
G1 X143.186 Y130.719 E13.49478
G1 X143.327 Y130.58 E13.50104
G1 X143.587 Y130.325 E13.51254
G1 X143.342 Y130.594 E13.51282
G1 X143.197 Y130.729 E13.51311
G1 X142.138 Y131.714 E13.51922
G1 X141.949 Y131.862 E13.52093
G1 X140.827 Y132.745 E13.53487
G1 X140.607 Y132.89 E13.53819
G1 X139.438 Y133.662 E13.5593
G1 X139.178 Y133.804 E13.56453
G1 X137.993 Y134.452 E13.5915
G1 X137.671 Y134.595 E13.59938
G1 X136.468 Y135.128 E13.63156
G1 X136.099 Y135.256 E13.64192
G1 X134.902 Y135.673 E13.67809
G1 X134.472 Y135.783 E13.69165
G1 X134.074 Y135.885 E13.70431
G1 X133.287 Y136.087 E13.72998
G1 X131.653 Y136.365 E13.78235
