;FLAVOR:Marlin
;TIME:7082
;Filament used: 14.458m
;Layer height: 0.2
;MINX:78
;MINY:56.5
;MINZ:0.2
;MAXX:142
;MAXY:163.5
;MAXZ:30.8
;LINEARADVANCEPROCESSED
;Generated with Cura_SteamEngine 4.8.0
M140 S55
M105
M190 S55
M104 S220
M105
M109 S220
M82 ;absolute extrusion mode
G92 E0 ; Reset Extruder
G28 ; Home all axes
G29; Probe Bed
M500; Save to eprom
G1 Z2.0 F3000 ; Move Z Axis up little to prevent scratching of Heat Bed
G1 X0.1 Y20 Z0.3 F5000.0 ; Move to start position
G1 X0.1 Y200.0 Z0.3 F1500.0 E15 ; Draw the first line
G1 X0.4 Y200.0 Z0.3 F5000.0 ; Move to side a little
G1 X0.4 Y20 Z0.3 F1500.0 E30 ; Draw the second line
G92 E0 ; Reset Extruder
G1 Z2.0 F3000 ; Move Z Axis up little to prevent scratching of Heat Bed
G1 X5 Y20 Z0.3 F5000.0 ; Move over to prevent blob squish
G92 E0
G92 E0
G1 F2400 E-1.2
;LAYER_COUNT:154
M900 K0.000000 T0 ;added by LinearAdvanceSettingPlugin
;LAYER:0
M107
G0 F3600 X85.9 Y74.8 Z0.2
;TYPE:SUPPORT
G1 F2400 E0
G1 F3600 X134.1 Y74.8 E1.60314
G1 X134.1 Y123.5 E3.22291
G1 X127.999 Y123.5 E3.42583
G1 X127.6 Y123.899 E3.44459
G1 X127.6 Y131.5 E3.69741
G1 X125.2 Y131.5 E3.77723
G1 X125.2 Y123.899 E4.03004
G1 X124.801 Y123.5 E4.04881
G1 X95.199 Y123.5 E5.03337
G1 X94.8 Y123.899 E5.05214
G1 X94.8 Y131.5 E5.30495
G1 X92.4 Y131.5 E5.38478
G1 X92.4 Y123.899 E5.63759
G1 X92.001 Y123.5 E5.65635
G1 X85.9 Y123.5 E5.85927
G1 X85.9 Y74.8 E7.47904
G0 X88 Y74.96
G1 X88 Y123.34 E9.08817
G0 X86.059 Y120
G1 X133.94 Y120 E10.6807
G0 X128 Y123.34
G1 X128 Y74.96 E12.28982
G0 X133.94 Y80
G1 X86.06 Y80 E13.88232
G0 X86.06 Y88
G1 X133.94 Y88 E15.47481
G0 X133.94 Y96
G1 X86.06 Y96 E17.06731
G0 X86.06 Y104
G1 X133.94 Y104 E18.6598
G0 X133.94 Y112
G1 X86.06 Y112 E20.2523
G0 X96 Y123.34
G1 X96 Y74.96 E21.86142
G0 X104 Y74.96
G1 X104 Y123.34 E23.47055
G0 X112 Y123.34
G1 X112 Y74.96 E25.07967
G0 X120 Y74.96
G1 X120 Y123.34 E26.6888
G0 X125.359 Y128
G1 X127.439 Y128 E26.75798
G0 X94.639 Y128
G1 X92.559 Y128 E26.82716
G0 X104.327 Y150.2
G1 X115.673 Y150.2 E27.20453
G1 X115.673 Y157.2 E27.43735
G1 X104.327 Y157.2 E27.81472
G1 X104.327 Y150.2 E28.04754
G0 X104.486 Y152
G1 X115.512 Y152 E28.41427
G0 X112 Y150.36
G1 X112 Y157.04 E28.63645
G1 F2400 E27.43645
;MESH:0028fcf3-2910-4824-881a-3ac5444b12d1.stl
G0 F3600 X115.908 Y157.04
G0 X117.173 Y157.04
G0 X127.217 Y156.161
G0 X127.514 Y157.022
G0 X127.933 Y157.57
G0 X128.481 Y157.99
G0 X129.12 Y158.255
G0 X129.804 Y158.345
G0 X130.487 Y158.255
G0 X131.127 Y157.99
G0 X131.674 Y157.57
G0 X132.095 Y157.022
G0 X132.51 Y155.7
G0 X132.41 Y155.7
;TYPE:WALL-INNER
G1 F2400 E28.63645
G1 F3600 X132.32 Y155.026 E28.65906
G1 X132.061 Y154.397 E28.68169
G1 X131.646 Y153.858 E28.70431
G1 X131.107 Y153.444 E28.72692
G1 X130.477 Y153.183 E28.7496
G1 X129.804 Y153.095 E28.77217
G1 X129.13 Y153.183 E28.79478
G1 X128.501 Y153.444 E28.81743
G1 X127.961 Y153.858 E28.84006
G1 X127.548 Y154.397 E28.86265
G1 X127.287 Y155.026 E28.8853
G1 X127.199 Y155.7 E28.90791
G1 X127.287 Y156.374 E28.93051
G1 X127.548 Y157.003 E28.95316
G1 X127.961 Y157.542 E28.97575
G1 X128.501 Y157.956 E28.99838
G1 X129.13 Y158.217 E29.02103
G1 X129.804 Y158.305 E29.04364
G1 X130.477 Y158.217 E29.06621
G1 X131.107 Y157.956 E29.08889
G1 X131.646 Y157.542 E29.1115
G1 X132.061 Y157.003 E29.13412
G1 X132.32 Y156.374 E29.15675
G1 X132.41 Y155.7 E29.17936
G0 X132.006 Y155.7
;TYPE:WALL-OUTER
G1 X131.93 Y155.13 E29.19849
G1 X131.711 Y154.599 E29.21759
G1 X131.361 Y154.143 E29.23671
G1 X130.905 Y153.793 E29.25583
G1 X130.373 Y153.573 E29.27498
G1 X129.804 Y153.498 E29.29407
G1 X129.234 Y153.573 E29.31319
G1 X128.703 Y153.793 E29.33231
G1 X128.246 Y154.143 E29.35145
G1 X127.897 Y154.599 E29.37055
G1 X127.677 Y155.13 E29.38967
G1 X127.602 Y155.7 E29.40879
G1 X127.677 Y156.27 E29.42791
G1 X127.897 Y156.801 E29.44703
G1 X128.246 Y157.257 E29.46613
G1 X128.703 Y157.607 E29.48527
G1 X129.234 Y157.827 E29.50439
G1 X129.804 Y157.902 E29.52351
G1 X130.373 Y157.827 E29.5426
G1 X130.905 Y157.607 E29.56175
G1 X131.361 Y157.257 E29.58087
G1 X131.711 Y156.801 E29.59999
G1 X131.93 Y156.27 E29.61909
G1 X132.006 Y155.7 E29.63822
G0 X131.98 Y155.502
G0 X132.416 Y155.445
G0 X132.476 Y155.438
G0 X132.095 Y154.378
G0 X131.674 Y153.83
G0 X131.127 Y153.41
G0 X130.487 Y153.145
G0 X129.804 Y153.055
G0 X117.213 Y154.6
G0 X117.201 Y158.728
G0 X102.799 Y158.728
G0 X102.785 Y153.81
G0 X90.284 Y153.055
G0 X89.585 Y153.087
G0 X89.61 Y153.183
;TYPE:WALL-INNER
G1 X88.981 Y153.444 E29.66087
G1 X88.442 Y153.858 E29.68347
G1 X88.028 Y154.397 E29.70608
G1 X87.767 Y155.026 E29.72873
G1 X87.679 Y155.7 E29.75134
G1 X87.767 Y156.374 E29.77394
G1 X88.028 Y157.003 E29.79659
G1 X88.442 Y157.542 E29.8192
G1 X88.981 Y157.956 E29.8418
G1 X89.61 Y158.217 E29.86445
G1 X90.284 Y158.305 E29.88706
G1 X90.958 Y158.217 E29.90967
G1 X91.587 Y157.956 E29.93232
G1 X92.126 Y157.542 E29.95492
G1 X92.54 Y157.003 E29.97753
G1 X92.801 Y156.374 E30.00018
G1 X92.889 Y155.7 E30.02279
G1 X92.801 Y155.026 E30.04539
G1 X92.54 Y154.397 E30.06804
G1 X92.126 Y153.858 E30.09065
G1 X91.587 Y153.444 E30.11326
G1 X90.958 Y153.183 E30.13591
G1 X90.284 Y153.095 E30.15851
G1 X89.61 Y153.183 E30.18112
G0 X89.714 Y153.573
;TYPE:WALL-OUTER
G1 X89.183 Y153.793 E30.20024
G1 X88.727 Y154.143 E30.21936
G1 X88.377 Y154.599 E30.23848
G1 X88.157 Y155.13 E30.25759
G1 X88.082 Y155.7 E30.27671
G1 X88.157 Y156.27 E30.29584
G1 X88.377 Y156.801 E30.31495
G1 X88.727 Y157.257 E30.33407
G1 X89.183 Y157.607 E30.35319
G1 X89.714 Y157.827 E30.37231
G1 X90.284 Y157.902 E30.39143
G1 X90.854 Y157.827 E30.41055
G1 X91.385 Y157.607 E30.42967
G1 X91.841 Y157.257 E30.44879
G1 X92.191 Y156.801 E30.46791
G1 X92.411 Y156.27 E30.48702
G1 X92.486 Y155.7 E30.50615
G1 X92.411 Y155.13 E30.52527
G1 X92.191 Y154.599 E30.54438
G1 X91.841 Y154.143 E30.5635
G1 X91.385 Y153.793 E30.58262
G1 X90.854 Y153.573 E30.60174
G1 X90.284 Y153.498 E30.62086
G1 X89.714 Y153.573 E30.63998
G0 X89.529 Y153.649
G0 X89.362 Y153.242
G0 X89.34 Y153.187
G0 X102.757 Y148.63
G0 X102.827 Y148.7
;TYPE:WALL-INNER
G1 X102.827 Y158.7 E30.97258
G1 X117.173 Y158.7 E31.44973
G1 X117.173 Y148.7 E31.78233
G1 X102.827 Y148.7 E32.25948
G0 X103.227 Y149.1
;TYPE:WALL-OUTER
G1 X103.227 Y158.3 E32.56548
G1 X116.773 Y158.3 E33.01602
G1 X116.773 Y149.1 E33.32201
G1 X103.227 Y149.1 E33.77255
G0 X103.227 Y149.3
G0 X102.787 Y149.3
G0 X102.727 Y149.3
G0 X84.372 Y146.328
G0 X84.33 Y73.23
G0 X84.4 Y73.3
;TYPE:WALL-INNER
G1 X84.4 Y146.3 E36.20054
G1 X135.6 Y146.3 E37.90346
G1 X135.6 Y73.3 E40.33145
G1 X84.4 Y73.3 E42.03437
G0 X84.8 Y73.7
;TYPE:WALL-OUTER
G1 X84.8 Y145.9 E44.43575
G1 X135.2 Y145.9 E46.11207
G1 X135.2 Y73.7 E48.51345
G1 X84.8 Y73.7 E50.18976
G0 X84.8 Y73.9
G0 X84.36 Y73.9
G0 X84.3 Y73.9
G0 X84.372 Y73.272
G0 X87.729 Y63.016
G0 X87.994 Y62.377
G0 X88.414 Y61.83
G0 X89.585 Y61.087
G0 X89.61 Y61.183
;TYPE:WALL-INNER
G1 X88.981 Y61.444 E50.21241
G1 X88.442 Y61.858 E50.23501
G1 X88.028 Y62.397 E50.25762
G1 X87.767 Y63.026 E50.28027
G1 X87.679 Y63.7 E50.30288
G1 X87.767 Y64.374 E50.32548
G1 X88.028 Y65.003 E50.34813
G1 X88.442 Y65.542 E50.37074
G1 X88.981 Y65.956 E50.39334
G1 X89.61 Y66.217 E50.41599
G1 X90.284 Y66.305 E50.4386
G1 X90.958 Y66.217 E50.46121
G1 X91.587 Y65.956 E50.48386
G1 X92.126 Y65.542 E50.50646
G1 X92.54 Y65.003 E50.52907
G1 X92.801 Y64.374 E50.55172
G1 X92.889 Y63.7 E50.57433
G1 X92.801 Y63.026 E50.59693
G1 X92.54 Y62.397 E50.61958
G1 X92.126 Y61.858 E50.64219
G1 X91.587 Y61.444 E50.6648
G1 X90.958 Y61.183 E50.68745
G1 X90.284 Y61.095 E50.71005
G1 X89.61 Y61.183 E50.73266
G0 X89.714 Y61.573
;TYPE:WALL-OUTER
G1 X89.183 Y61.793 E50.75178
G1 X88.727 Y62.143 E50.7709
G1 X88.377 Y62.599 E50.79002
G1 X88.157 Y63.13 E50.80913
G1 X88.082 Y63.7 E50.82825
G1 X88.157 Y64.27 E50.84738
G1 X88.377 Y64.801 E50.86649
G1 X88.727 Y65.257 E50.88561
G1 X89.183 Y65.607 E50.90473
G1 X89.714 Y65.827 E50.92385
G1 X90.284 Y65.902 E50.94297
G1 X90.854 Y65.827 E50.96209
G1 X91.385 Y65.607 E50.98121
G1 X91.841 Y65.257 E51.00033
G1 X92.191 Y64.801 E51.01945
G1 X92.411 Y64.27 E51.03856
G1 X92.486 Y63.7 E51.05769
G1 X92.411 Y63.13 E51.07681
G1 X92.191 Y62.599 E51.09592
G1 X91.841 Y62.143 E51.11504
G1 X91.385 Y61.793 E51.13416
G1 X90.854 Y61.573 E51.15328
G1 X90.284 Y61.498 E51.1724
G1 X89.714 Y61.573 E51.19152
G0 X89.529 Y61.649
G0 X89.362 Y61.242
G0 X89.34 Y61.187
G0 X90.284 Y61.055
G0 X129.804 Y61.055
G0 X130.487 Y61.145
G0 X131.127 Y61.41
G0 X131.674 Y61.83
G0 X132.095 Y62.378
G0 X132.51 Y63.7
G0 X132.41 Y63.7
;TYPE:WALL-INNER
G1 X132.32 Y63.026 E51.21414
G1 X132.061 Y62.397 E51.23676
G1 X131.646 Y61.858 E51.25939
G1 X131.107 Y61.444 E51.28199
G1 X130.477 Y61.183 E51.30467
G1 X129.804 Y61.095 E51.32725
G1 X129.13 Y61.183 E51.34986
G1 X128.501 Y61.444 E51.37251
G1 X127.961 Y61.858 E51.39514
G1 X127.548 Y62.397 E51.41772
G1 X127.287 Y63.026 E51.44037
G1 X127.199 Y63.7 E51.46298
G1 X127.287 Y64.374 E51.48559
G1 X127.548 Y65.003 E51.50824
G1 X127.961 Y65.542 E51.53082
G1 X128.501 Y65.956 E51.55346
G1 X129.13 Y66.217 E51.57611
G1 X129.804 Y66.305 E51.59871
G1 X130.477 Y66.217 E51.62129
G1 X131.107 Y65.956 E51.64397
G1 X131.646 Y65.542 E51.66657
G1 X132.061 Y65.003 E51.6892
G1 X132.32 Y64.374 E51.71182
G1 X132.41 Y63.7 E51.73444
G0 X132.006 Y63.7
;TYPE:WALL-OUTER
G1 X131.93 Y63.13 E51.75357
G1 X131.711 Y62.599 E51.77267
G1 X131.361 Y62.143 E51.79179
G1 X130.905 Y61.793 E51.81091
G1 X130.373 Y61.573 E51.83006
G1 X129.804 Y61.498 E51.84914
G1 X129.234 Y61.573 E51.86827
G1 X128.703 Y61.793 E51.88738
G1 X128.246 Y62.143 E51.90653
G1 X127.897 Y62.599 E51.92563
G1 X127.677 Y63.13 E51.94474
G1 X127.602 Y63.7 E51.96387
G1 X127.677 Y64.27 E51.98299
G1 X127.897 Y64.801 E52.00211
G1 X128.246 Y65.257 E52.0212
G1 X128.703 Y65.607 E52.04035
G1 X129.234 Y65.827 E52.05947
G1 X129.804 Y65.902 E52.07859
G1 X130.373 Y65.827 E52.09768
G1 X130.905 Y65.607 E52.11682
G1 X131.361 Y65.257 E52.13594
G1 X131.711 Y64.801 E52.15506
G1 X131.93 Y64.27 E52.17417
G1 X132.006 Y63.7 E52.19329
G0 X131.98 Y63.502
G0 X132.416 Y63.445
G0 X132.476 Y63.438
G0 X138.844 Y57.066
G0 X138.863 Y56.968
;TYPE:WALL-INNER
G1 X139.504 Y57.161 E52.21556
G1 X140.082 Y57.471 E52.23737
G1 X140.602 Y57.898 E52.25975
G1 X141.029 Y58.418 E52.28213
G1 X141.339 Y58.996 E52.30395
G1 X141.532 Y59.637 E52.32621
G1 X141.6 Y60.329 E52.34934
G1 X141.6 Y159.671 E55.65347
G1 X141.532 Y160.363 E55.67659
G1 X141.339 Y161.004 E55.69886
G1 X141.029 Y161.582 E55.72067
G1 X140.602 Y162.102 E55.74305
G1 X140.082 Y162.529 E55.76543
G1 X139.504 Y162.839 E55.78725
G1 X138.863 Y163.032 E55.80951
G1 X138.171 Y163.1 E55.83264
G1 X81.829 Y163.1 E57.70658
G1 X81.137 Y163.032 E57.72971
G1 X80.496 Y162.839 E57.75197
G1 X79.918 Y162.529 E57.77379
G1 X79.398 Y162.102 E57.79617
G1 X78.971 Y161.582 E57.81855
G1 X78.661 Y161.004 E57.84036
G1 X78.468 Y160.363 E57.86263
G1 X78.4 Y159.671 E57.88575
G1 X78.4 Y60.329 E61.18988
G1 X78.468 Y59.637 E61.21301
G1 X78.661 Y58.996 E61.23527
G1 X78.971 Y58.418 E61.25709
G1 X79.398 Y57.898 E61.27947
G1 X79.918 Y57.471 E61.30185
G1 X80.496 Y57.161 E61.32366
G1 X81.137 Y56.968 E61.34593
G1 X81.829 Y56.9 E61.36905
G1 X138.171 Y56.9 E63.243
G1 X138.863 Y56.968 E63.26612
G0 X138.943 Y56.574
;TYPE:WALL-OUTER
G1 X139.655 Y56.789 E63.29086
G1 X140.307 Y57.139 E63.31547
G1 X140.886 Y57.614 E63.34038
G1 X141.361 Y58.193 E63.36529
G1 X141.711 Y58.845 E63.3899
G1 X141.926 Y59.557 E63.41464
G1 X142 Y60.31 E63.43981
G1 X142 Y159.69 E66.7452
G1 X141.926 Y160.443 E66.77036
G1 X141.711 Y161.155 E66.7951
G1 X141.361 Y161.807 E66.81971
G1 X140.886 Y162.386 E66.84462
G1 X140.307 Y162.861 E66.86953
G1 X139.655 Y163.211 E66.89414
G1 X138.943 Y163.426 E66.91888
G1 X138.19 Y163.5 E66.94405
G1 X81.81 Y163.5 E68.81925
G1 X81.057 Y163.426 E68.84442
G1 X80.345 Y163.211 E68.86916
G1 X79.693 Y162.861 E68.89377
G1 X79.114 Y162.386 E68.91868
G1 X78.639 Y161.807 E68.94359
G1 X78.289 Y161.155 E68.9682
G1 X78.074 Y160.443 E68.99294
G1 X78 Y159.69 E69.0181
G1 X78 Y60.31 E72.32349
G1 X78.074 Y59.557 E72.34866
G1 X78.289 Y58.845 E72.3734
G1 X78.639 Y58.193 E72.39801
G1 X79.114 Y57.614 E72.42292
G1 X79.693 Y57.139 E72.44783
G1 X80.345 Y56.789 E72.47244
G1 X81.057 Y56.574 E72.49718
G1 X81.81 Y56.5 E72.52234
G1 X138.19 Y56.5 E74.39755
G1 X138.943 Y56.574 E74.42271
G0 X139.134 Y56.631
G0 X139.006 Y57.052
G0 X138.783 Y57.352
;TYPE:SKIN
G1 X139.359 Y57.525 E74.44272
G1 X139.862 Y57.795 E74.46171
G1 X140.325 Y58.175 E74.48163
G1 X140.705 Y58.638 E74.50155
G1 X140.975 Y59.141 E74.52054
G1 X141.148 Y59.717 E74.54054
G1 X141.21 Y60.348 E74.56163
G1 X141.21 Y159.652 E77.86449
G1 X141.148 Y160.283 E77.88558
G1 X140.975 Y160.859 E77.90558
G1 X140.705 Y161.362 E77.92457
G1 X140.325 Y161.825 E77.94449
G1 X139.862 Y162.205 E77.96442
G1 X139.359 Y162.475 E77.9834
G1 X138.783 Y162.648 E78.00341
G1 X138.152 Y162.71 E78.02449
G1 X81.848 Y162.71 E79.89717
G1 X81.217 Y162.648 E79.91826
G1 X80.641 Y162.475 E79.93827
G1 X80.138 Y162.205 E79.95725
G1 X79.675 Y161.825 E79.97717
G1 X79.295 Y161.362 E79.9971
G1 X79.025 Y160.859 E80.01608
G1 X78.852 Y160.283 E80.03609
G1 X78.79 Y159.652 E80.05718
G1 X78.79 Y60.348 E83.36004
G1 X78.852 Y59.717 E83.38113
G1 X79.025 Y59.141 E83.40113
G1 X79.295 Y58.638 E83.42012
G1 X79.675 Y58.175 E83.44004
G1 X80.138 Y57.795 E83.45996
G1 X80.641 Y57.525 E83.47895
G1 X81.217 Y57.352 E83.49895
G1 X81.848 Y57.29 E83.52004
G1 X138.152 Y57.29 E85.39272
G1 X138.783 Y57.352 E85.41381
G0 X132.402 Y62.2
G1 X131.924 Y61.579 E85.43987
G1 X131.304 Y61.103 E85.46587
G1 X130.579 Y60.803 E85.49197
G1 X129.804 Y60.701 E85.51797
G1 X129.028 Y60.803 E85.544
G1 X128.304 Y61.103 E85.57006
G1 X127.682 Y61.579 E85.59612
G1 X127.207 Y62.2 E85.62212
G1 X126.907 Y62.924 E85.64819
G1 X126.805 Y63.7 E85.67422
G1 X126.907 Y64.476 E85.70025
G1 X127.207 Y65.2 E85.72631
G1 X127.682 Y65.821 E85.75232
G1 X128.304 Y66.297 E85.77837
G1 X129.028 Y66.597 E85.80443
G1 X129.804 Y66.699 E85.83047
G1 X130.579 Y66.597 E85.85647
G1 X131.304 Y66.297 E85.88256
G1 X131.924 Y65.821 E85.90856
G1 X132.402 Y65.2 E85.93462
G1 X132.7 Y64.476 E85.96066
G1 X132.804 Y63.7 E85.98671
G1 X132.7 Y62.924 E86.01275
G1 X132.402 Y62.2 E86.03879
G0 X135.99 Y72.91
G1 X84.01 Y72.91 E87.76765
G1 X84.01 Y146.69 E90.22158
G1 X135.99 Y146.69 E91.95044
G1 X135.99 Y72.91 E94.40438
G0 X93.181 Y62.924
G1 X92.881 Y62.2 E94.43044
G1 X92.405 Y61.579 E94.45647
G1 X91.784 Y61.103 E94.48249
G1 X91.06 Y60.803 E94.50856
G1 X90.284 Y60.701 E94.53459
G1 X89.508 Y60.803 E94.56062
G1 X88.784 Y61.103 E94.58669
G1 X88.163 Y61.579 E94.61271
G1 X87.687 Y62.2 E94.63873
G1 X87.387 Y62.924 E94.6648
G1 X87.285 Y63.7 E94.69083
G1 X87.387 Y64.476 E94.71686
G1 X87.687 Y65.2 E94.74293
G1 X88.163 Y65.821 E94.76895
G1 X88.784 Y66.297 E94.79498
G1 X89.508 Y66.597 E94.82104
G1 X90.284 Y66.699 E94.84707
G1 X91.06 Y66.597 E94.87311
G1 X91.784 Y66.297 E94.89917
G1 X92.405 Y65.821 E94.9252
G1 X92.881 Y65.2 E94.95122
G1 X93.181 Y64.476 E94.97729
G1 X93.283 Y63.7 E95.00332
G1 X93.181 Y62.924 E95.02935
G0 X91.039 Y73.267
G0 X84.372 Y73.272
G0 X84.372 Y146.328
G0 X117.563 Y148.31
G1 X102.437 Y148.31 E95.53244
G1 X102.437 Y159.09 E95.89099
G1 X117.563 Y159.09 E96.39408
G1 X117.563 Y148.31 E96.75262
G0 X129.804 Y152.701
G1 X129.028 Y152.803 E96.77866
G1 X128.304 Y153.103 E96.80472
G1 X127.682 Y153.579 E96.83077
G1 X127.207 Y154.2 E96.85678
G1 X126.907 Y154.924 E96.88284
G1 X126.805 Y155.7 E96.90887
G1 X126.907 Y156.476 E96.93491
G1 X127.207 Y157.2 E96.96097
G1 X127.682 Y157.821 E96.98698
G1 X128.304 Y158.297 E97.01303
G1 X129.028 Y158.597 E97.03909
G1 X129.804 Y158.699 E97.06512
G1 X130.579 Y158.597 E97.09112
G1 X131.304 Y158.297 E97.11722
G1 X131.924 Y157.821 E97.14322
G1 X132.402 Y157.2 E97.16928
G1 X132.7 Y156.476 E97.19532
G1 X132.804 Y155.7 E97.22136
G1 X132.7 Y154.924 E97.2474
G1 X132.402 Y154.2 E97.27344
G1 X131.924 Y153.579 E97.29951
G1 X131.304 Y153.103 E97.32551
G1 X130.579 Y152.803 E97.3516
G1 X129.804 Y152.701 E97.3776
G0 X117.201 Y148.672
G0 X102.799 Y148.672
G0 X91.784 Y153.103
G1 X91.06 Y152.803 E97.40367
G1 X90.284 Y152.701 E97.4297
G1 X89.508 Y152.803 E97.45573
G1 X88.784 Y153.103 E97.4818
G1 X88.163 Y153.579 E97.50782
G1 X87.687 Y154.2 E97.53384
