;FLAVOR:Marlin
;TIME:3905
;Filament used: 6.66112m
;Layer height: 0.2
;MINX:85.624
;MINY:87.205
;MINZ:0.2
;MAXX:132.8
;MAXY:132.795
;MAXZ:60
;LINEARADVANCEPROCESSED
;Generated with Cura_SteamEngine 4.8.0
M140 S50
M105
M190 S50
M104 S200
M105
M109 S200
M82 ;absolute extrusion mode
G92 E0 ; Reset Extruder
G28 ; Home all axes
G29; Probe Bed
M500; Save to eprom
G1 Z2.0 F3000 ; Move Z Axis up little to prevent scratching of Heat Bed
G1 X0.1 Y20 Z0.3 F5000.0 ; Move to start position
G1 X0.1 Y200.0 Z0.3 F1500.0 E15 ; Draw the first line
G1 X0.4 Y200.0 Z0.3 F5000.0 ; Move to side a little
G1 X0.4 Y20 Z0.3 F1500.0 E30 ; Draw the second line
G92 E0 ; Reset Extruder
G1 Z2.0 F3000 ; Move Z Axis up little to prevent scratching of Heat Bed
G1 X5 Y20 Z0.3 F5000.0 ; Move over to prevent blob squish
G92 E0
G92 E0
G1 F2400 E-1.2
;LAYER_COUNT:300
M900 K0.000000 T0 ;added by LinearAdvanceSettingPlugin
;LAYER:0
M107
G0 F5400 X92.892 Y99.111 Z0.2
;TYPE:SUPPORT
G1 F2400 E0
G1 F2700 X93.921 Y98.139 E0.04473
G1 X95.087 Y97.186 E0.09231
G1 X96.289 Y96.353 E0.13852
G1 X97.53 Y95.615 E0.18414
G1 X98.898 Y94.938 E0.23237
G1 X100.171 Y94.418 E0.27582
G1 X101.666 Y93.944 E0.32537
G1 X103.122 Y93.591 E0.37271
G1 X106.1 Y90.292 E0.51314
G1 X106.1 Y91.061 E0.53744
G1 X106.71 Y91.671 E0.56469
G1 X106.283 Y92.695 E0.59975
G1 X106.624 Y93.205 E0.61913
G1 X122.406 Y93.205 E1.1178
G1 X121.689 Y93.596 E1.1436
G1 X121.541 Y94.147 E1.16163
G1 X123.263 Y96.986 E1.26655
G1 X125.849 Y98.486 E1.36101
G1 X126.395 Y98.333 E1.37892
G1 X126.8 Y97.592 E1.40561
G1 X126.8 Y113.381 E1.90449
G1 X127.31 Y113.722 E1.92388
G1 X128.334 Y113.295 E1.95894
G1 X128.944 Y113.905 E1.98619
G1 X129.703 Y113.905 E2.01018
G1 X126.422 Y116.872 E2.14995
G1 X126.064 Y118.365 E2.19846
G1 X125.612 Y119.761 E2.24482
G1 X125.041 Y121.157 E2.29248
G1 X124.384 Y122.485 E2.3393
G1 X123.655 Y123.711 E2.38436
G1 X122.802 Y124.938 E2.43158
G1 X121.887 Y126.064 E2.47743
G1 X120.898 Y127.107 E2.52284
G1 X119.74 Y128.159 E2.57228
G1 X118.626 Y129.029 E2.61694
G1 X117.387 Y129.862 E2.66411
G1 X116.109 Y130.584 E2.71049
G1 X114.802 Y131.202 E2.75617
G1 X113.41 Y131.74 E2.80333
G1 X111.97 Y132.171 E2.85082
G1 X110.61 Y132.473 E2.89484
G1 X109.254 Y132.67 E2.93814
G1 X109.086 Y132.7 E2.94353
G1 X107.636 Y132.795 E2.98944
G1 X106.233 Y132.788 E3.03377
G1 X104.703 Y132.667 E3.08227
G1 X103.2 Y132.43 E3.13034
G1 X101.787 Y132.107 E3.17614
G1 X100.192 Y131.59 E3.22912
G1 X98.951 Y131.098 E3.2713
G1 X97.736 Y130.504 E3.31404
G1 X96.399 Y129.725 E3.36293
G1 X95.241 Y128.935 E3.40722
G1 X94.044 Y127.98 E3.45561
G1 X93.006 Y127.011 E3.50047
G1 X91.945 Y125.868 E3.54975
G1 X91.077 Y124.769 E3.594
G1 X90.265 Y123.588 E3.63929
G1 X90.209 Y123.49 E3.64285
G1 X90.011 Y123.116 E3.65622
G1 X89.501 Y122.278 E3.68722
G1 X88.843 Y120.913 E3.7351
G1 X88.339 Y119.634 E3.77854
G1 X87.875 Y118.138 E3.82803
G1 X87.412 Y116.187 E3.89139
G1 X86.991 Y115.854 E3.90835
G1 X85.808 Y115.854 E3.94573
G1 X85.655 Y114.25 E3.99664
G1 X85.624 Y113.284 E4.02718
G1 X85.624 Y112.467 E4.05299
G1 X85.658 Y111.695 E4.07741
G1 X85.796 Y110.156 E4.12623
G1 X87.012 Y110.156 E4.16465
G1 X87.434 Y109.819 E4.18172
G1 X87.833 Y108.045 E4.23917
G1 X88.273 Y106.565 E4.28796
G1 X88.779 Y105.261 E4.33215
G1 X88.81 Y105.19 E4.3346
G1 X89.429 Y103.88 E4.38038
G1 X90.157 Y102.597 E4.42699
G1 X90.973 Y101.376 E4.4734
G1 X91.863 Y100.245 E4.51887
G1 X92.892 Y99.111 E4.56725
G0 F5400 X96 Y96.747
G1 F2700 X96 Y129.258 E5.59451
G0 F5400 X94.324 Y128
G1 F2700 X119.676 Y128 E6.39556
G0 F5400 X120 Y127.708
G1 F2700 X120 Y93.365 E7.4807
G0 F5400 X122.478 Y96
G1 F2700 X97.195 Y96 E8.27957
G0 F5400 X104 Y92.856
G1 F2700 X104 Y132.393 E9.52882
G0 F5400 X112 Y131.995
G1 F2700 X112 Y93.365 E10.74942
G0 F5400 X126.64 Y104
G1 F2700 X89.549 Y104 E11.92139
G0 F5400 X88 Y108.044
G1 F2700 X88 Y117.972 E12.23509
G0 F5400 X88.653 Y120
G1 F2700 X125.34 Y120 E13.39429
G0 F5400 X128 Y115.23
G1 F2700 X128 Y113.607 E13.44557
G0 F5400 X126.64 Y112
G1 F2700 X85.805 Y112 E14.73584
G1 F2400 E13.53584
;MESH:2a910bb3-fe1c-4d01-9da0-58766c8ad22c.stl
G0 F5400 X106.335 Y90.191
G0 X107.614 Y90.191
G0 X129.87 Y90.135
G0 X129.8 Y90.205
;TYPE:WALL-INNER
G1 F2400 E14.73584
G1 F2700 X107.6 Y90.205 E15.4373
G1 X107.6 Y87.605 E15.51945
G1 X132.4 Y87.605 E16.30306
G1 X132.4 Y112.405 E17.08667
G1 X129.8 Y112.405 E17.16882
G1 X129.8 Y90.205 E17.87028
G0 F5400 X129.4 Y90.605
;TYPE:WALL-OUTER
G1 F2700 X107.2 Y90.605 E18.57173
G1 X107.2 Y87.205 E18.67916
G1 X132.8 Y87.205 E19.48805
G1 X132.8 Y112.805 E20.29694
G1 X129.4 Y112.805 E20.40437
G1 X129.4 Y90.605 E21.10582
G0 F5400 X129.2 Y90.605
G0 X129.2 Y90.165
G0 X129.2 Y90.105
G0 X130.19 Y89.815
;TYPE:SKIN
G1 F2700 X107.99 Y89.815 E21.80728
G1 X107.99 Y87.995 E21.86479
G1 X132.01 Y87.995 E22.62375
G1 X132.01 Y112.015 E23.38271
G1 X130.19 Y112.015 E23.44022
G1 X130.19 Y89.815 E24.14167
G0 F5400 X131.829 Y88.271
G1 F2700 X131.733 Y88.175 E24.14596
G0 F5400 X131.167 Y88.175
G1 F2700 X131.829 Y88.837 E24.17555
G0 F5400 X131.829 Y89.403
G1 F2700 X130.601 Y88.175 E24.23042
G0 F5400 X130.036 Y88.175
G1 F2700 X131.829 Y89.968 E24.31054
G0 F5400 X131.829 Y90.534
G1 F2700 X129.47 Y88.175 E24.41595
G0 F5400 X128.904 Y88.175
G1 F2700 X130.364 Y89.634 E24.48117
G0 F5400 X130.369 Y89.639
G1 F2700 X131.829 Y91.1 E24.54643
G0 F5400 X131.829 Y91.665
G1 F2700 X130.369 Y90.205 E24.61167
G0 F5400 X130.369 Y90.771
G1 F2700 X131.829 Y92.231 E24.67691
G0 F5400 X131.829 Y92.797
G1 F2700 X130.369 Y91.336 E24.74218
G0 F5400 X130.369 Y91.902
G1 F2700 X131.829 Y93.362 E24.80742
G0 F5400 X131.829 Y93.928
G1 F2700 X130.369 Y92.468 E24.87266
G0 F5400 X130.369 Y93.034
G1 F2700 X131.829 Y94.494 E24.9379
G0 F5400 X131.829 Y95.059
G1 F2700 X130.369 Y93.599 E25.00314
G0 F5400 X130.369 Y94.165
G1 F2700 X131.829 Y95.625 E25.06838
G0 F5400 X131.829 Y96.191
G1 F2700 X130.369 Y94.731 E25.13362
G0 F5400 X130.369 Y95.296
G1 F2700 X131.829 Y96.756 E25.19886
G0 F5400 X131.829 Y97.322
G1 F2700 X130.369 Y95.862 E25.2641
G0 F5400 X130.369 Y96.428
G1 F2700 X131.829 Y97.888 E25.32934
G0 F5400 X131.829 Y98.454
G1 F2700 X130.369 Y96.993 E25.3946
G0 F5400 X130.369 Y97.559
G1 F2700 X131.829 Y99.019 E25.45984
G0 F5400 X131.829 Y99.585
G1 F2700 X130.369 Y98.125 E25.52508
G0 F5400 X130.369 Y98.69
G1 F2700 X131.829 Y100.151 E25.59034
G0 F5400 X131.829 Y100.716
G1 F2700 X130.369 Y99.256 E25.65558
G0 F5400 X130.369 Y99.822
G1 F2700 X131.829 Y101.282 E25.72082
G0 F5400 X131.829 Y101.848
G1 F2700 X130.369 Y100.387 E25.78609
G0 F5400 X130.369 Y100.953
G1 F2700 X131.829 Y102.413 E25.85133
G0 F5400 X131.829 Y102.979
G1 F2700 X130.369 Y101.519 E25.91657
G0 F5400 X130.369 Y102.085
G1 F2700 X131.829 Y103.545 E25.98181
G0 F5400 X131.829 Y104.11
G1 F2700 X130.369 Y102.65 E26.04705
G0 F5400 X130.369 Y103.216
G1 F2700 X131.829 Y104.676 E26.11229
G0 F5400 X131.829 Y105.242
G1 F2700 X130.369 Y103.782 E26.17753
G0 F5400 X130.369 Y104.347
G1 F2700 X131.829 Y105.807 E26.24277
G0 F5400 X131.829 Y106.373
G1 F2700 X130.369 Y104.913 E26.30801
G0 F5400 X130.369 Y105.479
G1 F2700 X131.829 Y106.939 E26.37325
G0 F5400 X131.829 Y107.504
G1 F2700 X130.369 Y106.044 E26.43849
G0 F5400 X130.369 Y106.61
G1 F2700 X131.829 Y108.07 E26.50373
G0 F5400 X131.829 Y108.636
G1 F2700 X130.369 Y107.176 E26.56897
G0 F5400 X130.369 Y107.741
G1 F2700 X131.829 Y109.202 E26.63423
G0 F5400 X131.829 Y109.767
G1 F2700 X130.369 Y108.307 E26.69947
G0 F5400 X130.369 Y108.873
G1 F2700 X131.829 Y110.333 E26.76471
G0 F5400 X131.829 Y110.899
G1 F2700 X130.369 Y109.438 E26.82997
G0 F5400 X130.369 Y110.004
G1 F2700 X131.829 Y111.464 E26.89521
G0 F5400 X131.633 Y111.834
G1 F2700 X130.369 Y110.57 E26.9517
G0 F5400 X130.369 Y111.135
G1 F2700 X131.067 Y111.834 E26.98291
G0 F5400 X130.502 Y111.834
G1 F2700 X130.369 Y111.701 E26.98885
G0 F5400 X129.798 Y89.634
G1 F2700 X128.339 Y88.175 E27.05405
G0 F5400 X127.773 Y88.175
G1 F2700 X129.232 Y89.634 E27.11924
G0 F5400 X128.667 Y89.634
G1 F2700 X127.207 Y88.175 E27.18446
G0 F5400 X126.642 Y88.175
G1 F2700 X128.101 Y89.634 E27.24966
G0 F5400 X127.535 Y89.634
G1 F2700 X126.076 Y88.175 E27.31485
G0 F5400 X125.51 Y88.175
G1 F2700 X126.97 Y89.634 E27.38007
G0 F5400 X126.404 Y89.634
G1 F2700 X124.945 Y88.175 E27.44527
G0 F5400 X124.379 Y88.175
G1 F2700 X125.838 Y89.634 E27.51046
G0 F5400 X125.273 Y89.634
G1 F2700 X123.813 Y88.175 E27.57568
G0 F5400 X123.248 Y88.175
G1 F2700 X124.707 Y89.634 E27.64087
G0 F5400 X124.141 Y89.634
G1 F2700 X122.682 Y88.175 E27.70607
G0 F5400 X122.116 Y88.175
G1 F2700 X123.576 Y89.634 E27.77129
G0 F5400 X123.01 Y89.634
G1 F2700 X121.55 Y88.175 E27.83651
G0 F5400 X120.985 Y88.175
G1 F2700 X122.444 Y89.634 E27.9017
G0 F5400 X121.879 Y89.634
G1 F2700 X120.419 Y88.175 E27.96692
G0 F5400 X119.853 Y88.175
G1 F2700 X121.313 Y89.634 E28.03214
G0 F5400 X120.747 Y89.634
G1 F2700 X119.288 Y88.175 E28.09733
G0 F5400 X118.722 Y88.175
G1 F2700 X120.181 Y89.634 E28.16253
G0 F5400 X119.616 Y89.634
G1 F2700 X118.156 Y88.175 E28.22775
G0 F5400 X117.591 Y88.175
G1 F2700 X119.05 Y89.634 E28.29294
G0 F5400 X118.484 Y89.634
G1 F2700 X117.025 Y88.175 E28.35814
G0 F5400 X116.459 Y88.175
G1 F2700 X117.919 Y89.634 E28.42336
G0 F5400 X117.353 Y89.634
G1 F2700 X115.894 Y88.175 E28.48855
G0 F5400 X115.328 Y88.175
G1 F2700 X116.787 Y89.634 E28.55375
G0 F5400 X116.222 Y89.634
G1 F2700 X114.762 Y88.175 E28.61896
G0 F5400 X114.197 Y88.175
G1 F2700 X115.656 Y89.634 E28.68416
G0 F5400 X115.09 Y89.634
G1 F2700 X113.631 Y88.175 E28.74936
G0 F5400 X113.065 Y88.175
G1 F2700 X114.525 Y89.634 E28.81457
G0 F5400 X113.959 Y89.634
G1 F2700 X112.499 Y88.175 E28.87979
G0 F5400 X111.934 Y88.175
G1 F2700 X113.393 Y89.634 E28.94499
G0 F5400 X112.828 Y89.634
G1 F2700 X111.368 Y88.175 E29.0102
G0 F5400 X110.802 Y88.175
G1 F2700 X112.262 Y89.634 E29.07542
G0 F5400 X111.696 Y89.634
G1 F2700 X110.237 Y88.175 E29.14062
G0 F5400 X109.671 Y88.175
G1 F2700 X111.131 Y89.634 E29.20584
G0 F5400 X110.565 Y89.634
G1 F2700 X109.105 Y88.175 E29.27105
G0 F5400 X108.54 Y88.175
G1 F2700 X109.999 Y89.634 E29.33625
G0 F5400 X109.433 Y89.634
G1 F2700 X108.168 Y88.369 E29.39278
G0 F5400 X108.168 Y88.935
G1 F2700 X108.868 Y89.634 E29.42403
G0 F5400 X108.302 Y89.634
G1 F2700 X108.168 Y89.501 E29.43
G1 F2400 E28.23
;MESH:NONMESH
G0 F600 X108.168 Y89.501 Z0.4
G0 F5400 X107.614 Y90.191
G0 X107.614 Y91.47
G0 X88 Y118.539
;TIME_ELAPSED:28.542737
;LAYER:1
M106 S204
;TYPE:SUPPORT
G1 F2400 E29.43
G1 F4950 X88.339 Y119.632 E29.46616
G1 X88.847 Y120.92 E29.50991
G1 X89.502 Y122.279 E29.55757
G1 X90.012 Y123.118 E29.5886
G1 X90.018 Y123.129 E29.58899
G1 X90.214 Y123.498 E29.60219
G1 X90.265 Y123.588 E29.60546
G1 X91.077 Y124.769 E29.65075
G1 X91.945 Y125.868 E29.695
G1 X93.011 Y127.016 E29.7445
G1 X93.272 Y127.26 E29.75579
G1 X94.036 Y127.973 E29.78881
G1 X95.245 Y128.937 E29.83767
G1 X95.824 Y129.333 E29.85983
G1 X96 Y129.452 E29.86654
G1 X96 Y96.553 E30.90606
G1 X96.289 Y96.353 E30.91716
G1 X97.53 Y95.615 E30.96278
G1 X98.898 Y94.938 E31.01101
G1 X100.171 Y94.418 E31.05446
G1 X101.666 Y93.944 E31.10402
G1 X103.122 Y93.591 E31.15135
G1 X104 Y92.618 E31.19277
G1 X104 Y132.556 E32.45469
G1 X104.703 Y132.667 E32.47718
G1 X106.233 Y132.788 E32.52567
G1 X106.704 Y132.79 E32.54056
G1 X107.636 Y132.795 E32.57001
G1 X108.802 Y132.718 E32.60693
G1 X109.085 Y132.7 E32.61589
G1 X109.122 Y132.693 E32.61708
G1 X109.254 Y132.67 E32.62131
G1 X109.402 Y132.648 E32.62604
G1 X110.449 Y132.497 E32.65946
G1 X110.618 Y132.471 E32.66487
G1 X111.522 Y132.271 E32.69412
G1 X111.967 Y132.172 E32.70853
G1 X112 Y132.163 E32.70961
G1 X112 Y93.205 E33.94057
G1 X120 Y93.205 E34.19334
G1 X120 Y127.923 E35.29033
G1 X120.029 Y127.896 E35.29159
G1 X120.904 Y127.1 E35.32896
G1 X121.887 Y126.064 E35.37409
G1 X122.802 Y124.938 E35.41993
G1 X123.655 Y123.711 E35.46715
G1 X123.727 Y123.59 E35.4716
G1 X124.384 Y122.485 E35.51222
G1 X125.041 Y121.157 E35.55903
G1 X125.612 Y119.761 E35.60669
G1 X126.064 Y118.365 E35.65305
G1 X126.422 Y116.872 E35.70157
G1 X127.217 Y116.154 E35.73541
G1 X128 Y115.446 E35.76877
G1 X128 Y113.435 E35.83231
G1 X128.335 Y113.296 E35.84377
G1 X128.944 Y113.905 E35.87098
G1 X129.703 Y113.905 E35.89497
G1 X128 Y115.446 E35.96753
G0 F9900 X88 Y118.539
G1 F4950 X87.874 Y118.134 E35.98094
G1 X87.413 Y116.188 E36.04413
G1 X86.991 Y115.854 E36.06113
G1 X85.808 Y115.854 E36.09851
G1 X85.655 Y114.25 E36.14942
G1 X85.624 Y113.285 E36.17993
G1 X85.624 Y112.467 E36.20578
G1 X85.633 Y112.266 E36.21213
G1 X85.658 Y111.695 E36.23019
G1 X85.796 Y110.156 E36.27902
G1 X87.014 Y110.156 E36.3175
G1 X87.436 Y109.819 E36.33457
G1 X87.835 Y108.037 E36.39227
G1 X88 Y107.482 E36.41056
G1 X88 Y118.539 E36.75993
G1 F2400 E35.55993
;MESH:2a910bb3-fe1c-4d01-9da0-58766c8ad22c.stl
G0 F9900 X107.614 Y91.47
G0 X107.614 Y90.191
G0 X130.2 Y89.805
;TYPE:WALL-INNER
G1 F2400 E36.75993
G1 F4050 X108 Y89.805 E37.46139
G1 X108 Y88.005 E37.51826
G1 X132 Y88.005 E38.27659
G1 X132 Y112.005 E39.03492
G1 X130.2 Y112.005 E39.0918
G1 X130.2 Y89.805 E39.79325
G0 F9900 X129.8 Y90.205
G1 F4050 X107.6 Y90.205 E40.49471
G1 X107.6 Y87.605 E40.57686
G1 X132.4 Y87.605 E41.36047
G1 X132.4 Y112.405 E42.14408
G1 X129.8 Y112.405 E42.22623
G1 X129.8 Y90.205 E42.92769
G0 F9900 X129.4 Y90.605
;TYPE:WALL-OUTER
G1 F2700 X107.2 Y90.605 E43.62915
G1 X107.2 Y87.205 E43.73658
G1 X132.8 Y87.205 E44.54546
G1 X132.8 Y112.805 E45.35435
G1 X129.4 Y112.805 E45.46178
G1 X129.4 Y90.605 E46.16324
G0 F9900 X129.2 Y90.605
G0 X129.2 Y90.165
G0 X129.2 Y90.105
G0 X130.59 Y89.415
;TYPE:SKIN
G1 F3150 X108.39 Y89.415 E46.86469
G1 X108.39 Y88.395 E46.89692
G1 X131.61 Y88.395 E47.63061
G1 X131.61 Y111.615 E48.36429
G1 X130.59 Y111.615 E48.39652
G1 X130.59 Y89.415 E49.09798
G0 F9900 X108.849 Y88.575
G1 F3150 X108.569 Y88.855 E49.11049
G0 F9900 X108.754 Y89.235
G1 F3150 X109.414 Y88.575 E49.13998
G0 F9900 X109.98 Y88.575
G1 F3150 X109.32 Y89.235 E49.16947
G0 F9900 X109.885 Y89.235
G1 F3150 X110.546 Y88.575 E49.19899
G0 F9900 X111.111 Y88.575
G1 F3150 X110.451 Y89.235 E49.22848
G0 F9900 X111.017 Y89.235
G1 F3150 X111.677 Y88.575 E49.25797
G0 F9900 X112.243 Y88.575
G1 F3150 X111.582 Y89.235 E49.28749
G0 F9900 X112.148 Y89.235
G1 F3150 X112.808 Y88.575 E49.31698
G0 F9900 X113.374 Y88.575
G1 F3150 X112.714 Y89.235 E49.34647
G0 F9900 X113.279 Y89.235
G1 F3150 X113.94 Y88.575 E49.37598
G0 F9900 X114.506 Y88.575
G1 F3150 X113.845 Y89.235 E49.4055
G0 F9900 X114.411 Y89.235
G1 F3150 X115.071 Y88.575 E49.43499
G0 F9900 X115.637 Y88.575
G1 F3150 X114.976 Y89.235 E49.46451
G0 F9900 X115.542 Y89.235
G1 F3150 X116.203 Y88.575 E49.49402
G0 F9900 X116.768 Y88.575
G1 F3150 X116.108 Y89.235 E49.52351
G0 F9900 X116.674 Y89.235
G1 F3150 X117.334 Y88.575 E49.553
G0 F9900 X117.9 Y88.575
G1 F3150 X117.239 Y89.235 E49.58252
G0 F9900 X117.805 Y89.235
G1 F3150 X118.465 Y88.575 E49.61201
G0 F9900 X119.031 Y88.575
G1 F3150 X118.371 Y89.235 E49.6415
G0 F9900 X118.936 Y89.235
G1 F3150 X119.597 Y88.575 E49.67102
G0 F9900 X120.162 Y88.575
G1 F3150 X119.502 Y89.235 E49.70051
G0 F9900 X120.068 Y89.235
G1 F3150 X120.728 Y88.575 E49.73
G0 F9900 X121.294 Y88.575
G1 F3150 X120.633 Y89.235 E49.75952
G0 F9900 X121.199 Y89.235
G1 F3150 X121.859 Y88.575 E49.78901
G0 F9900 X122.425 Y88.575
G1 F3150 X121.765 Y89.235 E49.8185
G0 F9900 X122.33 Y89.235
G1 F3150 X122.991 Y88.575 E49.84802
G0 F9900 X123.557 Y88.575
G1 F3150 X122.896 Y89.235 E49.87753
G0 F9900 X123.462 Y89.235
G1 F3150 X124.122 Y88.575 E49.90702
G0 F9900 X124.688 Y88.575
G1 F3150 X124.027 Y89.235 E49.93654
G0 F9900 X124.593 Y89.235
G1 F3150 X125.254 Y88.575 E49.96605
G0 F9900 X125.819 Y88.575
G1 F3150 X125.159 Y89.235 E49.99554
G0 F9900 X125.724 Y89.235
G1 F3150 X126.385 Y88.575 E50.02506
G0 F9900 X126.951 Y88.575
G1 F3150 X126.29 Y89.235 E50.05457
G0 F9900 X126.856 Y89.235
G1 F3150 X127.516 Y88.575 E50.08406
G0 F9900 X128.082 Y88.575
G1 F3150 X127.422 Y89.235 E50.11356
G0 F9900 X127.987 Y89.235
G1 F3150 X128.648 Y88.575 E50.14307
G0 F9900 X129.213 Y88.575
G1 F3150 X128.553 Y89.235 E50.17256
G0 F9900 X129.119 Y89.235
G1 F3150 X129.779 Y88.575 E50.20206
G0 F9900 X130.345 Y88.575
G1 F3150 X129.684 Y89.235 E50.23157
G0 F9900 X130.25 Y89.235
