;FLAVOR:Marlin
;TIME:2220
;Filament used: 2.98605m
;Layer height: 0.2
;MINX:69.4
;MINY:69.4
;MINZ:0.2
;MAXX:150.6
;MAXY:150.6
;MAXZ:2.4
;LINEARADVANCEPROCESSED
;Generated with Cura_SteamEngine 4.8.0
M104 S215
M105
M109 S215
M82 ;absolute extrusion mode
G92 E0 ; Reset Extruder
G28 ; Home all axes
G29; Probe Bed
M500; Save to eprom
G1 Z2.0 F3000 ; Move Z Axis up little to prevent scratching of Heat Bed
G1 X0.1 Y20 Z0.3 F5000.0 ; Move to start position
G1 X0.1 Y200.0 Z0.3 F1500.0 E15 ; Draw the first line
G1 X0.4 Y200.0 Z0.3 F5000.0 ; Move to side a little
G1 X0.4 Y20 Z0.3 F1500.0 E30 ; Draw the second line
G92 E0 ; Reset Extruder
G1 Z2.0 F3000 ; Move Z Axis up little to prevent scratching of Heat Bed
G1 X5 Y20 Z0.3 F5000.0 ; Move over to prevent blob squish
G92 E0
G92 E0
G1 F2400 E-1.2
;LAYER_COUNT:12
M900 K0.000000 T0 ;added by LinearAdvanceSettingPlugin
;LAYER:0
M107
;MESH:b71a0c5c-6204-49a8-b622-17f4a4983700.stl
G0 F3600 X114.36 Y117.189 Z0.2
;TYPE:WALL-INNER
G1 F2400 E0
G1 F3600 X113.668 Y117.556 E0.02605
G1 X113.174 Y117.785 E0.04416
G1 X112.436 Y118.04 E0.07013
G1 X111.908 Y118.188 E0.08837
G1 X111.155 Y118.32 E0.1138
G1 X110.618 Y118.385 E0.13179
G1 X109.842 Y118.398 E0.1576
G1 X109.305 Y118.379 E0.17547
G1 X108.513 Y118.268 E0.20207
G1 X107.999 Y118.166 E0.2195
G1 X107.262 Y117.94 E0.24514
G1 X106.737 Y117.749 E0.26372
G1 X106.042 Y117.408 E0.28947
G1 X105.569 Y117.146 E0.30746
G1 X104.918 Y116.689 E0.33391
G1 X104.511 Y116.368 E0.35115
G1 X103.94 Y115.816 E0.37757
G1 X103.575 Y115.422 E0.39543
G1 X103.099 Y114.791 E0.42172
G1 X102.811 Y114.359 E0.43899
G1 X102.441 Y113.663 E0.4652
G1 X102.213 Y113.17 E0.48327
G1 X101.959 Y112.433 E0.5092
G1 X101.812 Y111.908 E0.52733
G1 X101.679 Y111.147 E0.55303
G1 X101.615 Y110.617 E0.57078
G1 X101.602 Y109.851 E0.59626
G1 X101.622 Y109.304 E0.61447
G1 X101.733 Y108.507 E0.64123
G1 X101.836 Y107.99 E0.65877
G1 X102.059 Y107.264 E0.68403
G1 X102.253 Y106.734 E0.7028
G1 X102.59 Y106.045 E0.72831
G1 X102.854 Y105.569 E0.74641
G1 X103.311 Y104.918 E0.77287
G1 X103.632 Y104.511 E0.79011
G1 X104.17 Y103.953 E0.81589
G1 X104.581 Y103.573 E0.8345
G1 X105.209 Y103.099 E0.86067
G1 X105.64 Y102.811 E0.87791
G1 X106.332 Y102.444 E0.90397
G1 X106.827 Y102.215 E0.92211
G1 X107.563 Y101.96 E0.94801
G1 X108.092 Y101.812 E0.96629
G1 X108.845 Y101.68 E0.99171
G1 X109.383 Y101.615 E1.00974
G1 X110.158 Y101.602 E1.03552
G1 X110.695 Y101.621 E1.05339
G1 X111.487 Y101.732 E1.07999
G1 X112.003 Y101.834 E1.09748
G1 X112.736 Y102.059 E1.12298
G1 X113.266 Y102.253 E1.14176
G1 X113.955 Y102.59 E1.16727
G1 X114.431 Y102.854 E1.18537
G1 X115.082 Y103.311 E1.21183
G1 X115.489 Y103.632 E1.22907
G1 X116.047 Y104.17 E1.25485
G1 X116.427 Y104.581 E1.27346
G1 X116.901 Y105.209 E1.29963
G1 X117.19 Y105.641 E1.31692
G1 X117.554 Y106.327 E1.34275
G1 X117.785 Y106.825 E1.36101
G1 X118.04 Y107.563 E1.38698
G1 X118.188 Y108.092 E1.40525
G1 X118.321 Y108.853 E1.43094
G1 X118.385 Y109.38 E1.4486
G1 X118.398 Y110.149 E1.47418
G1 X118.378 Y110.696 E1.49239
G1 X118.268 Y111.484 E1.51885
G1 X118.166 Y112.003 E1.53644
G1 X117.941 Y112.736 E1.56194
G1 X117.747 Y113.266 E1.58072
G1 X117.41 Y113.955 E1.60623
G1 X117.149 Y114.427 E1.62416
G1 X116.703 Y115.063 E1.65
G1 X116.362 Y115.495 E1.66831
G1 X115.83 Y116.047 E1.6938
G1 X115.419 Y116.427 E1.71242
G1 X114.794 Y116.898 E1.73845
G1 X114.36 Y117.189 E1.75583
G0 X114.558 Y117.537
;TYPE:WALL-OUTER
G1 X114.748 Y117.707 E1.76431
G1 X114.749 Y117.708 E1.76436
G1 X115.905 Y118.747 E1.81605
G1 X115.992 Y118.826 E1.81996
G1 X117.209 Y119.75 E1.87079
G1 X117.331 Y119.843 E1.87589
G1 X118.588 Y120.645 E1.92548
G1 X118.747 Y120.747 E1.93176
G1 X120.023 Y121.42 E1.97974
G1 X120.234 Y121.531 E1.98767
G1 X121.525 Y122.081 E2.03435
G1 X121.779 Y122.19 E2.04354
G1 X123.374 Y122.719 E2.09943
G1 X123.599 Y122.773 E2.10713
G1 X125.007 Y123.117 E2.15534
G1 X126.666 Y123.379 E2.2112
G1 X128.342 Y123.503 E2.26709
G1 X130.022 Y123.49 E2.32297
G1 X131.695 Y123.338 E2.37885
G1 X133.351 Y123.051 E2.43475
G1 X134.977 Y122.626 E2.49064
G1 X136.563 Y122.071 E2.54653
G1 X138.098 Y121.387 E2.60242
G1 X139.571 Y120.58 E2.65829
G1 X140.973 Y119.654 E2.71417
G1 X142.295 Y118.616 E2.77008
G1 X143.527 Y117.473 E2.82597
G1 X144.389 Y116.529 E2.86849
G1 X144.66 Y116.233 E2.88184
G1 X144.921 Y115.895 E2.89604
G1 X145.688 Y114.904 E2.93772
G1 X145.894 Y114.587 E2.95029
G1 X146.603 Y113.495 E2.9936
G1 X146.759 Y113.205 E3.00455
G1 X147.4 Y112.016 E3.04948
G1 X147.522 Y111.737 E3.05961
G1 X148.073 Y110.475 E3.10541
G1 X148.156 Y110.23 E3.11401
G1 X148.616 Y108.885 E3.16129
G1 X148.672 Y108.662 E3.16894
G1 X149.027 Y107.256 E3.21717
G1 X149.06 Y107.055 E3.22394
G1 X149.12 Y106.695 E3.23608
G1 X149.08 Y107.058 E3.2364
G1 X149.041 Y107.258 E3.23667
G1 X148.762 Y108.684 E3.24313
G1 X148.699 Y108.908 E3.24488
G1 X148.309 Y110.282 E3.25964
G1 X148.217 Y110.528 E3.2631
G1 X147.729 Y111.827 E3.285
G1 X147.596 Y112.108 E3.29074
G1 X147.013 Y113.341 E3.3194
G1 X146.844 Y113.634 E3.3274
G1 X146.183 Y114.774 E3.36154
G1 X145.961 Y115.093 E3.37249
G1 X145.234 Y116.136 E3.41095
G1 X144.954 Y116.475 E3.42512
G1 X144.698 Y116.784 E3.43814
G1 X144.183 Y117.408 E3.46505
G1 X143.015 Y118.602 E3.5206
G1 X141.768 Y119.682 E3.57547
G1 X140.421 Y120.666 E3.63095
G1 X139.006 Y121.529 E3.68608
G1 X137.522 Y122.273 E3.74129
G1 X135.972 Y122.896 E3.79686
G1 X134.391 Y123.382 E3.85187
G1 X132.772 Y123.737 E3.907
G1 X131.132 Y123.956 E3.96203
G1 X129.466 Y124.039 E4.01751
G1 X127.811 Y123.983 E4.07258
G1 X126.156 Y123.79 E4.128
G1 X124.532 Y123.461 E4.18311
G1 X123.488 Y123.158 E4.21927
G1 X123.266 Y123.094 E4.22686
G1 X122.939 Y122.999 E4.23818
G1 X121.658 Y122.51 E4.28379
G1 X121.387 Y122.406 E4.29221
G1 X120.109 Y121.791 E4.33006
G1 X119.885 Y121.683 E4.33615
G1 X118.631 Y120.946 E4.36808
G1 X118.46 Y120.846 E4.37201
G1 X117.234 Y119.981 E4.39741
G1 X117.104 Y119.889 E4.39974
G1 X115.928 Y118.904 E4.41729
G1 X115.835 Y118.826 E4.41837
G1 X114.731 Y117.732 E4.45106
G1 X114.722 Y117.723 E4.45148
G1 X114.542 Y117.545 E4.45597
G1 X113.845 Y117.915 E4.48221
G1 X113.555 Y118.05 E4.49285
G1 X113.323 Y118.157 E4.50135
G1 X113.484 Y118.355 E4.50648
G1 X114.456 Y119.554 E4.55782
G1 X114.538 Y119.655 E4.56215
G1 X115.598 Y120.763 E4.61315
G1 X115.7 Y120.869 E4.61804
G1 X116.815 Y121.856 E4.66757
G1 X116.959 Y121.983 E4.67395
G1 X118.119 Y122.85 E4.72212
G1 X118.304 Y122.989 E4.72982
G1 X119.493 Y123.735 E4.7765
G1 X119.728 Y123.883 E4.78574
G1 X121.219 Y124.655 E4.84158
G1 X121.432 Y124.744 E4.84926
G1 X122.77 Y125.303 E4.89749
G1 X124.368 Y125.821 E4.95337
G1 X126.004 Y126.207 E5.00927
G1 X127.665 Y126.456 E5.06514
G1 X129.342 Y126.568 E5.12104
G1 X131.022 Y126.543 E5.17692
G1 X132.695 Y126.378 E5.23283
G1 X134.348 Y126.078 E5.28871
G1 X135.971 Y125.643 E5.3446
G1 X137.552 Y125.075 E5.40047
G1 X139.082 Y124.381 E5.45635
G1 X140.55 Y123.562 E5.51226
G1 X141.944 Y122.625 E5.56813
G1 X142.943 Y121.829 E5.61061
G1 X143.258 Y121.578 E5.62401
G1 X143.576 Y121.278 E5.63855
G1 X144.482 Y120.426 E5.67991
G1 X144.733 Y120.147 E5.6924
G1 X145.606 Y119.178 E5.73578
G1 X145.807 Y118.914 E5.74681
G1 X146.624 Y117.841 E5.79167
G1 X146.781 Y117.594 E5.8014
G1 X147.529 Y116.425 E5.84756
G1 X147.649 Y116.198 E5.8561
G1 X148.315 Y114.94 E5.90344
G1 X148.408 Y114.723 E5.9113
G1 X148.976 Y113.395 E5.95934
G1 X149.041 Y113.197 E5.96627
G1 X149.15 Y112.871 E5.9777
G1 X149.06 Y113.203 E5.97796
G1 X148.989 Y113.399 E5.97823
G1 X148.492 Y114.758 E5.98455
G1 X148.392 Y114.975 E5.98631
G1 X147.791 Y116.273 E6.00091
G1 X147.663 Y116.5 E6.00434
G1 X146.973 Y117.716 E6.02653
G1 X146.804 Y117.963 E6.03211
G1 X146.036 Y119.088 E6.06074
G1 X145.822 Y119.352 E6.06874
G1 X144.989 Y120.377 E6.1029
G1 X144.722 Y120.655 E6.11375
G1 X143.848 Y121.566 E6.15193
G1 X143.51 Y121.863 E6.16646
G1 X143.208 Y122.129 E6.17952
G1 X142.592 Y122.672 E6.20683
G1 X141.271 Y123.655 E6.26159
G1 X139.851 Y124.539 E6.31723
G1 X138.379 Y125.294 E6.37225
G1 X136.85 Y125.923 E6.42724
G1 X135.256 Y126.43 E6.48287
G1 X133.641 Y126.798 E6.53797
G1 X132.004 Y127.032 E6.59297
G1 X130.338 Y127.13 E6.64847
G1 X128.683 Y127.089 E6.70354
G1 X127.026 Y126.91 E6.75897
G1 X125.411 Y126.599 E6.81367
G1 X123.796 Y126.146 E6.86946
G1 X122.251 Y125.571 E6.92429
G1 X121.263 Y125.107 E6.96059
G1 X121.054 Y125.009 E6.96817
G1 X120.744 Y124.863 E6.97957
G1 X119.558 Y124.179 E7.02511
G1 X119.306 Y124.034 E7.03351
G1 X118.14 Y123.228 E7.07133
G1 X117.94 Y123.09 E7.07732
G1 X116.812 Y122.162 E7.10957
G1 X116.658 Y122.035 E7.11351
G1 X115.584 Y120.99 E7.13882
G1 X115.474 Y120.883 E7.14105
G1 X114.463 Y119.721 E7.15849
G1 X114.375 Y119.62 E7.15964
G1 X113.462 Y118.376 E7.19203
G1 X113.456 Y118.368 E7.19236
G1 X113.305 Y118.163 E7.19687
G1 X112.553 Y118.422 E7.22332
G1 X112.252 Y118.507 E7.23372
G1 X112.005 Y118.576 E7.24225
G1 X112.133 Y118.798 E7.24741
G1 X112.911 Y120.142 E7.29906
G1 X112.972 Y120.246 E7.30307
G1 X113.838 Y121.494 E7.35359
G1 X113.93 Y121.627 E7.35897
G1 X114.873 Y122.771 E7.40828
G1 X114.999 Y122.923 E7.41485
G1 X116.011 Y123.966 E7.46318
G1 X116.169 Y124.128 E7.47071
G1 X117.222 Y125.046 E7.51717
G1 X117.436 Y125.233 E7.52662
G1 X118.789 Y126.23 E7.58252
G1 X118.983 Y126.35 E7.59011
G1 X120.219 Y127.113 E7.63842
G1 X121.717 Y127.874 E7.69431
G1 X123.272 Y128.51 E7.75018
G1 X124.874 Y129.017 E7.80607
G1 X126.512 Y129.39 E7.86195
G1 X128.176 Y129.627 E7.91785
G1 X129.852 Y129.727 E7.97369
G1 X131.533 Y129.689 E8.02962
G1 X133.204 Y129.513 E8.0855
G1 X134.854 Y129.2 E8.14136
G1 X136.474 Y128.753 E8.19726
G1 X138.052 Y128.174 E8.25316
G1 X139.577 Y127.468 E8.30906
G1 X140.665 Y126.85 E8.35067
G1 X141.038 Y126.639 E8.36493
G1 X141.394 Y126.396 E8.37926
G1 X142.426 Y125.692 E8.42081
G1 X142.715 Y125.458 E8.43318
G1 X143.732 Y124.634 E8.47672
G1 X143.98 Y124.397 E8.48812
G1 X144.947 Y123.474 E8.53259
G1 X145.139 Y123.258 E8.5422
G1 X146.062 Y122.217 E8.58847
G1 X146.219 Y122.007 E8.59719
G1 X147.07 Y120.872 E8.64438
G1 X147.19 Y120.682 E8.65185
G1 X147.965 Y119.451 E8.70023
G1 X148.064 Y119.26 E8.70739
G1 X148.221 Y118.958 E8.71871
G1 X148.081 Y119.268 E8.71896
G1 X147.977 Y119.457 E8.71924
G1 X147.269 Y120.731 E8.72565
G1 X147.143 Y120.92 E8.72738
G1 X146.349 Y122.104 E8.74221
G1 X146.183 Y122.312 E8.74574
G1 X145.309 Y123.408 E8.76792
G1 X145.106 Y123.623 E8.77341
G1 X144.179 Y124.605 E8.80179
G1 X143.917 Y124.84 E8.81007
G1 X142.932 Y125.724 E8.84418
G1 X142.627 Y125.955 E8.85493
G1 X141.617 Y126.721 E8.89317
G1 X141.242 Y126.959 E8.90745
G1 X140.88 Y127.188 E8.92133
G1 X140.212 Y127.612 E8.94765
G1 X138.741 Y128.383 E9.00289
G1 X137.214 Y129.029 E9.05803
G1 X135.641 Y129.543 E9.11307
G1 X134.02 Y129.928 E9.16849
G1 X132.382 Y130.177 E9.22359
G1 X130.719 Y130.29 E9.27903
G1 X129.063 Y130.264 E9.33412
G1 X127.415 Y130.101 E9.3892
G1 X125.775 Y129.801 E9.44465
G1 X124.177 Y129.367 E9.49972
G1 X122.617 Y128.802 E9.55491
G1 X121.103 Y128.108 E9.6103
G1 X119.658 Y127.292 E9.6655
G1 X118.759 Y126.681 E9.70165
G1 X118.57 Y126.553 E9.70915
G1 X118.295 Y126.366 E9.72021
G1 X117.222 Y125.499 E9.76609
G1 X116.991 Y125.312 E9.77468
G1 X115.97 Y124.337 E9.81229
G1 X115.799 Y124.173 E9.81809
G1 X114.827 Y123.077 E9.85018
G1 X114.69 Y122.923 E9.85425
G1 X113.797 Y121.728 E9.87938
G1 X113.696 Y121.593 E9.88182
G1 X112.887 Y120.3 E9.89921
G1 X112.821 Y120.195 E9.90031
G1 X112.11 Y118.816 E9.93286
G1 X112.105 Y118.807 E9.93321
G1 X111.988 Y118.58 E9.93771
G1 X111.216 Y118.715 E9.96377
G1 X110.893 Y118.755 E9.9746
G1 X110.639 Y118.785 E9.9831
G1 X110.73 Y119.024 E9.98825
G1 X111.289 Y120.474 E10.03994
G1 X111.332 Y120.586 E10.04393
G1 X111.993 Y121.955 E10.09449
G1 X112.062 Y122.098 E10.09977
G1 X112.814 Y123.376 E10.14909
G1 X112.915 Y123.547 E10.15569
G1 X113.755 Y124.739 E10.2042
G1 X113.883 Y124.92 E10.21157
G1 X114.786 Y125.998 E10.25834
G1 X114.962 Y126.209 E10.26748
G1 X116.141 Y127.405 E10.32334
G1 X116.326 Y127.564 E10.33145
G1 X117.416 Y128.5 E10.37924
G1 X118.776 Y129.487 E10.43513
G1 X120.212 Y130.358 E10.49099
G1 X121.716 Y131.11 E10.54692
G1 X123.275 Y131.735 E10.60278
G1 X124.881 Y132.229 E10.65867
G1 X126.522 Y132.59 E10.71455
G1 X128.187 Y132.815 E10.77043
G1 X129.866 Y132.902 E10.82635
G1 X131.545 Y132.852 E10.88222
G1 X133.215 Y132.664 E10.93811
G1 X134.864 Y132.339 E10.99402
G1 X136.48 Y131.879 E11.0499
G1 X137.656 Y131.438 E11.09167
G1 X138.053 Y131.289 E11.10578
G1 X138.449 Y131.102 E11.12034
G1 X139.572 Y130.571 E11.16166
G1 X139.895 Y130.384 E11.17407
G1 X141.027 Y129.731 E11.21754
G1 X141.309 Y129.536 E11.22894
G1 X142.409 Y128.775 E11.27343
G1 X142.63 Y128.594 E11.28293
G1 X143.707 Y127.708 E11.32931
G1 X143.894 Y127.527 E11.33797
G1 X144.913 Y126.538 E11.3852
G1 X145.065 Y126.364 E11.39289
G1 X146.019 Y125.272 E11.44111
G1 X146.145 Y125.101 E11.44818
G1 X146.354 Y124.818 E11.45988
G1 X146.162 Y125.112 E11.46017
G1 X146.031 Y125.28 E11.46052
G1 X145.135 Y126.425 E11.46699
G1 X144.976 Y126.596 E11.46873
G1 X144.006 Y127.642 E11.48334
G1 X143.811 Y127.82 E11.48681
G1 X142.774 Y128.768 E11.50893
G1 X142.542 Y128.947 E11.51438
G1 X141.473 Y129.772 E11.54276
G1 X141.178 Y129.963 E11.55102
G1 X140.068 Y130.682 E11.58517
G1 X139.729 Y130.863 E11.59599
G1 X138.618 Y131.459 E11.63402
G1 X138.204 Y131.637 E11.64851
G1 X137.814 Y131.805 E11.66226
G1 X137.078 Y132.124 E11.68894
G1 X135.517 Y132.652 E11.74375
G1 X133.899 Y133.052 E11.79918
G1 X132.262 Y133.315 E11.85433
G1 X130.613 Y133.441 E11.90933
G1 X128.945 Y133.43 E11.96481
G1 X127.295 Y133.282 E12.01991
G1 X125.664 Y132.997 E12.07498
G1 X124.051 Y132.577 E12.13042
G1 X122.479 Y132.023 E12.18586
G1 X120.977 Y131.35 E12.2406
G1 X119.512 Y130.54 E12.29628
G1 X118.136 Y129.623 E12.35127
G1 X116.838 Y128.594 E12.40637
G1 X116.053 Y127.856 E12.4422
G1 X115.875 Y127.689 E12.45021
G1 X115.621 Y127.451 E12.46179
G1 X114.708 Y126.439 E12.50712
G1 X114.515 Y126.226 E12.51546
G1 X113.654 Y125.095 E12.55345
G1 X113.513 Y124.91 E12.55915
G1 X112.722 Y123.671 E12.5913
G1 X112.611 Y123.497 E12.59534
G1 X111.915 Y122.176 E12.62039
G1 X111.838 Y122.031 E12.62275
G1 X111.241 Y120.625 E12.64005
G1 X111.193 Y120.512 E12.64111
G1 X110.622 Y118.785 E12.7016
G1 X109.834 Y118.798 E12.72782
G1 X109.513 Y118.786 E12.7385
G1 X109.512 Y118.785 E12.73855
G1 X109.257 Y118.777 E12.74703
G1 X109.31 Y119.027 E12.75219
G1 X109.632 Y120.535 E12.80348
G1 X109.66 Y120.664 E12.80787
G1 X110.101 Y122.129 E12.85876
G1 X110.145 Y122.273 E12.86376
G1 X110.691 Y123.662 E12.9134
G1 X110.76 Y123.836 E12.91963
G1 X111.397 Y125.13 E12.9676
G1 X111.502 Y125.344 E12.97553
G1 X112.219 Y126.542 E13.02196
G1 X112.365 Y126.786 E13.03142
G1 X113.343 Y128.151 E13.08727
G1 X113.506 Y128.343 E13.09565
G1 X114.431 Y129.433 E13.1432
G1 X115.619 Y130.62 E13.19905
G1 X116.902 Y131.706 E13.25496
G1 X118.269 Y132.683 E13.31085
G1 X119.712 Y133.544 E13.36674
G1 X121.22 Y134.283 E13.42259
G1 X122.785 Y134.896 E13.47849
G1 X124.394 Y135.379 E13.53437
G1 X126.038 Y135.728 E13.59027
G1 X127.705 Y135.941 E13.64616
G1 X129.383 Y136.016 E13.70203
G1 X131.063 Y135.954 E13.75794
G1 X132.731 Y135.753 E13.81382
G1 X133.975 Y135.497 E13.85606
G1 X134.377 Y135.415 E13.86971
G1 X134.791 Y135.295 E13.88405
G1 X135.99 Y134.945 E13.92559
G1 X136.345 Y134.809 E13.93823
G1 X137.558 Y134.342 E13.98147
G1 X137.868 Y134.193 E13.99291
G1 X139.073 Y133.614 E14.03737
G1 X139.323 Y133.467 E14.04702
G1 X140.521 Y132.762 E14.09325
G1 X140.733 Y132.613 E14.10187
G1 X141.896 Y131.796 E14.14914
G1 X142.078 Y131.644 E14.15703
G1 X143.186 Y130.719 E14.20503
G1 X143.327 Y130.58 E14.21162
G1 X143.587 Y130.325 E14.22373
G1 X143.342 Y130.594 E14.22402
G1 X143.197 Y130.729 E14.22433
G1 X142.138 Y131.714 E14.23076
G1 X141.949 Y131.862 E14.23256
G1 X140.827 Y132.745 E14.24723
G1 X140.607 Y132.89 E14.25073
G1 X139.438 Y133.662 E14.27295
G1 X139.178 Y133.804 E14.27845
G1 X137.993 Y134.452 E14.30684
G1 X137.671 Y134.595 E14.31514
G1 X136.468 Y135.128 E14.34901
G1 X136.099 Y135.256 E14.35991
G1 X134.902 Y135.673 E14.39799
G1 X134.472 Y135.783 E14.41226
G1 X134.074 Y135.885 E14.42559
G1 X133.287 Y136.087 E14.45261
G1 X131.653 Y136.365 E14.50774
