;FLAVOR:Marlin
;TIME:2521
;Filament used: 4.40674m
;Layer height: 0.2
;MINX:70.2
;MINY:69.2
;MINZ:0.2
;MAXX:149.8
;MAXY:150.8
;MAXZ:2.4
;LINEARADVANCEPROCESSED
;Generated with Cura_SteamEngine 4.8.0
M104 S215
M105
M109 S215
M82 ;absolute extrusion mode
G92 E0 ; Reset Extruder
G28 ; Home all axes
G29; Probe Bed
M500; Save to eprom
G1 Z2.0 F3000 ; Move Z Axis up little to prevent scratching of Heat Bed
G1 X0.1 Y20 Z0.3 F5000.0 ; Move to start position
G1 X0.1 Y200.0 Z0.3 F1500.0 E15 ; Draw the first line
G1 X0.4 Y200.0 Z0.3 F5000.0 ; Move to side a little
G1 X0.4 Y20 Z0.3 F1500.0 E30 ; Draw the second line
G92 E0 ; Reset Extruder
G1 Z2.0 F3000 ; Move Z Axis up little to prevent scratching of Heat Bed
G1 X5 Y20 Z0.3 F5000.0 ; Move over to prevent blob squish
G92 E0
G92 E0
G1 F2400 E-1.2
;LAYER_COUNT:12
M900 K0.000000 T0 ;added by LinearAdvanceSettingPlugin
;LAYER:0
M107
;MESH:77e5f7b4-6ff8-4f3c-be83-60d7d4fcc45e.stl
G0 F3600 X73.576 Y71.733 Z0.2
;TYPE:WALL-INNER
G1 F2400 E0
G1 F3600 X72.947 Y71.994 E0.02152
G1 X72.408 Y72.408 E0.04299
G1 X71.994 Y72.947 E0.06447
G1 X71.733 Y73.576 E0.08598
G1 X71.645 Y74.25 E0.10746
G1 X71.733 Y74.924 E0.12894
G1 X71.994 Y75.553 E0.15046
G1 X72.408 Y76.092 E0.17193
G1 X72.947 Y76.506 E0.19341
G1 X73.576 Y76.767 E0.21492
G1 X74.25 Y76.855 E0.2364
G1 X74.924 Y76.767 E0.25788
G1 X75.553 Y76.506 E0.2794
G1 X76.092 Y76.092 E0.30087
G1 X76.506 Y75.553 E0.32235
G1 X76.767 Y74.924 E0.34386
G1 X76.855 Y74.25 E0.36534
G1 X76.767 Y73.576 E0.38682
G1 X76.506 Y72.947 E0.40834
G1 X76.092 Y72.408 E0.42981
G1 X75.553 Y71.994 E0.45129
G1 X74.924 Y71.733 E0.4728
G1 X74.25 Y71.645 E0.49428
G1 X73.576 Y71.733 E0.51576
G0 X73.68 Y72.123
;TYPE:WALL-OUTER
G1 X73.149 Y72.343 E0.53449
G1 X72.693 Y72.693 E0.55323
G1 X72.343 Y73.149 E0.57197
G1 X72.123 Y73.68 E0.5907
G1 X72.048 Y74.25 E0.60944
G1 X72.123 Y74.82 E0.62818
G1 X72.343 Y75.351 E0.64691
G1 X72.693 Y75.807 E0.66565
G1 X73.149 Y76.157 E0.68439
G1 X73.68 Y76.377 E0.70312
G1 X74.25 Y76.452 E0.72186
G1 X74.82 Y76.377 E0.7406
G1 X75.351 Y76.157 E0.75933
G1 X75.807 Y75.807 E0.77807
G1 X76.157 Y75.351 E0.79681
G1 X76.377 Y74.82 E0.81554
G1 X76.452 Y74.25 E0.83428
G1 X76.377 Y73.68 E0.85302
G1 X76.157 Y73.149 E0.87176
G1 X75.807 Y72.693 E0.89049
G1 X75.351 Y72.343 E0.90923
G1 X74.82 Y72.123 E0.92796
G1 X74.25 Y72.048 E0.9467
G1 X73.68 Y72.123 E0.96544
G0 X73.495 Y72.199
G0 X73.328 Y71.792
G0 X73.306 Y71.737
G0 X74.25 Y71.605
G0 X74.934 Y71.695
G0 X75.573 Y71.96
G0 X84.423 Y77.134
G0 X91.578 Y87.009
G0 X126.673 Y118.043
G0 X145.188 Y131.818
G0 X145.137 Y131.904
;TYPE:WALL-INNER
G1 X125.312 Y120.457 E1.68878
G1 X124.675 Y121.33 E1.72292
G1 X141.688 Y136.648 E2.44627
G1 X141.846 Y136.79 E2.45299
G1 X141.977 Y136.623 E2.45724
G1 X143.194 Y135.075 E2.51946
G1 X144.105 Y133.821 E2.56843
G1 X145.203 Y132.186 E2.63066
G1 X145.321 Y132.01 E2.63736
G1 X145.138 Y131.905 E2.64157
G1 X145.137 Y131.904 E2.64162
G0 X144.75 Y132.142
;TYPE:WALL-OUTER
G1 X144.567 Y132.037 E2.64849
G1 X144.566 Y132.036 E2.64854
G1 X125.423 Y120.983 E3.36905
G1 X125.211 Y121.274 E3.38078
G1 X141.638 Y136.065 E4.10128
G1 X141.796 Y136.207 E4.10821
G1 X141.927 Y136.04 E4.1126
G1 X142.875 Y134.834 E4.1626
G1 X143.777 Y133.592 E4.21263
G1 X144.632 Y132.318 E4.26264
G1 X144.75 Y132.142 E4.26702
G0 X144.576 Y132.042
G0 X144.797 Y131.661
G0 X144.827 Y131.61
G0 X146.9 Y129.438
G0 X146.811 Y129.394
;TYPE:WALL-INNER
G1 X147.363 Y128.29 E4.30602
G1 X147.6 Y127.802 E4.32316
G1 X147.6 Y123.689 E4.45312
G1 X127.152 Y117.044 E5.13248
G1 X126.711 Y118.031 E5.16664
G1 X146.535 Y129.477 E5.88993
G1 X146.717 Y129.582 E5.89657
G1 X146.811 Y129.394 E5.9008
G0 X146.549 Y129.023
;TYPE:WALL-OUTER
G1 X146.643 Y128.834 E5.90768
G1 X147.004 Y128.113 E5.93396
G1 X147.2 Y127.71 E5.94857
G1 X147.2 Y123.98 E6.07015
G1 X127.55 Y117.594 E6.74361
G1 X127.37 Y117.536 E6.74978
G1 X127.223 Y117.865 E6.76152
G1 X127.387 Y117.96 E6.76739
G1 X146.366 Y128.917 E7.4817
G1 X146.549 Y129.023 E7.48608
G0 X146.638 Y128.844
G0 X147.031 Y129.041
G0 X147.085 Y129.068
G0 X147.638 Y127.81
G0 X147.7 Y120.471
G0 X147.6 Y120.471
;TYPE:WALL-INNER
G1 X147.6 Y115.36 E7.64757
G1 X128.241 Y113.325 E8.26263
G1 X128.016 Y114.382 E8.29678
G1 X147.34 Y120.661 E8.93879
G1 X147.6 Y120.745 E8.94742
G1 X147.6 Y120.472 E8.95256
G1 X147.6 Y120.471 E8.95259
G0 X147.2 Y120.194
;TYPE:WALL-OUTER
G1 X147.2 Y119.92 E8.96153
G1 X147.2 Y119.919 E8.96156
G1 X147.2 Y115.72 E9.09842
G1 X128.745 Y113.779 E9.70328
G1 X128.557 Y113.76 E9.70944
G1 X128.482 Y114.113 E9.7212
G1 X128.662 Y114.171 E9.72706
G1 X146.939 Y120.11 E10.35346
G1 X147.2 Y120.194 E10.35879
G0 X147.2 Y119.994
G0 X147.64 Y119.994
G0 X147.7 Y119.994
G0 X147.7 Y112.323
G0 X147.6 Y112.323
;TYPE:WALL-INNER
G1 X147.6 Y107.677 E10.50559
G1 X147.6 Y107.676 E10.50562
G1 X147.6 Y107.456 E10.51257
G1 X147.381 Y107.479 E10.51694
G1 X128.534 Y109.46 E11.11573
G1 X128.534 Y110.54 E11.14986
G1 X147.381 Y112.521 E11.74865
G1 X147.6 Y112.544 E11.75561
G1 X147.6 Y112.324 E11.75998
G1 X147.6 Y112.323 E11.76001
G0 X147.2 Y112.1
;TYPE:WALL-OUTER
G1 X147.2 Y107.9 E11.89691
G1 X128.934 Y109.82 E12.49557
G1 X128.934 Y110.18 E12.5073
G1 X147.2 Y112.1 E13.10596
G0 X147.2 Y111.9
G0 X147.64 Y111.9
G0 X147.7 Y111.9
G0 X147.7 Y99.529
G0 X147.6 Y99.529
;TYPE:WALL-INNER
G1 X147.6 Y99.528 E13.10599
G1 X147.6 Y99.255 E13.11462
G1 X147.34 Y99.339 E13.11976
G1 X128.016 Y105.618 E13.76177
G1 X128.241 Y106.675 E13.79592
G1 X147.6 Y104.64 E14.41098
G1 X147.6 Y99.529 E14.57247
G0 X147.2 Y99.806
;TYPE:WALL-OUTER
G1 X146.939 Y99.89 E14.58141
G1 X128.662 Y105.829 E15.20781
G1 X128.482 Y105.887 E15.21397
G1 X128.557 Y106.24 E15.22573
G1 X128.745 Y106.221 E15.23159
G1 X147.2 Y104.28 E15.83644
G1 X147.2 Y100.081 E15.97331
G1 X147.2 Y100.08 E15.97334
G1 X147.2 Y99.806 E15.97866
G0 X147.01 Y99.867
G0 X146.876 Y99.449
G0 X146.859 Y99.391
G0 X147.632 Y96.334
G0 X147.638 Y92.188
G0 X146.898 Y90.561
G0 X146.808 Y90.606
;TYPE:WALL-INNER
G1 X146.714 Y90.419 E15.98528
G1 X146.533 Y90.524 E15.98948
G1 X126.711 Y101.969 E16.71271
G1 X127.152 Y102.956 E16.74686
G1 X147.6 Y96.311 E17.42622
G1 X147.6 Y92.197 E17.55621
G1 X147.184 Y91.348 E17.58608
G1 X146.808 Y90.606 E17.61237
G0 X146.548 Y90.977
;TYPE:WALL-OUTER
G1 X146.366 Y91.082 E17.61922
G1 X127.387 Y102.04 E18.33354
G1 X127.223 Y102.135 E18.33972
G1 X127.37 Y102.464 E18.35147
G1 X127.55 Y102.406 E18.35732
G1 X147.2 Y96.02 E19.03079
G1 X147.2 Y92.29 E19.15237
G1 X146.826 Y91.526 E19.1801
G1 X146.643 Y91.165 E19.19329
G1 X146.548 Y90.977 E19.19766
G0 X146.375 Y91.077
G0 X146.155 Y90.695
G0 X146.126 Y90.644
G0 X145.187 Y88.183
G0 X145.137 Y88.096
;TYPE:WALL-INNER
G1 X145.138 Y88.095 E19.1977
G1 X145.321 Y87.99 E19.20437
G1 X145.203 Y87.814 E19.20862
G1 X144.105 Y86.179 E19.27085
G1 X143.194 Y84.925 E19.31982
G1 X141.977 Y83.377 E19.38204
G1 X141.846 Y83.21 E19.38874
G1 X141.688 Y83.352 E19.393
G1 X124.675 Y98.67 E20.11635
G1 X125.312 Y99.543 E20.1505
G1 X145.137 Y88.096 E20.87383
G0 X144.75 Y87.858
;TYPE:WALL-OUTER
G1 X144.632 Y87.682 E20.88074
G1 X143.777 Y86.408 E20.93075
G1 X142.875 Y85.166 E20.98078
G1 X141.927 Y83.96 E21.03079
G1 X141.796 Y83.793 E21.0377
G1 X141.638 Y83.935 E21.0421
G1 X125.211 Y98.726 E21.7626
G1 X125.423 Y99.017 E21.77433
G1 X144.566 Y87.964 E22.49484
G1 X144.567 Y87.963 E22.49489
G1 X144.75 Y87.858 E22.49923
G0 X144.639 Y87.692
G0 X145.004 Y87.448
G0 X145.055 Y87.415
G0 X143.121 Y74.54
G0 X143.272 Y73.164
G0 X143.363 Y73.204
;TYPE:WALL-INNER
G1 X143.175 Y73.857 E22.5207
G1 X143.16 Y74.536 E22.54216
G1 X143.323 Y75.197 E22.56368
G1 X143.651 Y75.794 E22.5852
G1 X144.122 Y76.283 E22.60665
G1 X144.704 Y76.637 E22.62818
G1 X145.357 Y76.825 E22.64965
G1 X146.036 Y76.84 E22.67111
G1 X146.697 Y76.677 E22.69262
G1 X147.294 Y76.349 E22.71414
G1 X147.783 Y75.878 E22.73559
G1 X148.137 Y75.296 E22.75712
G1 X148.325 Y74.643 E22.77859
G1 X148.34 Y73.964 E22.80005
G1 X148.177 Y73.303 E22.82156
G1 X147.849 Y72.706 E22.84308
G1 X147.378 Y72.217 E22.86453
G1 X146.796 Y71.863 E22.88606
G1 X146.143 Y71.675 E22.90753
G1 X145.464 Y71.66 E22.92899
G1 X144.803 Y71.823 E22.9505
G1 X144.206 Y72.151 E22.97202
G1 X143.717 Y72.622 E22.99348
G1 X143.363 Y73.204 E23.015
G0 X143.733 Y73.366
;TYPE:WALL-OUTER
G1 X143.574 Y73.918 E23.03372
G1 X143.561 Y74.492 E23.05244
G1 X143.699 Y75.05 E23.07117
G1 X143.976 Y75.555 E23.08995
G1 X144.374 Y75.968 E23.10864
G1 X144.866 Y76.267 E23.12741
G1 X145.418 Y76.426 E23.14613
G1 X145.992 Y76.439 E23.16485
G1 X146.55 Y76.301 E23.18358
G1 X147.055 Y76.024 E23.20236
G1 X147.468 Y75.626 E23.22105
G1 X147.767 Y75.134 E23.23982
G1 X147.926 Y74.582 E23.25854
G1 X147.939 Y74.008 E23.27726
G1 X147.801 Y73.45 E23.29599
G1 X147.524 Y72.945 E23.31477
G1 X147.126 Y72.532 E23.33346
G1 X146.634 Y72.233 E23.35223
G1 X146.082 Y72.074 E23.37095
G1 X145.508 Y72.061 E23.38967
G1 X144.95 Y72.199 E23.4084
G1 X144.445 Y72.476 E23.42718
G1 X144.032 Y72.874 E23.44587
G1 X143.733 Y73.366 E23.46464
G0 X143.678 Y73.558
G0 X143.255 Y73.436
G0 X143.198 Y73.419
G0 X135.577 Y77.134
G0 X135.456 Y77.345
;TYPE:WALL-INNER
G1 X122 Y95.865 E24.18797
G1 X122.803 Y96.588 E24.22211
G1 X139.815 Y81.27 E24.94543
G1 X139.973 Y81.128 E24.95215
G1 X139.82 Y80.98 E24.95641
G1 X138.407 Y79.61 E25.01859
G1 X137.255 Y78.572 E25.06759
G1 X135.744 Y77.309 E25.12981
G1 X135.581 Y77.173 E25.13652
G1 X135.456 Y77.345 E25.14078
G0 X135.653 Y77.754
;TYPE:WALL-OUTER
G1 X135.528 Y77.927 E25.14774
G1 X122.646 Y95.656 E25.86206
G1 X122.535 Y95.809 E25.86822
G1 X122.803 Y96.05 E25.87996
G1 X122.944 Y95.923 E25.88584
G1 X139.228 Y81.26 E26.60009
G1 X139.387 Y81.117 E26.60706
G1 X139.234 Y80.968 E26.61147
G1 X138.134 Y79.902 E26.6614
G1 X136.993 Y78.874 E26.71146
G1 X135.817 Y77.891 E26.76142
G1 X135.653 Y77.754 E26.76583
G0 X135.536 Y77.916
G0 X135.181 Y77.657
G0 X135.133 Y77.621
G0 X133.188 Y75.331
G0 X133.135 Y75.414
;TYPE:WALL-INNER
G1 X131.467 Y74.367 E26.82806
G1 X130.069 Y73.562 E26.87903
G1 X128.384 Y72.672 E26.93924
G1 X128.196 Y72.573 E26.94596
G1 X128.11 Y72.767 E26.95021
G1 X118.799 Y93.679 E27.67351
G1 X119.735 Y94.219 E27.70765
G1 X133.19 Y75.699 E28.43096
G1 X133.315 Y75.527 E28.43768
G1 X133.135 Y75.414 E28.44194
G0 X132.74 Y75.638
;TYPE:WALL-OUTER
G1 X132.559 Y75.525 E28.4489
G1 X131.261 Y74.71 E28.49885
G1 X129.876 Y73.912 E28.55095
G1 X128.575 Y73.225 E28.59891
G1 X128.387 Y73.126 E28.60583
G1 X128.301 Y73.32 E28.61022
G1 X119.311 Y93.513 E29.33069
G1 X119.623 Y93.693 E29.34243
G1 X132.615 Y75.811 E30.06289
G1 X132.74 Y75.638 E30.06731
G0 X132.571 Y75.532
G0 X132.805 Y75.16
G0 X132.837 Y75.11
G0 X130.088 Y73.527
G0 X128.546 Y72.726
G0 X125.475 Y71.272
G0 X125.439 Y71.365
;TYPE:WALL-INNER
G1 X124.283 Y70.929 E30.10635
G1 X123.546 Y70.668 E30.13105
G1 X122.747 Y70.4 E30.15768
G1 X119.848 Y70.4 E30.24928
G1 X115.214 Y92.207 E30.9537
G1 X116.241 Y92.541 E30.98783
G1 X125.551 Y71.631 E31.71105
G1 X125.636 Y71.439 E31.71769
G1 X125.44 Y71.366 E31.72188
G1 X125.439 Y71.365 E31.72193
G0 X125.098 Y71.664
;TYPE:WALL-OUTER
G1 X124.9 Y71.59 E31.72882
G1 X124.146 Y71.305 E31.75509
G1 X123.416 Y71.046 E31.78034
G1 X122.682 Y70.8 E31.80557
G1 X120.172 Y70.8 E31.88739
G1 X115.72 Y91.748 E32.58543
G1 X115.68 Y91.938 E32.59176
G1 X116.022 Y92.049 E32.60348
G1 X116.101 Y91.871 E32.60951
G1 X125.012 Y71.857 E33.3236
G1 X125.098 Y71.664 E33.32798
G0 X124.911 Y71.594
G0 X125.067 Y71.183
G0 X125.089 Y71.127
G0 X122.753 Y70.361
G0 X116.74 Y70.3
G0 X116.74 Y70.4
;TYPE:WALL-INNER
G1 X111.4 Y70.4 E33.49671
G1 X111.4 Y91.511 E34.16376
G1 X112.474 Y91.625 E34.19788
G1 X116.935 Y70.64 E34.87577
G1 X116.986 Y70.4 E34.88352
G1 X116.741 Y70.4 E34.88825
G1 X116.74 Y70.4 E34.88828
G0 X116.492 Y70.8
;TYPE:WALL-OUTER
G1 X116.247 Y70.8 E34.89627
G1 X116.246 Y70.8 E34.8963
G1 X111.8 Y70.8 E35.04122
G1 X111.8 Y90.961 E35.69836
G1 X111.8 Y91.151 E35.70456
G1 X112.158 Y91.189 E35.71629
G1 X112.197 Y91.004 E35.72215
G1 X116.441 Y71.04 E36.38741
G1 X116.492 Y70.8 E36.3923
G0 X116.292 Y70.8
G0 X116.292 Y70.36
G0 X116.292 Y70.3
G0 X103.26 Y70.3
G0 X103.26 Y70.4
;TYPE:WALL-INNER
G1 X103.259 Y70.4 E36.39233
G1 X103.014 Y70.4 E36.40008
G1 X103.065 Y70.64 E36.40481
G1 X107.526 Y91.625 E37.0827
G1 X108.6 Y91.511 E37.11682
G1 X108.6 Y70.4 E37.78387
G1 X103.26 Y70.4 E37.9526
G0 X103.508 Y70.8
;TYPE:WALL-OUTER
G1 X103.559 Y71.04 E37.9606
G1 X107.803 Y91.004 E38.62586
G1 X107.842 Y91.189 E38.63202
G1 X108.2 Y91.151 E38.64376
G1 X108.2 Y90.961 E38.64964
G1 X108.2 Y70.8 E39.30679
G1 X103.754 Y70.8 E39.45171
G1 X103.753 Y70.8 E39.45174
G1 X103.508 Y70.8 E39.45662
G0 X103.549 Y70.995
G0 X103.119 Y71.085
G0 X103.06 Y71.096
G0 X100.177 Y70.369
G0 X97.247 Y70.361
G0 X94.526 Y71.272
G0 X94.561 Y71.366
;TYPE:WALL-INNER
G1 X94.56 Y71.367 E39.45667
G1 X94.364 Y71.44 E39.46328
G1 X94.449 Y71.632 E39.46749
G1 X103.759 Y92.541 E40.19069
G1 X104.786 Y92.207 E40.22481
G1 X100.152 Y70.4 E40.92923
G1 X97.253 Y70.4 E41.02083
G1 X96.393 Y70.689 E41.0495
G1 X95.656 Y70.951 E41.07421
G1 X94.561 Y71.366 E41.11121
G0 X94.902 Y71.664
;TYPE:WALL-OUTER
G1 X94.987 Y71.856 E41.11806
G1 X103.899 Y91.871 E41.8322
G1 X103.978 Y92.049 E41.83854
G1 X104.32 Y91.938 E41.85026
G1 X104.28 Y91.748 E41.85627
G1 X99.828 Y70.8 E42.55432
G1 X97.318 Y70.8 E42.63613
G1 X96.524 Y71.067 E42.66344
G1 X95.794 Y71.327 E42.68869
G1 X95.099 Y71.59 E42.71292
G1 X95.098 Y71.591 E42.71296
G1 X94.902 Y71.664 E42.71729
G0 X94.983 Y71.847
G0 X94.582 Y72.024
G0 X94.526 Y72.048
G0 X91.817 Y72.536
G0 X90.706 Y73.114
G0 X86.813 Y75.33
G0 X86.865 Y75.414
;TYPE:WALL-INNER
G1 X86.685 Y75.527 E42.72401
G1 X86.81 Y75.699 E42.72827
G1 X100.265 Y94.219 E43.45158
G1 X101.201 Y93.679 E43.48572
G1 X91.89 Y72.767 E44.20902
G1 X91.804 Y72.573 E44.21572
G1 X91.616 Y72.672 E44.21998
G1 X89.874 Y73.592 E44.28223
G1 X88.533 Y74.367 E44.33117
G1 X86.865 Y75.414 E44.3934
G0 X87.26 Y75.638
;TYPE:WALL-OUTER
G1 X87.385 Y75.811 E44.40035
G1 X100.377 Y93.693 E45.12081
G1 X100.689 Y93.513 E45.13255
G1 X91.699 Y73.32 E45.85302
G1 X91.613 Y73.126 E45.85994
G1 X91.425 Y73.225 E45.86433
G1 X90.068 Y73.942 E45.91436
G1 X88.739 Y74.71 E45.96439
G1 X87.441 Y75.525 E46.01435
G1 X87.26 Y75.638 E46.01876
G0 X87.377 Y75.8
G0 X87.022 Y76.057
G0 X86.973 Y76.092
G0 X84.624 Y77.288
G0 X84.544 Y77.345
;TYPE:WALL-INNER
G1 X84.419 Y77.173 E46.02548
G1 X84.256 Y77.309 E46.02974
G1 X82.745 Y78.572 E46.09196
G1 X81.593 Y79.61 E46.14096
G1 X80.18 Y80.98 E46.20315
G1 X80.027 Y81.128 E46.20987
G1 X80.185 Y81.27 E46.21412
G1 X97.197 Y96.588 E46.93745
G1 X98 Y95.865 E46.97159
G1 X84.544 Y77.345 E47.69492
G0 X84.347 Y77.754
;TYPE:WALL-OUTER
G1 X84.183 Y77.891 E47.70188
G1 X83.007 Y78.874 E47.75184
G1 X81.866 Y79.902 E47.8019
G1 X80.766 Y80.968 E47.85183
G1 X80.613 Y81.117 E47.85879
G1 X80.772 Y81.26 E47.86321
G1 X97.197 Y96.05 E48.58364
G1 X97.465 Y95.809 E48.59539
G1 X84.472 Y77.927 E49.31587
G1 X84.347 Y77.754 E49.32028
G0 X84.194 Y77.882
G0 X83.912 Y77.544
G0 X83.874 Y77.499
G0 X81.566 Y79.581
G0 X79.988 Y81.128
G0 X78.151 Y83.171
G0 X76.775 Y84.901
G0 X75.863 Y86.157
G0 X74.641 Y87.999
G0 X74.863 Y88.096
;TYPE:WALL-INNER
G1 X94.688 Y99.543 E50.04361
G1 X95.325 Y98.67 E50.07776
G1 X78.312 Y83.352 E50.80111
G1 X78.154 Y83.21 E50.80782
G1 X78.023 Y83.377 E50.81207
G1 X76.806 Y84.925 E50.87429
G1 X75.895 Y86.179 E50.92327
G1 X74.797 Y87.814 E50.9855
G1 X74.679 Y87.99 E50.99219
G1 X74.862 Y88.095 E50.99641
G1 X74.863 Y88.096 E50.99645
G0 X75.25 Y87.858
;TYPE:WALL-OUTER
G1 X75.433 Y87.963 E51.00333
G1 X75.434 Y87.964 E51.00337
G1 X94.577 Y99.017 E51.72388
G1 X94.789 Y98.726 E51.73561
G1 X78.362 Y83.935 E52.45612
G1 X78.204 Y83.793 E52.46304
G1 X78.073 Y83.96 E52.46743
G1 X77.125 Y85.166 E52.51743
G1 X76.223 Y86.408 E52.56746
G1 X75.368 Y87.682 E52.61747
G1 X75.25 Y87.858 E52.62185
G0 X75.424 Y87.958
G0 X75.203 Y88.339
G0 X75.173 Y88.39
G0 X73.1 Y90.562
G0 X73.189 Y90.606
;TYPE:WALL-INNER
G1 X72.637 Y91.71 E52.66085
G1 X72.4 Y92.198 E52.678
G1 X72.4 Y96.311 E52.80795
G1 X92.848 Y102.956 E53.48731
G1 X93.289 Y101.969 E53.52147
G1 X73.465 Y90.523 E54.24476
G1 X73.283 Y90.418 E54.2514
G1 X73.189 Y90.606 E54.25563
G0 X73.451 Y90.977
;TYPE:WALL-OUTER
