;FLAVOR:Marlin
;TIME:6845
;Filament used: 13.9409m
;Layer height: 0.2
;MINX:78
;MINY:56.5
;MINZ:0.2
;MAXX:142
;MAXY:163.5
;MAXZ:30.8
;LINEARADVANCEPROCESSED
;Generated with Cura_SteamEngine 4.8.0
M140 S55
M105
M190 S55
M104 S220
M105
M109 S220
M82 ;absolute extrusion mode
G92 E0 ; Reset Extruder
G28 ; Home all axes
G29; Probe Bed
M500; Save to eprom
G1 Z2.0 F3000 ; Move Z Axis up little to prevent scratching of Heat Bed
G1 X0.1 Y20 Z0.3 F5000.0 ; Move to start position
G1 X0.1 Y200.0 Z0.3 F1500.0 E15 ; Draw the first line
G1 X0.4 Y200.0 Z0.3 F5000.0 ; Move to side a little
G1 X0.4 Y20 Z0.3 F1500.0 E30 ; Draw the second line
G92 E0 ; Reset Extruder
G1 Z2.0 F3000 ; Move Z Axis up little to prevent scratching of Heat Bed
G1 X5 Y20 Z0.3 F5000.0 ; Move over to prevent blob squish
G92 E0
G92 E0
G1 F2400 E-1.2
;LAYER_COUNT:154
M900 K0.000000 T0 ;added by LinearAdvanceSettingPlugin
;LAYER:0
M107
G0 F3600 X85.7 Y74.8 Z0.2
;TYPE:SUPPORT
G1 F2400 E0
G1 F3600 X134.3 Y74.8 E1.61644
G1 X134.3 Y123.5 E3.23621
G1 X127.999 Y123.5 E3.44578
G1 X127.6 Y123.899 E3.46455
G1 X127.6 Y131.5 E3.71736
G1 X125.2 Y131.5 E3.79719
G1 X125.2 Y123.899 E4.05
G1 X124.801 Y123.5 E4.06876
G1 X95.199 Y123.5 E5.05333
G1 X94.8 Y123.899 E5.0721
G1 X94.8 Y131.5 E5.32491
G1 X92.4 Y131.5 E5.40473
G1 X92.4 Y123.899 E5.65754
G1 X92.001 Y123.5 E5.67631
G1 X85.7 Y123.5 E5.88588
G1 X85.7 Y74.8 E7.50565
G0 X88 Y74.96
G1 X88 Y123.34 E9.11478
G0 X85.859 Y120
G1 X134.14 Y120 E10.72061
G0 X128 Y123.34
G1 X128 Y74.96 E12.32973
G0 X134.14 Y80
G1 X85.86 Y80 E13.93553
G0 X85.86 Y88
G1 X134.14 Y88 E15.54133
G0 X134.14 Y96
G1 X85.86 Y96 E17.14713
G0 X85.86 Y104
G1 X134.14 Y104 E18.75293
G0 X134.14 Y112
G1 X85.86 Y112 E20.35873
G0 X96 Y123.34
G1 X96 Y74.96 E21.96786
G0 X104 Y74.96
G1 X104 Y123.34 E23.57698
G0 X112 Y123.34
G1 X112 Y74.96 E25.18611
G0 X120 Y74.96
G1 X120 Y123.34 E26.79523
G0 X125.359 Y128
G1 X127.439 Y128 E26.86441
G0 X94.639 Y128
G1 X92.559 Y128 E26.93359
G0 X104.327 Y150.2
G1 X115.673 Y150.2 E27.31096
G1 X115.673 Y157.2 E27.54378
G1 X104.327 Y157.2 E27.92115
G1 X104.327 Y150.2 E28.15398
G0 X104.486 Y152
G1 X115.512 Y152 E28.5207
G0 X112 Y150.36
G1 X112 Y157.04 E28.74288
G1 F2400 E27.54288
;MESH:247272f4-1160-49d4-a959-925f74560031.stl
G0 F3600 X115.908 Y157.04
G0 X117.173 Y157.04
G0 X127.217 Y156.161
G0 X127.514 Y157.022
G0 X127.933 Y157.57
G0 X128.481 Y157.99
G0 X129.12 Y158.255
G0 X129.804 Y158.345
G0 X130.487 Y158.255
G0 X131.127 Y157.99
G0 X131.674 Y157.57
G0 X132.095 Y157.022
G0 X132.51 Y155.7
G0 X132.41 Y155.7
;TYPE:WALL-INNER
G1 F2400 E28.74288
G1 F3600 X132.32 Y155.026 E28.7655
G1 X132.061 Y154.397 E28.78812
G1 X131.646 Y153.858 E28.81075
G1 X131.107 Y153.444 E28.83335
G1 X130.477 Y153.183 E28.85603
G1 X129.804 Y153.095 E28.87861
G1 X129.13 Y153.183 E28.90121
G1 X128.501 Y153.444 E28.92386
G1 X127.961 Y153.858 E28.9465
G1 X127.548 Y154.397 E28.96908
G1 X127.287 Y155.026 E28.99173
G1 X127.199 Y155.7 E29.01434
G1 X127.287 Y156.374 E29.03695
G1 X127.548 Y157.003 E29.0596
G1 X127.961 Y157.542 E29.08218
G1 X128.501 Y157.956 E29.10481
G1 X129.13 Y158.217 E29.12746
G1 X129.804 Y158.305 E29.15007
G1 X130.477 Y158.217 E29.17264
G1 X131.107 Y157.956 E29.19533
G1 X131.646 Y157.542 E29.21793
G1 X132.061 Y157.003 E29.24056
G1 X132.32 Y156.374 E29.26318
G1 X132.41 Y155.7 E29.2858
G0 X132.006 Y155.7
;TYPE:WALL-OUTER
G1 X131.93 Y155.13 E29.30492
G1 X131.711 Y154.599 E29.32403
G1 X131.361 Y154.143 E29.34315
G1 X130.905 Y153.793 E29.36227
G1 X130.373 Y153.573 E29.38141
G1 X129.804 Y153.498 E29.4005
G1 X129.234 Y153.573 E29.41962
G1 X128.703 Y153.793 E29.43874
G1 X128.246 Y154.143 E29.45789
G1 X127.897 Y154.599 E29.47698
G1 X127.677 Y155.13 E29.4961
G1 X127.602 Y155.7 E29.51522
G1 X127.677 Y156.27 E29.53435
G1 X127.897 Y156.801 E29.55346
G1 X128.246 Y157.257 E29.57256
G1 X128.703 Y157.607 E29.59171
G1 X129.234 Y157.827 E29.61082
G1 X129.804 Y157.902 E29.62995
G1 X130.373 Y157.827 E29.64903
G1 X130.905 Y157.607 E29.66818
G1 X131.361 Y157.257 E29.6873
G1 X131.711 Y156.801 E29.70642
G1 X131.93 Y156.27 E29.72552
G1 X132.006 Y155.7 E29.74465
G0 X131.98 Y155.502
G0 X132.416 Y155.445
G0 X132.476 Y155.438
G0 X132.095 Y154.378
G0 X131.674 Y153.83
G0 X131.127 Y153.41
G0 X130.487 Y153.145
G0 X129.804 Y153.055
G0 X117.213 Y154.6
G0 X117.201 Y158.728
G0 X102.799 Y158.728
G0 X102.785 Y153.81
G0 X90.284 Y153.055
G0 X89.585 Y153.087
G0 X89.61 Y153.183
;TYPE:WALL-INNER
G1 X88.981 Y153.444 E29.7673
G1 X88.442 Y153.858 E29.78991
G1 X88.028 Y154.397 E29.81251
G1 X87.767 Y155.026 E29.83516
G1 X87.679 Y155.7 E29.85777
G1 X87.767 Y156.374 E29.88038
G1 X88.028 Y157.003 E29.90303
G1 X88.442 Y157.542 E29.92563
G1 X88.981 Y157.956 E29.94824
G1 X89.61 Y158.217 E29.97089
G1 X90.284 Y158.305 E29.99349
G1 X90.958 Y158.217 E30.0161
G1 X91.587 Y157.956 E30.03875
G1 X92.126 Y157.542 E30.06136
G1 X92.54 Y157.003 E30.08396
G1 X92.801 Y156.374 E30.10661
G1 X92.889 Y155.7 E30.12922
G1 X92.801 Y155.026 E30.15183
G1 X92.54 Y154.397 E30.17448
G1 X92.126 Y153.858 E30.19708
G1 X91.587 Y153.444 E30.21969
G1 X90.958 Y153.183 E30.24234
G1 X90.284 Y153.095 E30.26495
G1 X89.61 Y153.183 E30.28755
G0 X89.714 Y153.573
;TYPE:WALL-OUTER
G1 X89.183 Y153.793 E30.30667
G1 X88.727 Y154.143 E30.32579
G1 X88.377 Y154.599 E30.34491
G1 X88.157 Y155.13 E30.36403
G1 X88.082 Y155.7 E30.38315
G1 X88.157 Y156.27 E30.40227
G1 X88.377 Y156.801 E30.42139
G1 X88.727 Y157.257 E30.4405
G1 X89.183 Y157.607 E30.45962
G1 X89.714 Y157.827 E30.47874
G1 X90.284 Y157.902 E30.49786
G1 X90.854 Y157.827 E30.51698
G1 X91.385 Y157.607 E30.5361
G1 X91.841 Y157.257 E30.55522
G1 X92.191 Y156.801 E30.57434
G1 X92.411 Y156.27 E30.59346
G1 X92.486 Y155.7 E30.61258
G1 X92.411 Y155.13 E30.6317
G1 X92.191 Y154.599 E30.65082
G1 X91.841 Y154.143 E30.66994
G1 X91.385 Y153.793 E30.68905
G1 X90.854 Y153.573 E30.70817
G1 X90.284 Y153.498 E30.72729
G1 X89.714 Y153.573 E30.74641
G0 X89.529 Y153.649
G0 X89.362 Y153.242
G0 X89.34 Y153.187
G0 X102.757 Y148.63
G0 X102.827 Y148.7
;TYPE:WALL-INNER
G1 X102.827 Y158.7 E31.07902
G1 X117.173 Y158.7 E31.55617
G1 X117.173 Y148.7 E31.88877
G1 X102.827 Y148.7 E32.36592
G0 X103.227 Y149.1
;TYPE:WALL-OUTER
G1 X103.227 Y158.3 E32.67191
G1 X116.773 Y158.3 E33.12245
G1 X116.773 Y149.1 E33.42845
G1 X103.227 Y149.1 E33.87899
G0 X103.227 Y149.3
G0 X102.787 Y149.3
G0 X102.727 Y149.3
G0 X84.172 Y146.528
G0 X84.13 Y73.23
G0 X84.2 Y73.3
;TYPE:WALL-INNER
G1 X84.2 Y146.5 E36.31363
G1 X135.8 Y146.5 E38.02985
G1 X135.8 Y73.3 E40.46449
G1 X84.2 Y73.3 E42.18072
G0 X84.6 Y73.7
;TYPE:WALL-OUTER
G1 X84.6 Y146.1 E44.58875
G1 X135.4 Y146.1 E46.27837
G1 X135.4 Y73.7 E48.6864
G1 X84.6 Y73.7 E50.37601
G0 X84.6 Y73.9
G0 X84.16 Y73.9
G0 X84.1 Y73.9
G0 X84.172 Y73.272
G0 X87.994 Y62.377
G0 X88.414 Y61.83
G0 X89.585 Y61.087
G0 X89.61 Y61.183
;TYPE:WALL-INNER
G1 X88.981 Y61.444 E50.39866
G1 X88.442 Y61.858 E50.42127
G1 X88.028 Y62.397 E50.44387
G1 X87.767 Y63.026 E50.46652
G1 X87.679 Y63.7 E50.48913
G1 X87.767 Y64.374 E50.51174
G1 X88.028 Y65.003 E50.53439
G1 X88.442 Y65.542 E50.557
G1 X88.981 Y65.956 E50.5796
G1 X89.61 Y66.217 E50.60225
G1 X90.284 Y66.305 E50.62486
G1 X90.958 Y66.217 E50.64747
G1 X91.587 Y65.956 E50.67012
G1 X92.126 Y65.542 E50.69272
G1 X92.54 Y65.003 E50.71533
G1 X92.801 Y64.374 E50.73798
G1 X92.889 Y63.7 E50.76058
G1 X92.801 Y63.026 E50.78319
G1 X92.54 Y62.397 E50.80584
G1 X92.126 Y61.858 E50.82845
G1 X91.587 Y61.444 E50.85105
G1 X90.958 Y61.183 E50.8737
G1 X90.284 Y61.095 E50.89631
G1 X89.61 Y61.183 E50.91892
G0 X89.714 Y61.573
;TYPE:WALL-OUTER
G1 X89.183 Y61.793 E50.93803
G1 X88.727 Y62.143 E50.95715
G1 X88.377 Y62.599 E50.97627
G1 X88.157 Y63.13 E50.99539
G1 X88.082 Y63.7 E51.01451
G1 X88.157 Y64.27 E51.03363
G1 X88.377 Y64.801 E51.05275
G1 X88.727 Y65.257 E51.07187
G1 X89.183 Y65.607 E51.09099
G1 X89.714 Y65.827 E51.1101
G1 X90.284 Y65.902 E51.12923
G1 X90.854 Y65.827 E51.14835
G1 X91.385 Y65.607 E51.16747
G1 X91.841 Y65.257 E51.18658
G1 X92.191 Y64.801 E51.2057
G1 X92.411 Y64.27 E51.22482
G1 X92.486 Y63.7 E51.24394
G1 X92.411 Y63.13 E51.26306
G1 X92.191 Y62.599 E51.28218
G1 X91.841 Y62.143 E51.3013
G1 X91.385 Y61.793 E51.32042
G1 X90.854 Y61.573 E51.33954
G1 X90.284 Y61.498 E51.35866
G1 X89.714 Y61.573 E51.37778
G0 X89.529 Y61.649
G0 X89.362 Y61.242
G0 X89.34 Y61.187
G0 X90.284 Y61.055
G0 X129.804 Y61.055
G0 X130.487 Y61.145
G0 X131.127 Y61.41
G0 X131.674 Y61.83
G0 X132.095 Y62.378
G0 X132.51 Y63.7
G0 X132.41 Y63.7
;TYPE:WALL-INNER
G1 X132.32 Y63.026 E51.4004
G1 X132.061 Y62.397 E51.42302
G1 X131.646 Y61.858 E51.44565
G1 X131.107 Y61.444 E51.46825
G1 X130.477 Y61.183 E51.49093
G1 X129.804 Y61.095 E51.51351
G1 X129.13 Y61.183 E51.53611
G1 X128.501 Y61.444 E51.55876
G1 X127.961 Y61.858 E51.5814
G1 X127.548 Y62.397 E51.60398
G1 X127.287 Y63.026 E51.62663
G1 X127.199 Y63.7 E51.64924
G1 X127.287 Y64.374 E51.67185
G1 X127.548 Y65.003 E51.6945
G1 X127.961 Y65.542 E51.71708
G1 X128.501 Y65.956 E51.73971
G1 X129.13 Y66.217 E51.76236
G1 X129.804 Y66.305 E51.78497
G1 X130.477 Y66.217 E51.80754
G1 X131.107 Y65.956 E51.83023
G1 X131.646 Y65.542 E51.85283
G1 X132.061 Y65.003 E51.87546
G1 X132.32 Y64.374 E51.89808
G1 X132.41 Y63.7 E51.9207
G0 X132.006 Y63.7
;TYPE:WALL-OUTER
G1 X131.93 Y63.13 E51.93982
G1 X131.711 Y62.599 E51.95893
G1 X131.361 Y62.143 E51.97805
G1 X130.905 Y61.793 E51.99717
G1 X130.373 Y61.573 E52.01631
G1 X129.804 Y61.498 E52.0354
G1 X129.234 Y61.573 E52.05452
G1 X128.703 Y61.793 E52.07364
G1 X128.246 Y62.143 E52.09279
G1 X127.897 Y62.599 E52.11188
G1 X127.677 Y63.13 E52.131
G1 X127.602 Y63.7 E52.15012
G1 X127.677 Y64.27 E52.16924
G1 X127.897 Y64.801 E52.18836
G1 X128.246 Y65.257 E52.20746
G1 X128.703 Y65.607 E52.22661
G1 X129.234 Y65.827 E52.24572
G1 X129.804 Y65.902 E52.26484
G1 X130.373 Y65.827 E52.28393
G1 X130.905 Y65.607 E52.30308
G1 X131.361 Y65.257 E52.3222
G1 X131.711 Y64.801 E52.34132
G1 X131.93 Y64.27 E52.36042
G1 X132.006 Y63.7 E52.37955
G0 X131.98 Y63.502
G0 X132.416 Y63.445
G0 X132.476 Y63.438
G0 X138.844 Y57.066
G0 X138.863 Y56.968
;TYPE:WALL-INNER
G1 X139.504 Y57.161 E52.40181
G1 X140.082 Y57.471 E52.42363
G1 X140.602 Y57.898 E52.44601
G1 X141.029 Y58.418 E52.46839
G1 X141.339 Y58.996 E52.4902
G1 X141.532 Y59.637 E52.51247
G1 X141.6 Y60.329 E52.53559
G1 X141.6 Y159.671 E55.83972
G1 X141.532 Y160.363 E55.86285
G1 X141.339 Y161.004 E55.88512
G1 X141.029 Y161.582 E55.90693
G1 X140.602 Y162.102 E55.92931
G1 X140.082 Y162.529 E55.95169
G1 X139.504 Y162.839 E55.9735
G1 X138.863 Y163.032 E55.99577
G1 X138.171 Y163.1 E56.0189
G1 X81.829 Y163.1 E57.89284
G1 X81.137 Y163.032 E57.91596
G1 X80.496 Y162.839 E57.93823
G1 X79.918 Y162.529 E57.96004
G1 X79.398 Y162.102 E57.98242
G1 X78.971 Y161.582 E58.0048
G1 X78.661 Y161.004 E58.02662
G1 X78.468 Y160.363 E58.04888
G1 X78.4 Y159.671 E58.07201
G1 X78.4 Y60.329 E61.37614
G1 X78.468 Y59.637 E61.39926
G1 X78.661 Y58.996 E61.42153
G1 X78.971 Y58.418 E61.44334
G1 X79.398 Y57.898 E61.46572
G1 X79.918 Y57.471 E61.4881
G1 X80.496 Y57.161 E61.50992
G1 X81.137 Y56.968 E61.53218
G1 X81.829 Y56.9 E61.55531
G1 X138.171 Y56.9 E63.42925
G1 X138.863 Y56.968 E63.45238
G0 X138.943 Y56.574
;TYPE:WALL-OUTER
G1 X139.655 Y56.789 E63.47712
G1 X140.307 Y57.139 E63.50173
G1 X140.886 Y57.614 E63.52664
G1 X141.361 Y58.193 E63.55155
G1 X141.711 Y58.845 E63.57616
G1 X141.926 Y59.557 E63.6009
G1 X142 Y60.31 E63.62606
G1 X142 Y159.69 E66.93145
G1 X141.926 Y160.443 E66.95662
G1 X141.711 Y161.155 E66.98136
G1 X141.361 Y161.807 E67.00597
G1 X140.886 Y162.386 E67.03088
G1 X140.307 Y162.861 E67.05579
G1 X139.655 Y163.211 E67.0804
G1 X138.943 Y163.426 E67.10514
G1 X138.19 Y163.5 E67.1303
G1 X81.81 Y163.5 E69.00551
G1 X81.057 Y163.426 E69.03068
G1 X80.345 Y163.211 E69.05541
G1 X79.693 Y162.861 E69.08003
G1 X79.114 Y162.386 E69.10493
G1 X78.639 Y161.807 E69.12984
G1 X78.289 Y161.155 E69.15446
G1 X78.074 Y160.443 E69.17919
G1 X78 Y159.69 E69.20436
G1 X78 Y60.31 E72.50975
G1 X78.074 Y59.557 E72.53492
G1 X78.289 Y58.845 E72.55965
G1 X78.639 Y58.193 E72.58427
G1 X79.114 Y57.614 E72.60917
G1 X79.693 Y57.139 E72.63408
G1 X80.345 Y56.789 E72.6587
G1 X81.057 Y56.574 E72.68343
G1 X81.81 Y56.5 E72.7086
G1 X138.19 Y56.5 E74.58381
G1 X138.943 Y56.574 E74.60897
G0 X139.134 Y56.631
G0 X139.006 Y57.052
G0 X138.783 Y57.352
;TYPE:SKIN
G1 X139.359 Y57.525 E74.62897
G1 X139.862 Y57.795 E74.64796
G1 X140.325 Y58.175 E74.66788
G1 X140.705 Y58.638 E74.68781
G1 X140.975 Y59.141 E74.70679
G1 X141.148 Y59.717 E74.7268
G1 X141.21 Y60.348 E74.74788
G1 X141.21 Y159.652 E78.05075
G1 X141.148 Y160.283 E78.07184
G1 X140.975 Y160.859 E78.09184
G1 X140.705 Y161.362 E78.11083
G1 X140.325 Y161.825 E78.13075
G1 X139.862 Y162.205 E78.15067
G1 X139.359 Y162.475 E78.16966
G1 X138.783 Y162.648 E78.18966
G1 X138.152 Y162.71 E78.21075
G1 X81.848 Y162.71 E80.08343
G1 X81.217 Y162.648 E80.10452
G1 X80.641 Y162.475 E80.12452
G1 X80.138 Y162.205 E80.14351
G1 X79.675 Y161.825 E80.16343
G1 X79.295 Y161.362 E80.18335
G1 X79.025 Y160.859 E80.20234
G1 X78.852 Y160.283 E80.22234
G1 X78.79 Y159.652 E80.24343
G1 X78.79 Y60.348 E83.5463
G1 X78.852 Y59.717 E83.56739
G1 X79.025 Y59.141 E83.58739
G1 X79.295 Y58.638 E83.60638
G1 X79.675 Y58.175 E83.6263
G1 X80.138 Y57.795 E83.64622
G1 X80.641 Y57.525 E83.66521
G1 X81.217 Y57.352 E83.68521
G1 X81.848 Y57.29 E83.7063
G1 X138.152 Y57.29 E85.57898
G1 X138.783 Y57.352 E85.60007
G0 X132.402 Y62.2
G1 X131.924 Y61.579 E85.62613
G1 X131.304 Y61.103 E85.65213
G1 X130.579 Y60.803 E85.67822
G1 X129.804 Y60.701 E85.70422
G1 X129.028 Y60.803 E85.73026
G1 X128.304 Y61.103 E85.75632
G1 X127.682 Y61.579 E85.78237
G1 X127.207 Y62.2 E85.80838
G1 X126.907 Y62.924 E85.83444
G1 X126.805 Y63.7 E85.86047
G1 X126.907 Y64.476 E85.88651
G1 X127.207 Y65.2 E85.91257
G1 X127.682 Y65.821 E85.93858
G1 X128.304 Y66.297 E85.96463
G1 X129.028 Y66.597 E85.99069
G1 X129.804 Y66.699 E86.01672
G1 X130.579 Y66.597 E86.04272
G1 X131.304 Y66.297 E86.06882
G1 X131.924 Y65.821 E86.09482
G1 X132.402 Y65.2 E86.12088
G1 X132.7 Y64.476 E86.14692
G1 X132.804 Y63.7 E86.17296
G1 X132.7 Y62.924 E86.199
G1 X132.402 Y62.2 E86.22504
G0 X136.19 Y72.91
G1 X83.81 Y72.91 E87.96721
G1 X83.81 Y146.89 E90.42779
G1 X136.19 Y146.89 E92.16996
G1 X136.19 Y72.91 E94.63054
G0 X93.181 Y62.924
G1 X92.881 Y62.2 E94.65661
G1 X92.405 Y61.579 E94.68263
G1 X91.784 Y61.103 E94.70866
G1 X91.06 Y60.803 E94.73472
G1 X90.284 Y60.701 E94.76076
G1 X89.508 Y60.803 E94.78679
G1 X88.784 Y61.103 E94.81285
G1 X88.163 Y61.579 E94.83888
G1 X87.687 Y62.2 E94.8649
G1 X87.387 Y62.924 E94.89097
G1 X87.285 Y63.7 E94.917
G1 X87.387 Y64.476 E94.94303
G1 X87.687 Y65.2 E94.9691
G1 X88.163 Y65.821 E94.99512
G1 X88.784 Y66.297 E95.02115
G1 X89.508 Y66.597 E95.04721
G1 X90.284 Y66.699 E95.07324
G1 X91.06 Y66.597 E95.09928
G1 X91.784 Y66.297 E95.12534
G1 X92.405 Y65.821 E95.15137
G1 X92.881 Y65.2 E95.17739
G1 X93.181 Y64.476 E95.20346
G1 X93.283 Y63.7 E95.22949
G1 X93.181 Y62.924 E95.25552
G0 X90.952 Y73.267
G0 X84.172 Y73.272
G0 X84.172 Y146.528
G0 X117.563 Y148.31
G1 X102.437 Y148.31 E95.75861
G1 X102.437 Y159.09 E96.11716
G1 X117.563 Y159.09 E96.62025
G1 X117.563 Y148.31 E96.97879
G0 X129.804 Y152.701
G1 X129.028 Y152.803 E97.00482
G1 X128.304 Y153.103 E97.03089
G1 X127.682 Y153.579 E97.05694
G1 X127.207 Y154.2 E97.08295
G1 X126.907 Y154.924 E97.10901
G1 X126.805 Y155.7 E97.13504
G1 X126.907 Y156.476 E97.16107
G1 X127.207 Y157.2 E97.18714
G1 X127.682 Y157.821 E97.21314
G1 X128.304 Y158.297 E97.23919
G1 X129.028 Y158.597 E97.26526
G1 X129.804 Y158.699 E97.29129
G1 X130.579 Y158.597 E97.31729
G1 X131.304 Y158.297 E97.34339
G1 X131.924 Y157.821 E97.36939
G1 X132.402 Y157.2 E97.39545
G1 X132.7 Y156.476 E97.42149
G1 X132.804 Y155.7 E97.44753
G1 X132.7 Y154.924 E97.47357
G1 X132.402 Y154.2 E97.49961
G1 X131.924 Y153.579 E97.52568
G1 X131.304 Y153.103 E97.55167
G1 X130.579 Y152.803 E97.57777
G1 X129.804 Y152.701 E97.60377
G0 X117.201 Y148.672
G0 X102.799 Y148.672
G0 X91.784 Y153.103
G1 X91.06 Y152.803 E97.62984
G1 X90.284 Y152.701 E97.65587
G1 X89.508 Y152.803 E97.6819
G1 X88.784 Y153.103 E97.70797
G1 X88.163 Y153.579 E97.73399
G1 X87.687 Y154.2 E97.76001
G1 X87.387 Y154.924 E97.78608
