;FLAVOR:Marlin
;TIME:1387
;Filament used: 2.40181m
;Layer height: 0.2
;MINX:69.2
;MINY:69.2
;MINZ:0.2
;MAXX:150.8
;MAXY:150.8
;MAXZ:5.6
;LINEARADVANCEPROCESSED
;Generated with Cura_SteamEngine 4.8.0
M140 S50
M105
M190 S50
M104 S210
M105
M109 S210
M82 ;absolute extrusion mode
G92 E0 ; Reset Extruder
G28 ; Home all axes
G29; Probe Bed
M500; Save to eprom
G1 Z2.0 F3000 ; Move Z Axis up little to prevent scratching of Heat Bed
G1 X0.1 Y20 Z0.3 F5000.0 ; Move to start position
G1 X0.1 Y200.0 Z0.3 F1500.0 E15 ; Draw the first line
G1 X0.4 Y200.0 Z0.3 F5000.0 ; Move to side a little
G1 X0.4 Y20 Z0.3 F1500.0 E30 ; Draw the second line
G92 E0 ; Reset Extruder
G1 Z2.0 F3000 ; Move Z Axis up little to prevent scratching of Heat Bed
G1 X5 Y20 Z0.3 F5000.0 ; Move over to prevent blob squish
G92 E0
G92 E0
G1 F2400 E-1.2
;LAYER_COUNT:28
M900 K0.000000 T0 ;added by LinearAdvanceSettingPlugin
;LAYER:0
M107
G1 F600 Z0.4
;MESH:b4dc6c96-ad8a-4e44-b45f-3af4673e977f.stl
G0 F3600 X145.076 Y143.233 Z0.4
;TYPE:WALL-INNER
G1 F600 Z0.2
G1 F2400 E0
G1 F3600 X144.447 Y143.494 E0.02265
G1 X143.908 Y143.908 E0.04526
G1 X143.494 Y144.447 E0.06786
G1 X143.233 Y145.076 E0.09051
G1 X143.145 Y145.75 E0.11312
G1 X143.233 Y146.424 E0.13573
G1 X143.494 Y147.053 E0.15838
G1 X143.908 Y147.592 E0.18098
G1 X144.447 Y148.006 E0.20359
G1 X145.076 Y148.267 E0.22624
G1 X145.75 Y148.355 E0.24884
G1 X146.424 Y148.267 E0.27145
G1 X147.053 Y148.006 E0.2941
G1 X147.592 Y147.592 E0.31671
G1 X148.006 Y147.053 E0.33931
G1 X148.267 Y146.424 E0.36196
G1 X148.355 Y145.75 E0.38457
G1 X148.267 Y145.076 E0.40718
G1 X148.006 Y144.447 E0.42983
G1 X147.592 Y143.908 E0.45243
G1 X147.053 Y143.494 E0.47504
G1 X146.424 Y143.233 E0.49769
G1 X145.75 Y143.145 E0.5203
G1 X145.076 Y143.233 E0.5429
G0 X145.18 Y143.623
;TYPE:WALL-OUTER
G1 X144.649 Y143.843 E0.56202
G1 X144.193 Y144.193 E0.58114
G1 X143.843 Y144.649 E0.60026
G1 X143.623 Y145.18 E0.61937
G1 X143.548 Y145.75 E0.6385
G1 X143.623 Y146.32 E0.65762
G1 X143.843 Y146.851 E0.67674
G1 X144.193 Y147.307 E0.69585
G1 X144.649 Y147.657 E0.71497
G1 X145.18 Y147.877 E0.73409
G1 X145.75 Y147.952 E0.75321
G1 X146.32 Y147.877 E0.77233
G1 X146.851 Y147.657 E0.79145
G1 X147.307 Y147.307 E0.81057
G1 X147.657 Y146.851 E0.82969
G1 X147.877 Y146.32 E0.84881
G1 X147.952 Y145.75 E0.86793
G1 X147.877 Y145.18 E0.88705
G1 X147.657 Y144.649 E0.90617
G1 X147.307 Y144.193 E0.92529
G1 X146.851 Y143.843 E0.9444
G1 X146.32 Y143.623 E0.96352
G1 X145.75 Y143.548 E0.98264
G1 X145.18 Y143.623 E1.00176
G0 X144.995 Y143.699
G0 X144.828 Y143.292
G0 X118.387 Y149.841
G0 X115.903 Y150.274
G0 X111.2 Y150.494
G0 X108.8 Y150.494
G0 X104.094 Y150.274
G0 X101.613 Y149.841
G0 X99.273 Y149.274
G0 X96.95 Y148.563
G0 X94.692 Y147.725
G0 X92.498 Y146.76
G0 X90.55 Y145.76
G0 X73.576 Y143.233
;TYPE:WALL-INNER
G1 X72.947 Y143.494 E1.02441
G1 X72.408 Y143.908 E1.04702
G1 X71.994 Y144.447 E1.06963
G1 X71.733 Y145.076 E1.09228
G1 X71.645 Y145.75 E1.11488
G1 X71.733 Y146.424 E1.13749
G1 X71.994 Y147.053 E1.16014
G1 X72.408 Y147.592 E1.18275
G1 X72.947 Y148.006 E1.20535
G1 X73.576 Y148.267 E1.228
G1 X74.25 Y148.355 E1.25061
G1 X74.924 Y148.267 E1.27322
G1 X75.553 Y148.006 E1.29587
G1 X76.092 Y147.592 E1.31847
G1 X76.506 Y147.053 E1.34108
G1 X76.767 Y146.424 E1.36373
G1 X76.855 Y145.75 E1.38633
G1 X76.767 Y145.076 E1.40894
G1 X76.506 Y144.447 E1.43159
G1 X76.092 Y143.908 E1.4542
G1 X75.553 Y143.494 E1.4768
G1 X74.924 Y143.233 E1.49945
G1 X74.25 Y143.145 E1.52206
G1 X73.576 Y143.233 E1.54467
G0 X73.68 Y143.623
;TYPE:WALL-OUTER
G1 X73.149 Y143.843 E1.56378
G1 X72.693 Y144.193 E1.5829
G1 X72.343 Y144.649 E1.60202
G1 X72.123 Y145.18 E1.62114
G1 X72.048 Y145.75 E1.64026
G1 X72.123 Y146.32 E1.65938
G1 X72.343 Y146.851 E1.6785
G1 X72.693 Y147.307 E1.69762
G1 X73.149 Y147.657 E1.71674
G1 X73.68 Y147.877 E1.73586
G1 X74.25 Y147.952 E1.75498
G1 X74.82 Y147.877 E1.7741
G1 X75.351 Y147.657 E1.79322
G1 X75.807 Y147.307 E1.81233
G1 X76.157 Y146.851 E1.83145
G1 X76.377 Y146.32 E1.85057
G1 X76.452 Y145.75 E1.86969
G1 X76.377 Y145.18 E1.88881
G1 X76.157 Y144.649 E1.90793
G1 X75.807 Y144.193 E1.92705
G1 X75.351 Y143.843 E1.94617
G1 X74.82 Y143.623 E1.96529
G1 X74.25 Y143.548 E1.98441
G1 X73.68 Y143.623 E2.00353
G0 X73.495 Y143.699
G0 X73.328 Y143.292
G0 X69.718 Y115.707
G0 X69.487 Y110.006
G0 X69.718 Y104.293
G0 X71.891 Y73.615
G0 X72.133 Y73.031
G0 X72.448 Y72.619
G0 X73.576 Y71.733
;TYPE:WALL-INNER
G1 X72.947 Y71.994 E2.02618
G1 X72.408 Y72.408 E2.04878
G1 X71.994 Y72.947 E2.07139
G1 X71.733 Y73.576 E2.09404
G1 X71.645 Y74.25 E2.11665
G1 X71.733 Y74.924 E2.13926
G1 X71.994 Y75.553 E2.16191
G1 X72.408 Y76.092 E2.18451
G1 X72.947 Y76.506 E2.20712
G1 X73.576 Y76.767 E2.22977
G1 X74.25 Y76.855 E2.25237
G1 X74.924 Y76.767 E2.27498
G1 X75.553 Y76.506 E2.29763
G1 X76.092 Y76.092 E2.32024
G1 X76.506 Y75.553 E2.34284
G1 X76.767 Y74.924 E2.36549
G1 X76.855 Y74.25 E2.3881
G1 X76.767 Y73.576 E2.41071
G1 X76.506 Y72.947 E2.43336
G1 X76.092 Y72.408 E2.45596
G1 X75.553 Y71.994 E2.47857
G1 X74.924 Y71.733 E2.50122
G1 X74.25 Y71.645 E2.52382
G1 X73.576 Y71.733 E2.54643
G0 X73.68 Y72.123
;TYPE:WALL-OUTER
G1 X73.149 Y72.343 E2.56555
G1 X72.693 Y72.693 E2.58467
G1 X72.343 Y73.149 E2.60379
G1 X72.123 Y73.68 E2.6229
G1 X72.048 Y74.25 E2.64203
G1 X72.123 Y74.82 E2.66115
G1 X72.343 Y75.351 E2.68026
G1 X72.693 Y75.807 E2.69938
G1 X73.149 Y76.157 E2.7185
G1 X73.68 Y76.377 E2.73762
G1 X74.25 Y76.452 E2.75674
G1 X74.82 Y76.377 E2.77586
G1 X75.351 Y76.157 E2.79498
G1 X75.807 Y75.807 E2.8141
G1 X76.157 Y75.351 E2.83322
G1 X76.377 Y74.82 E2.85234
G1 X76.452 Y74.25 E2.87146
G1 X76.377 Y73.68 E2.89058
G1 X76.157 Y73.149 E2.9097
G1 X75.807 Y72.693 E2.92881
G1 X75.351 Y72.343 E2.94793
G1 X74.82 Y72.123 E2.96705
G1 X74.25 Y72.048 E2.98617
G1 X73.68 Y72.123 E3.00529
G0 X73.495 Y72.199
G0 X73.328 Y71.792
G0 X104.097 Y69.726
G0 X108.8 Y69.506
G0 X111.2 Y69.506
G0 X115.011 Y69.684
G0 X145.076 Y71.733
;TYPE:WALL-INNER
G1 X144.447 Y71.994 E3.02794
G1 X143.908 Y72.408 E3.05055
G1 X143.494 Y72.947 E3.07315
G1 X143.233 Y73.576 E3.0958
G1 X143.145 Y74.25 E3.11841
G1 X143.233 Y74.924 E3.14102
G1 X143.494 Y75.553 E3.16367
G1 X143.908 Y76.092 E3.18628
G1 X144.447 Y76.506 E3.20888
G1 X145.076 Y76.767 E3.23153
G1 X145.75 Y76.855 E3.25414
G1 X146.424 Y76.767 E3.27675
G1 X147.053 Y76.506 E3.2994
G1 X147.592 Y76.092 E3.322
G1 X148.006 Y75.553 E3.34461
G1 X148.267 Y74.924 E3.36726
G1 X148.355 Y74.25 E3.38986
G1 X148.267 Y73.576 E3.41247
G1 X148.006 Y72.947 E3.43512
G1 X147.592 Y72.408 E3.45773
G1 X147.053 Y71.994 E3.48033
G1 X146.424 Y71.733 E3.50298
G1 X145.75 Y71.645 E3.52559
G1 X145.076 Y71.733 E3.5482
G0 X145.18 Y72.123
;TYPE:WALL-OUTER
G1 X144.649 Y72.343 E3.56731
G1 X144.193 Y72.693 E3.58643
G1 X143.843 Y73.149 E3.60555
G1 X143.623 Y73.68 E3.62467
G1 X143.548 Y74.25 E3.64379
G1 X143.623 Y74.82 E3.66291
G1 X143.843 Y75.351 E3.68203
G1 X144.193 Y75.807 E3.70115
G1 X144.649 Y76.157 E3.72027
G1 X145.18 Y76.377 E3.73938
G1 X145.75 Y76.452 E3.75851
G1 X146.32 Y76.377 E3.77763
G1 X146.851 Y76.157 E3.79674
G1 X147.307 Y75.807 E3.81586
G1 X147.657 Y75.351 E3.83498
G1 X147.877 Y74.82 E3.8541
G1 X147.952 Y74.25 E3.87322
G1 X147.877 Y73.68 E3.89234
G1 X147.657 Y73.149 E3.91146
G1 X147.307 Y72.693 E3.93058
G1 X146.851 Y72.343 E3.9497
G1 X146.32 Y72.123 E3.96882
G1 X145.75 Y72.048 E3.98794
G1 X145.18 Y72.123 E4.00706
G0 X144.995 Y72.199
G0 X144.828 Y71.792
G0 X144.022 Y72.522
G0 X143.633 Y73.031
G0 X143.391 Y73.615
G0 X143.307 Y74.25
G0 X150.4 Y103.915
;TYPE:WALL-INNER
G1 X150.229 Y102.77 E4.04556
G1 X150.004 Y101.7 E4.08193
G1 X149.73 Y100.4 E4.12612
G1 X149.091 Y98.064 E4.20667
G1 X148.929 Y97.578 E4.22371
G1 X148.316 Y95.769 E4.28724
G1 X148.125 Y95.292 E4.30433
G1 X147.405 Y93.523 E4.36785
G1 X146.363 Y91.337 E4.44839
G1 X145.194 Y89.216 E4.52894
G1 X143.901 Y87.167 E4.60953
G1 X142.489 Y85.198 E4.69012
G1 X140.963 Y83.317 E4.77068
G1 X139.328 Y81.53 E4.85124
G1 X137.589 Y79.842 E4.93184
G1 X135.755 Y78.262 E5.01236
G1 X135.348 Y77.948 E5.02945
G1 X133.828 Y76.792 E5.09297
G1 X131.82 Y75.438 E5.17352
G1 X129.734 Y74.206 E5.2541
G1 X127.578 Y73.099 E5.33471
G1 X125.361 Y72.123 E5.41527
G1 X124.881 Y71.943 E5.43232
G1 X123.09 Y71.28 E5.49584
G1 X120.774 Y70.572 E5.57639
G1 X118.418 Y70.002 E5.65702
G1 X118.384 Y69.995 E5.65817
G1 X116.18 Y69.6 E5.73264
G1 X118.419 Y69.6 E5.77003
G1 X150.4 Y69.6 E6.83372
G1 X150.4 Y101.676 E7.90057
G1 X150.4 Y102.77 E7.92662
G1 X150.4 Y103.915 E7.93471
G0 X150.491 Y108.838
G0 X150.4 Y116.085
G1 X150.4 Y117.23 E7.97279
G1 X150.4 Y118.324 E8.00918
G1 X150.4 Y150.4 E9.07603
G1 X118.419 Y150.4 E10.13972
G1 X116.179 Y150.4 E10.21422
G1 X118.384 Y150.005 E10.25163
G1 X118.418 Y149.998 E10.25278
G1 X120.773 Y149.428 E10.33337
G1 X123.09 Y148.721 E10.41394
G1 X125.36 Y147.877 E10.49449
G1 X127.578 Y146.901 E10.57509
G1 X129.734 Y145.794 E10.6557
G1 X131.82 Y144.562 E10.73628
G1 X133.828 Y143.209 E10.81681
G1 X135.754 Y141.739 E10.89739
G1 X137.589 Y140.158 E10.97795
G1 X139.328 Y138.47 E11.05856
G1 X140.963 Y136.683 E11.13912
G1 X142.489 Y134.802 E11.21968
G1 X143.901 Y132.834 E11.30024
G1 X145.194 Y130.785 E11.38083
G1 X146.363 Y128.663 E11.46141
G1 X147.405 Y126.477 E11.54195
G1 X148.316 Y124.232 E11.62253
G1 X149.091 Y121.937 E11.7031
G1 X149.73 Y119.6 E11.78368
G1 X150.004 Y118.3 E11.82787
G1 X150.229 Y117.23 E11.8539
G1 X150.4 Y116.085 E11.86239
G0 X149.576 Y119.551
G0 X148.937 Y121.889
G0 X148.167 Y124.173
G0 X147.256 Y126.417
G0 X146.219 Y128.592
G0 X145.054 Y130.706
G0 X143.775 Y132.735
G0 X142.368 Y134.695
G0 X140.838 Y136.583
G0 X139.221 Y138.349
G0 X137.476 Y140.044
G0 X135.657 Y141.611
G0 X133.738 Y143.076
G0 X131.724 Y144.432
G0 X129.667 Y145.648
G0 X127.502 Y146.76
G0 X125.301 Y147.728
G0 X123.049 Y148.565
G0 X120.726 Y149.274
G0 X118.387 Y149.841
G0 X115.903 Y150.274
G0 X111.2 Y150.494
G0 X103.82 Y150.4
G1 X101.581 Y150.4 E11.93685
G1 X69.6 Y150.4 E13.00055
G1 X69.6 Y118.324 E14.0674
G1 X69.6 Y117.23 E14.10379
G1 X69.6 Y116.085 E14.14187
G1 X69.771 Y117.23 E14.15035
G1 X69.996 Y118.3 E14.17638
G1 X70.27 Y119.6 E14.22057
G1 X70.909 Y121.936 E14.30112
G1 X71.071 Y122.422 E14.31816
G1 X71.684 Y124.231 E14.38169
G1 X71.875 Y124.708 E14.39878
G1 X72.595 Y126.477 E14.4623
G1 X73.637 Y128.663 E14.54285
G1 X74.806 Y130.784 E14.6234
G1 X76.099 Y132.833 E14.70398
G1 X77.511 Y134.802 E14.78457
G1 X79.037 Y136.683 E14.86513
G1 X80.672 Y138.47 E14.94569
G1 X82.411 Y140.158 E15.0263
G1 X84.245 Y141.738 E15.10681
G1 X84.652 Y142.052 E15.12391
G1 X86.172 Y143.208 E15.18742
G1 X88.18 Y144.562 E15.26797
G1 X90.266 Y145.794 E15.34855
G1 X92.422 Y146.901 E15.42916
G1 X94.639 Y147.877 E15.50973
G1 X95.119 Y148.057 E15.52678
G1 X96.91 Y148.72 E15.5903
G1 X99.226 Y149.428 E15.67085
G1 X101.582 Y149.998 E15.75147
G1 X101.616 Y150.005 E15.75262
G1 X103.82 Y150.4 E15.79001
G0 X99.273 Y149.274
G0 X96.95 Y148.563
G0 X94.692 Y147.725
G0 X92.498 Y146.76
G0 X90.333 Y145.648
G0 X88.276 Y144.432
G0 X86.256 Y143.071
G0 X84.345 Y141.612
G0 X82.524 Y140.044
G0 X80.779 Y138.349
G0 X79.162 Y136.583
G0 X77.632 Y134.695
G0 X76.225 Y132.734
G0 X74.946 Y130.705
G0 X73.781 Y128.592
G0 X72.737 Y126.402
G0 X71.836 Y124.178
G0 X71.065 Y121.899
G0 X70.424 Y119.55
G0 X69.931 Y117.213
G0 X69.718 Y115.707
G0 X69.487 Y110.006
G0 X69.718 Y104.293
G0 X69.931 Y102.787
G0 X70.424 Y100.449
G0 X71.063 Y98.111
G0 X71.833 Y95.827
G0 X72.747 Y93.576
G0 X73.781 Y91.408
G0 X74.946 Y89.294
G0 X76.225 Y87.265
G0 X77.632 Y85.305
G0 X79.166 Y83.412
G0 X80.779 Y81.651
G0 X82.524 Y79.956
G0 X84.343 Y78.389
G0 X86.262 Y76.924
G0 X88.276 Y75.568
G0 X90.333 Y74.352
G0 X92.498 Y73.24
G0 X94.699 Y72.272
G0 X96.951 Y71.435
G0 X98.832 Y70.861
G0 X103.821 Y69.6
G1 X101.616 Y69.995 E15.86451
G1 X101.582 Y70.002 E15.86567
G1 X99.227 Y70.572 E15.94626
G1 X96.91 Y71.279 E16.02683
G1 X94.64 Y72.123 E16.10738
G1 X92.422 Y73.099 E16.18798
G1 X90.266 Y74.206 E16.26859
G1 X88.18 Y75.438 E16.34916
G1 X86.172 Y76.791 E16.4297
G1 X84.246 Y78.261 E16.51028
G1 X82.411 Y79.842 E16.59084
G1 X80.672 Y81.53 E16.67145
G1 X79.037 Y83.317 E16.75201
G1 X77.511 Y85.198 E16.83257
G1 X76.099 Y87.166 E16.91313
G1 X74.806 Y89.215 E16.99372
G1 X73.637 Y91.337 E17.0743
G1 X72.595 Y93.523 E17.15484
G1 X71.684 Y95.768 E17.23542
G1 X70.909 Y98.063 E17.31599
G1 X70.27 Y100.4 E17.39657
G1 X69.996 Y101.7 E17.44076
G1 X69.771 Y102.77 E17.47713
G1 X69.6 Y103.915 E17.51563
G1 X69.6 Y102.77 E17.52371
G1 X69.6 Y101.676 E17.54977
G1 X69.6 Y69.6 E18.61662
G1 X101.581 Y69.6 E19.68031
G1 X103.821 Y69.6 E19.71771
G0 X111.2 Y69.506
G0 X115.906 Y69.726
G0 X118.387 Y70.159
G0 X120.727 Y70.726
G0 X123.05 Y71.437
G0 X125.308 Y72.275
G0 X127.502 Y73.24
G0 X129.667 Y74.352
G0 X131.724 Y75.568
G0 X133.744 Y76.929
G0 X135.655 Y78.388
G0 X137.476 Y79.956
G0 X139.221 Y81.651
G0 X140.834 Y83.412
G0 X142.368 Y85.305
G0 X143.775 Y87.266
G0 X145.054 Y89.295
G0 X146.219 Y91.408
G0 X147.263 Y93.599
G0 X148.162 Y95.815
G0 X148.935 Y98.101
G0 X149.576 Y100.45
G0 X150.069 Y102.787
G0 X150.24 Y104.006
G0 X150.5 Y107.571
G0 X150.401 Y107.578
;TYPE:WALL-OUTER
G1 X150.19 Y105.215 E19.79662
G1 X149.835 Y102.841 E19.87645
G1 X149.341 Y100.494 E19.95623
G1 X148.708 Y98.18 E20.03602
G1 X148.55 Y97.705 E20.05267
G1 X147.941 Y95.908 E20.11578
G1 X147.754 Y95.442 E20.13248
G1 X147.039 Y93.685 E20.19557
G1 X146.007 Y91.52 E20.27534
G1 X144.849 Y89.419 E20.35513
G1 X143.569 Y87.39 E20.43492
G1 X142.171 Y85.441 E20.5147
G1 X140.66 Y83.578 E20.59448
G1 X139.041 Y81.809 E20.67424
G1 X137.319 Y80.137 E20.75407
G1 X135.502 Y78.572 E20.83383
G1 X135.105 Y78.266 E20.8505
G1 X133.595 Y77.117 E20.91361
G1 X131.606 Y75.776 E20.99339
G1 X129.541 Y74.556 E21.07317
G1 X127.406 Y73.46 E21.15299
G1 X125.21 Y72.494 E21.23278
G1 X124.741 Y72.318 E21.24944
G1 X122.962 Y71.659 E21.31254
G1 X120.668 Y70.958 E21.39232
G1 X118.336 Y70.394 E21.47212
G1 X115.976 Y69.97 E21.55187
G1 X113.593 Y69.687 E21.63169
G1 X112.125 Y69.599 E21.6806
G1 X111.199 Y69.545 E21.71145
G1 X108.801 Y69.545 E21.79121
G1 X107.876 Y69.599 E21.82203
G1 X106.408 Y69.687 E21.87094
G1 X105.909 Y69.744 E21.88765
G1 X104.025 Y69.97 E21.95076
G1 X101.664 Y70.394 E22.03054
G1 X99.332 Y70.958 E22.11034
G1 X97.038 Y71.658 E22.19011
G1 X94.79 Y72.494 E22.26988
G1 X92.594 Y73.46 E22.34968
G1 X90.459 Y74.556 E22.4295
G1 X88.394 Y75.776 E22.50927
G1 X86.405 Y77.116 E22.58904
G1 X84.498 Y78.572 E22.66884
G1 X82.681 Y80.137 E22.7486
G1 X80.959 Y81.809 E22.82843
G1 X79.34 Y83.578 E22.90819
G1 X77.829 Y85.441 E22.98797
G1 X76.431 Y87.39 E23.06775
G1 X75.151 Y89.418 E23.14751
G1 X73.993 Y91.52 E23.22733
G1 X72.961 Y93.684 E23.30707
G1 X72.059 Y95.907 E23.38686
G1 X71.292 Y98.18 E23.46665
G1 X70.659 Y100.494 E23.54644
G1 X70.165 Y102.841 E23.62621
G1 X69.81 Y105.214 E23.70602
G1 X69.599 Y107.582 E23.78509
G1 X69.598 Y107.603 E23.78579
G1 X69.527 Y110 E23.86555
G1 X69.54 Y110.501 E23.88222
G1 X69.598 Y112.396 E23.94527
G1 X69.599 Y112.417 E23.94597
G1 X69.81 Y114.786 E24.02508
G1 X70.165 Y117.159 E24.10488
G1 X70.659 Y119.506 E24.18466
G1 X71.292 Y121.82 E24.26445
G1 X71.45 Y122.295 E24.2811
G1 X72.059 Y124.092 E24.3442
G1 X72.246 Y124.558 E24.36091
G1 X72.961 Y126.315 E24.424
G1 X73.993 Y128.48 E24.50377
G1 X75.151 Y130.581 E24.58356
G1 X76.431 Y132.61 E24.66335
G1 X77.829 Y134.559 E24.74313
G1 X79.34 Y136.422 E24.82291
G1 X80.959 Y138.191 E24.90267
G1 X82.681 Y139.863 E24.9825
G1 X84.498 Y141.428 E25.06226
G1 X84.895 Y141.734 E25.07893
G1 X86.405 Y142.883 E25.14204
G1 X88.394 Y144.224 E25.22182
G1 X90.459 Y145.444 E25.3016
G1 X92.594 Y146.54 E25.38142
G1 X94.79 Y147.506 E25.46121
G1 X95.259 Y147.682 E25.47787
G1 X97.038 Y148.341 E25.54097
G1 X99.332 Y149.042 E25.62075
G1 X101.664 Y149.606 E25.70055
G1 X104.024 Y150.03 E25.7803
G1 X106.407 Y150.313 E25.86012
G1 X107.875 Y150.401 E25.90903
G1 X108.801 Y150.455 E25.93988
G1 X111.199 Y150.455 E26.01964
G1 X112.124 Y150.401 E26.05046
G1 X113.592 Y150.313 E26.09937
G1 X114.091 Y150.256 E26.11608
G1 X115.975 Y150.03 E26.17919
G1 X118.336 Y149.606 E26.25897
G1 X120.668 Y149.042 E26.33877
G1 X122.962 Y148.342 E26.41854
G1 X125.21 Y147.506 E26.49831
