;FLAVOR:Marlin
;TIME:2658
;Filament used: 4.32048m
;Layer height: 0.2
;MINX:69.2
;MINY:69.2
;MINZ:0.2
;MAXX:150.8
;MAXY:150.8
;MAXZ:2.6
;LINEARADVANCEPROCESSED
;Generated with Cura_SteamEngine 4.8.0
M140 S55
M105
M190 S55
M104 S220
M105
M109 S220
M82 ;absolute extrusion mode
G92 E0 ; Reset Extruder
G28 ; Home all axes
G29; Probe Bed
M500; Save to eprom
G1 Z2.0 F3000 ; Move Z Axis up little to prevent scratching of Heat Bed
G1 X0.1 Y20 Z0.3 F5000.0 ; Move to start position
G1 X0.1 Y200.0 Z0.3 F1500.0 E15 ; Draw the first line
G1 X0.4 Y200.0 Z0.3 F5000.0 ; Move to side a little
G1 X0.4 Y20 Z0.3 F1500.0 E30 ; Draw the second line
G92 E0 ; Reset Extruder
G1 Z2.0 F3000 ; Move Z Axis up little to prevent scratching of Heat Bed
G1 X5 Y20 Z0.3 F5000.0 ; Move over to prevent blob squish
G92 E0
G92 E0
G1 F2400 E-1.2
;LAYER_COUNT:13
M900 K0.000000 T0 ;added by LinearAdvanceSettingPlugin
;LAYER:0
M107
;MESH:58ab28dd-77df-4066-9bdc-3c08e623c9cb.stl
G0 F3600 X85.683 Y85.643 Z0.2
;TYPE:WALL-INNER
G1 F2400 E0
G1 F3600 X87.285 Y84.166 E0.07247
G1 X88.511 Y83.137 E0.12571
G1 X89.52 Y82.368 E0.1679
G1 X88.507 Y83.141 E0.16806
G1 X87.281 Y84.17 E0.16836
G1 X85.683 Y85.643
G0 X82.575 Y89.829
G0 X81.561 Y91.296
G0 X80.718 Y92.645
G0 X79.842 Y94.22
G0 X76.672 Y101.515
G1 X76.438 Y102.456 E0.20061
G1 X76.436 Y102.47 E0.20108
G1 X76.303 Y103.129 E0.22344
G1 X76.434 Y102.47 E0.22346
G1 X76.437 Y102.456 E0.22346
G1 X76.672 Y101.515 E0.22349
G0 X77.761 Y99.076
G0 X86.859 Y98.18
G0 X92.162 Y92.144
G0 X94.231 Y90.293
G0 X95.511 Y89.332
G0 X98.738 Y87.413
G0 X101.092 Y86.385
G0 X102.319 Y85.966
G0 X107.099 Y84.572
G1 X107.609 Y84.512 E0.24057
G1 X107.618 Y84.511 E0.24087
G1 X107.099 Y84.572 E0.24102
G0 X115.577 Y85.016
G1 X115.612 Y85.023 E0.24221
G1 X116.33 Y85.202 E0.26682
G1 X115.612 Y85.025 E0.26687
G1 X115.577 Y85.016 E0.26689
G0 X114.09 Y84.339
G0 X115.491 Y76.405
G0 X116.929 Y76.314
G1 X117.538 Y76.436 E0.28754
G1 X118.064 Y76.567 E0.30557
G1 X117.544 Y76.438 E0.30559
G1 X116.929 Y76.314 E0.30585
G0 X120.925 Y77.761
G0 X125.604 Y79.744
G0 X127.361 Y80.721
G0 X129.4 Y82.042
G0 X130.171 Y82.585
G0 X135.83 Y87.281
G1 X136.86 Y88.507 E0.3591
G1 X137.179 Y88.926 E0.37662
G1 X136.859 Y88.507 E0.37666
G1 X135.83 Y87.281 E0.37671
G0 X137.788 Y90.339
G0 X133.165 Y98.226
G0 X135.378 Y106.667
G1 X135.488 Y107.607 E0.40819
G1 X135.489 Y107.618 E0.40855
G1 X135.488 Y107.608
G1 X135.378 Y106.667 E0.40861
G0 X135.983 Y110.428
G0 X143.595 Y115.491
G0 X143.72 Y116.756
G1 X143.566 Y117.53 E0.43486
G1 X143.562 Y117.544 E0.43534
G1 X143.564 Y117.53 E0.43534
G1 X143.72 Y116.756 E0.43541
G0 X142.522 Y120.131
G0 X139.586 Y127.549
G1 X138.743 Y128.899 E0.48835
G1 X137.99 Y129.988 E0.53238
G1 X138.74 Y128.903 E0.53256
G1 X139.586 Y127.549 E0.53296
G0 X137.286 Y130.352
G0 X128.355 Y128.394
G0 X124.924 Y131.271
G0 X125.248 Y131.733
G0 X118.178 Y133.893
G0 X112.382 Y135.489
G1 X112.901 Y135.428 E0.55034
G1 X112.391 Y135.488
G1 X112.382 Y135.489 E0.55064
G0 X103.67 Y134.798
G1 X104.388 Y134.975 E0.57523
G1 X104.423 Y134.984 E0.57644
G1 X104.388 Y134.977
G1 X103.67 Y134.798 E0.57648
G0 X105.91 Y135.661
G0 X104.51 Y143.594
G0 X101.936 Y143.433
G1 X102.456 Y143.562 E0.5943
G1 X103.414 Y143.754 E0.6268
G1 X102.462 Y143.564 E0.62692
G1 X101.936 Y143.433 E0.62718
G0 X95.15 Y140.574
G0 X91.097 Y138.74
G1 X91.191 Y138.799 E0.63087
G1 X91.101 Y138.743
G1 X91.097 Y138.74
G0 X89.648 Y137.286
G0 X91.606 Y128.355
G0 X89.091 Y124.451
G1 X88.926 Y124.57 E0.63763
G1 X89.049 Y124.732 E0.64197
G1 X90.012 Y125.995 E0.6948
G1 X90.778 Y126.907 E0.73441
G1 X91.855 Y128.074 E0.78723
G1 X91.856 Y128.075 E0.78728
G1 X91.993 Y128.224 E0.79401
G1 X92.139 Y128.083 E0.79834
G1 X103.636 Y116.98 E1.32994
G1 X102.676 Y115.89 E1.37825
G1 X102.03 Y115.049 E1.41352
G1 X89.091 Y124.451 E1.94549
G0 X89.492 Y124.653
;TYPE:WALL-OUTER
G1 X89.615 Y124.815 E1.95225
G1 X90.324 Y125.745 E1.99115
G1 X91.078 Y126.643 E2.03015
G1 X91.871 Y127.502 E2.06903
G1 X91.872 Y127.503 E2.06908
G1 X92.009 Y127.652 E2.07581
G1 X92.155 Y127.511 E2.08014
G1 X103.083 Y116.958 E2.58542
G1 X102.363 Y116.14 E2.62166
G1 X101.95 Y115.602 E2.64422
G1 X89.657 Y124.534 E3.14962
G1 X89.492 Y124.653 E3.15396
G0 X89.613 Y124.812
G0 X89.534 Y124.871
G0 X86.489 Y120.127
;TYPE:WALL-INNER
G1 X86.046 Y119.031 E3.19328
G1 X85.521 Y117.535 E3.24601
G1 X85.454 Y117.344 E3.25274
G1 X71.383 Y121.917 E3.74484
G1 X71.189 Y121.98 E3.75162
G1 X71.256 Y122.172 E3.75596
G1 X72.013 Y124.329 E3.832
G1 X72.72 Y126.08 E3.8948
G1 X73.674 Y128.159 E3.97088
G1 X73.759 Y128.344 E3.97765
G1 X73.942 Y128.255 E3.98201
G1 X79.332 Y125.625 E4.18148
G1 X79.248 Y125.441 E4.18821
G1 X78.412 Y123.625 E4.2547
G1 X77.812 Y122.137 E4.30806
G1 X77.467 Y121.153 E4.34275
G1 X77.814 Y122.141 E4.343
G1 X78.413 Y123.625 E4.34334
G1 X79.248 Y125.44 E4.37662
G1 X79.333 Y125.625 E4.38002
G1 X79.516 Y125.536 E4.38437
G1 X101.789 Y114.672 E5.2086
G1 X101.21 Y113.328 E5.25728
G1 X100.858 Y112.339 E5.29219
G1 X85.649 Y117.281 E5.82408
G1 X85.455 Y117.344 E5.83086
G1 X85.522 Y117.536 E5.83427
G1 X86.048 Y119.035 E5.86082
G1 X86.489 Y120.127
G0 X87.381 Y121.313
G0 X87.434 Y121.229
;TYPE:WALL-OUTER
G1 X87.617 Y121.14 E5.86759
G1 X101.271 Y114.48 E6.37287
G1 X100.835 Y113.467 E6.40955
G1 X100.612 Y112.84 E6.43168
G1 X86.162 Y117.535 E6.93702
G1 X85.968 Y117.598 E6.94381
G1 X86.035 Y117.79 E6.94815
G1 X86.422 Y118.894 E6.98706
G1 X86.861 Y119.981 E7.02605
G1 X87.349 Y121.044 E7.06495
G1 X87.434 Y121.229 E7.06931
G0 X87.614 Y121.142
G0 X87.805 Y121.537
G0 X86.481 Y120.993
G0 X85.157 Y117.621
G0 X70.066 Y116.219
;TYPE:WALL-INNER
G1 X100.748 Y111.907 E8.09982
G1 X100.613 Y110.459 E8.14819
G1 X100.584 Y109.4 E8.18343
G1 X69.6 Y109.4 E9.21396
G1 X69.6 Y103.597 E9.40697
G1 X69.6 Y103.538 E9.40893
G1 X69.6 Y103.035 E9.42566
G1 X69.6 Y69.6 E10.53771
G1 X103.753 Y69.6 E11.67365
G1 X103.941 Y69.6 E11.6799
G1 X106.02 Y69.6 E11.74905
G1 X103.955 Y69.841 E11.78368
G1 X103.753 Y69.864 E11.78934
G1 X103.781 Y70.066 E11.79369
G1 X108.093 Y100.748 E12.82421
G1 X109.541 Y100.613 E12.87258
G1 X110.6 Y100.584 E12.90781
G1 X110.6 Y69.6 E13.93835
G1 X116.403 Y69.6 E14.13136
G1 X116.462 Y69.6 E14.13332
G1 X116.965 Y69.6 E14.15005
G1 X150.4 Y69.6 E15.2621
G1 X150.4 Y103.753 E16.39803
G1 X150.4 Y103.941 E16.40429
G1 X150.4 Y106.02 E16.47343
G1 X150.159 Y103.955 E16.50807
G1 X150.136 Y103.753 E16.51373
G1 X149.934 Y103.781 E16.51808
G1 X119.252 Y108.093 E17.5486
G1 X119.387 Y109.532 E17.59667
G1 X119.415 Y110.6 E17.6322
G1 X150.4 Y110.6 E18.66277
G1 X150.4 Y116.403 E18.85578
G1 X150.4 Y116.462 E18.85774
G1 X150.4 Y116.965 E18.87447
G1 X150.4 Y150.4 E19.98652
G1 X116.247 Y150.4 E21.12246
G1 X116.059 Y150.4 E21.12871
G1 X113.98 Y150.4 E21.19786
G1 X116.045 Y150.159 E21.23249
G1 X116.247 Y150.136 E21.23815
G1 X116.219 Y149.934 E21.2425
G1 X111.907 Y119.252 E22.27302
G1 X110.459 Y119.387 E22.32139
G1 X109.4 Y119.416 E22.35662
G1 X109.4 Y150.4 E23.38716
G1 X103.597 Y150.4 E23.58017
G1 X103.538 Y150.4 E23.58213
G1 X103.035 Y150.4 E23.59886
G1 X69.6 Y150.4 E24.71091
G1 X69.6 Y116.247 E25.84684
G1 X69.6 Y116.059 E25.8531
G1 X69.6 Y113.98 E25.92224
G1 X69.841 Y116.045 E25.95688
G1 X69.864 Y116.247 E25.96254
G1 X70.066 Y116.219 E25.96689
G0 X84.33 Y114.041
G0 X84.968 Y113.717
G0 X85.068 Y113.706
;TYPE:WALL-OUTER
G1 X85.27 Y113.678 E25.97367
G1 X100.314 Y111.564 E26.47896
G1 X100.213 Y110.476 E26.5153
G1 X100.195 Y109.8 E26.53779
G1 X84.999 Y109.8 E27.04321
G1 X84.998 Y109.8 E27.04324
G1 X84.795 Y109.8 E27.05
G1 X84.798 Y110.003 E27.05435
G1 X84.799 Y110.004 E27.05439
G1 X84.827 Y111.172 E27.09325
G1 X84.909 Y112.343 E27.1323
G1 X85.045 Y113.504 E27.17117
G1 X85.068 Y113.706 E27.17551
G0 X85.267 Y113.679
G0 X85.327 Y114.114
G0 X76.353 Y115.161
G0 X76.354 Y114.931
G1 X76.556 Y114.903 E27.1823
G1 X84.276 Y113.817 E27.44159
G1 X84.112 Y112.412 E27.48864
G1 X84.028 Y111.205 E27.52888
G1 X83.995 Y109.8 E27.57563
G1 X76.199 Y109.8 E27.83492
G1 X76.198 Y109.8 E27.83495
G1 X75.995 Y109.8 E27.84171
G1 X75.998 Y110.003 E27.84606
G1 X75.999 Y110.004 E27.8461
G1 X76.037 Y111.582 E27.8986
G1 X76.147 Y113.161 E27.95125
G1 X76.331 Y114.729 E28.00376
G1 X76.354 Y114.931 E28.0081
G0 X76.553 Y114.904
G0 X76.613 Y115.339
G0 X70.015 Y116.052
G0 X70.214 Y115.794
G1 X70.416 Y115.766 E28.01488
G1 X75.562 Y115.042 E28.18772
G1 X75.351 Y113.23 E28.2484
G1 X75.238 Y111.614 E28.30227
G1 X75.195 Y109.8 E28.36263
G1 X69.999 Y109.8 E28.53545
G1 X69.998 Y109.8 E28.53548
G1 X69.795 Y109.8 E28.54223
G1 X69.798 Y110.003 E28.54658
G1 X69.799 Y110.004 E28.54663
G1 X69.843 Y111.87 E28.60871
G1 X69.974 Y113.737 E28.67096
G1 X70.191 Y115.592 E28.73308
G1 X70.214 Y115.794 E28.73741
G0 X70.413 Y115.767
G0 X70.473 Y116.202
G0 X71.409 Y122.09
G0 X72.016 Y123.85
G0 X73.68 Y127.929
G0 X73.952 Y127.805
G1 X74.135 Y127.716 E28.74418
G1 X78.805 Y125.437 E28.91702
G1 X78.043 Y123.779 E28.97771
G1 X77.441 Y122.287 E29.03122
G1 X76.837 Y120.565 E29.09191
G1 X71.896 Y122.171 E29.26471
G1 X71.702 Y122.234 E29.2715
G1 X71.769 Y122.426 E29.27584
G1 X72.387 Y124.188 E29.33794
G1 X73.087 Y125.922 E29.40014
G1 X73.867 Y127.62 E29.46229
G1 X73.952 Y127.805 E29.46664
G0 X74.132 Y127.718
G0 X74.323 Y128.113
G0 X78.926 Y125.632
G0 X79.472 Y125.17
G0 X79.525 Y125.086
G1 X79.708 Y124.997 E29.47341
G1 X86.715 Y121.579 E29.73271
G1 X86.125 Y120.294 E29.77974
G1 X85.675 Y119.181 E29.81967
G1 X85.206 Y117.845 E29.86676
G1 X77.791 Y120.255 E30.12609
G1 X77.597 Y120.318 E30.13287
G1 X77.664 Y120.51 E30.13721
G1 X78.188 Y122 E30.18974
G1 X78.78 Y123.466 E30.24233
G1 X79.44 Y124.901 E30.29486
G1 X79.525 Y125.086 E30.29922
G0 X79.705 Y124.999
G0 X79.896 Y125.394
G0 X81.993 Y129.988
;TYPE:WALL-INNER
G1 X83.141 Y131.493 E30.36217
G1 X84.16 Y132.707 E30.41489
G1 X84.17 Y132.719 E30.41541
G1 X85.661 Y134.337 E30.48859
G1 X91.991 Y128.224 E30.78127
G1 X91.855 Y128.076 E30.78461
G1 X91.85 Y128.071 E30.78484
G1 X90.774 Y126.903 E30.81168
G1 X90.008 Y125.99 E30.81241
G1 X88.926 Y124.57 E30.86937
G1 X81.812 Y129.738 E31.16182
G1 X76.955 Y133.267 E31.36151
G1 X76.79 Y133.386 E31.36827
G1 X76.913 Y133.548 E31.37261
G1 X78.3 Y135.367 E31.4487
G1 X79.515 Y136.814 E31.51154
G1 X81.063 Y138.494 E31.58752
G1 X81.064 Y138.495 E31.58757
G1 X81.201 Y138.644 E31.5943
G1 X81.347 Y138.503 E31.59863
G1 X85.661 Y134.337 E31.79809
G1 X84.171 Y132.719 E31.87125
G1 X84.16 Y132.708 E31.87125
G1 X83.137 Y131.489 E31.87175
G1 X81.993 Y129.988 E31.87204
G0 X82.372 Y129.826
;TYPE:WALL-OUTER
G1 X82.495 Y129.988 E31.87881
G1 X83.453 Y131.243 E31.93132
G1 X84.47 Y132.455 E31.98395
G1 X85.54 Y133.615 E32.03643
G1 X85.541 Y133.616 E32.03648
G1 X85.678 Y133.765 E32.04321
G1 X85.824 Y133.624 E32.04754
G1 X91.432 Y128.208 E32.30685
G1 X90.48 Y127.174 E32.3536
G1 X89.696 Y126.24 E32.39415
G1 X88.845 Y125.123 E32.44086
G1 X82.537 Y129.707 E32.70021
G1 X82.372 Y129.826 E32.70455
G0 X82.493 Y129.985
G0 X82.414 Y130.044
G0 X81.609 Y130.098
G0 X77.034 Y133.422
G0 X77.356 Y133.469
G1 X77.479 Y133.631 E32.71132
G1 X78.612 Y135.117 E32.77347
G1 X79.815 Y136.55 E32.8357
G1 X81.08 Y137.922 E32.89777
G1 X81.081 Y137.923 E32.89782
G1 X81.218 Y138.072 E32.90455
G1 X81.364 Y137.931 E32.90888
G1 X85.102 Y134.321 E33.08172
G1 X83.866 Y132.979 E33.1424
G1 X82.825 Y131.739 E33.19625
G1 X81.725 Y130.295 E33.25662
G1 X77.521 Y133.35 E33.42947
G1 X77.356 Y133.469 E33.43381
G0 X77.477 Y133.628
G0 X77.128 Y133.893
G0 X73.576 Y143.233
;TYPE:WALL-INNER
G1 X72.947 Y143.494 E33.45646
G1 X72.408 Y143.908 E33.47907
G1 X71.994 Y144.447 E33.50167
G1 X71.733 Y145.076 E33.52432
G1 X71.645 Y145.75 E33.54693
G1 X71.733 Y146.424 E33.56954
G1 X71.994 Y147.053 E33.59219
G1 X72.408 Y147.592 E33.61479
G1 X72.947 Y148.006 E33.6374
G1 X73.576 Y148.267 E33.66005
G1 X74.25 Y148.355 E33.68265
G1 X74.924 Y148.267 E33.70526
G1 X75.553 Y148.006 E33.72791
G1 X76.092 Y147.592 E33.75052
G1 X76.506 Y147.053 E33.77312
G1 X76.767 Y146.424 E33.79577
G1 X76.855 Y145.75 E33.81838
G1 X76.767 Y145.076 E33.84099
G1 X76.506 Y144.447 E33.86364
G1 X76.092 Y143.908 E33.88624
G1 X75.553 Y143.494 E33.90885
G1 X74.924 Y143.233 E33.9315
G1 X74.25 Y143.145 E33.95411
G1 X73.576 Y143.233 E33.97671
G0 X73.68 Y143.623
;TYPE:WALL-OUTER
G1 X73.149 Y143.843 E33.99583
G1 X72.693 Y144.193 E34.01495
G1 X72.343 Y144.649 E34.03407
G1 X72.123 Y145.18 E34.05319
G1 X72.048 Y145.75 E34.07231
G1 X72.123 Y146.32 E34.09143
G1 X72.343 Y146.851 E34.11055
G1 X72.693 Y147.307 E34.12967
G1 X73.149 Y147.657 E34.14878
G1 X73.68 Y147.877 E34.1679
G1 X74.25 Y147.952 E34.18702
G1 X74.82 Y147.877 E34.20614
G1 X75.351 Y147.657 E34.22526
G1 X75.807 Y147.307 E34.24438
G1 X76.157 Y146.851 E34.2635
G1 X76.377 Y146.32 E34.28262
G1 X76.452 Y145.75 E34.30174
G1 X76.377 Y145.18 E34.32086
G1 X76.157 Y144.649 E34.33998
G1 X75.807 Y144.193 E34.3591
G1 X75.351 Y143.843 E34.37822
G1 X74.82 Y143.623 E34.39733
G1 X74.25 Y143.548 E34.41645
G1 X73.68 Y143.623 E34.43558
G0 X73.495 Y143.699
G0 X73.328 Y143.292
G0 X74.25 Y143.307
G0 X96.942 Y148.247
;TYPE:WALL-INNER
G1 X96.879 Y148.441 E34.44236
G1 X97.074 Y148.499 E34.4467
G1 X99.264 Y149.155 E34.52274
G1 X101.097 Y149.611 E34.58556
G1 X103.045 Y150.002 E34.65165
G1 X103.482 Y150.09 E34.66647
G1 X103.538 Y150.101 E34.66837
G1 X103.547 Y150.044 E34.6696
G1 X103.548 Y150.043 E34.66965
G1 X106.143 Y135.329 E35.16659
G1 X105.942 Y135.288 E35.17341
G1 X104.877 Y135.075 E35.20954
G1 X105.942 Y135.288 E35.24566
G1 X105.943 Y135.289 E35.24571
G1 X106.143 Y135.328 E35.24909
G1 X106.178 Y135.128 E35.25343
G1 X108.954 Y119.388 E35.78502
G1 X107.531 Y119.07 E35.83352
G1 X106.52 Y118.77 E35.86859
G1 X101.515 Y134.175 E36.40733
G1 X101.861 Y134.279 E36.41935
G1 X101.514 Y134.175 E36.41938
G1 X96.942 Y148.247 E36.9115
G0 X97.386 Y148.175
;TYPE:WALL-OUTER
G1 X97.581 Y148.233 E36.91826
G1 X99.37 Y148.769 E36.98038
G1 X101.185 Y149.221 E37.04259
G1 X103.015 Y149.588 E37.10467
G1 X103.215 Y149.628 E37.11145
G1 X103.25 Y149.428 E37.11579
G1 X104.153 Y144.31 E37.28864
G1 X102.369 Y143.953 E37.34915
G1 X100.802 Y143.562 E37.40287
G1 X99.054 Y143.039 E37.46356
G1 X97.449 Y147.981 E37.63638
G1 X97.386 Y148.175 E37.64073
G0 X97.578 Y148.232
G0 X97.451 Y148.653
G0 X91.558 Y145.962
;TYPE:WALL-INNER
G1 X106.104 Y118.604 E38.67128
G1 X104.842 Y117.858 E38.72004
G1 X103.981 Y117.264 E38.75483
G1 X85.762 Y142.34 E39.78576
G1 X85.643 Y142.505 E39.79252
G1 X85.81 Y142.621 E39.79687
G1 X87.69 Y143.921 E39.87289
G1 X89.292 Y144.922 E39.93572
G1 X91.286 Y146.043 E40.01181
G1 X91.463 Y146.142 E40.01855
G1 X91.557 Y145.963 E40.02286
G1 X91.558 Y145.962 E40.02291
G0 X91.302 Y145.593
;TYPE:WALL-OUTER
G1 X91.396 Y145.414 E40.02963
G1 X91.397 Y145.413 E40.02968
G1 X93.836 Y140.824 E40.20253
G1 X92.255 Y139.935 E40.26286
G1 X90.873 Y139.072 E40.31705
G1 X89.381 Y138.04 E40.37739
G1 X86.326 Y142.244 E40.55023
G1 X86.207 Y142.409 E40.557
G1 X86.374 Y142.525 E40.56135
G1 X87.91 Y143.587 E40.62346
G1 X89.496 Y144.578 E40.68566
G1 X91.125 Y145.494 E40.74782
G1 X91.302 Y145.593 E40.75214
G0 X91.395 Y145.416
G0 X91.783 Y145.623
G0 X94.049 Y140.911
G0 X94.162 Y140.207
G0 X94.212 Y140.119
G1 X94.307 Y139.939 E40.75891
G1 X97.968 Y133.054 E41.01827
G1 X96.743 Y132.366 E41.065
G1 X95.709 Y131.72 E41.10555
G1 X94.553 Y130.92 E41.15231
G1 X89.97 Y137.228 E41.41164
G1 X89.851 Y137.393 E41.41841
G1 X90.018 Y137.509 E41.42275
G1 X91.317 Y138.406 E41.47526
G1 X92.659 Y139.245 E41.5279
G1 X94.035 Y140.019 E41.58041
G1 X94.212 Y140.119 E41.58475
G0 X94.305 Y139.942
G0 X94.693 Y140.149
G0 X99.274 Y142.374
G0 X99.302 Y142.279
G1 X99.497 Y142.337 E41.59151
G1 X101.009 Y142.79 E41.64401
G1 X102.544 Y143.172 E41.69662
G1 X104.092 Y143.482 E41.74913
G1 X104.292 Y143.522 E41.75591
G1 X104.327 Y143.322 E41.76025
G1 X105.681 Y135.644 E42.01956
G1 X104.299 Y135.367 E42.06644
G1 X103.129 Y135.075 E42.10655
G1 X101.774 Y134.67 E42.15358
G1 X99.365 Y142.085 E42.4129
G1 X99.302 Y142.279 E42.41725
G0 X99.494 Y142.336
G0 X99.465 Y142.431
G0 X101.563 Y134.577
G0 X101.993 Y134.004
G0 X102.022 Y133.909
G1 X102.217 Y133.967 E42.42402
G1 X103.336 Y134.303 E42.46288
G1 X104.518 Y134.596 E42.50338
G1 X105.62 Y134.817 E42.54076
G1 X105.82 Y134.856 E42.54754
