;FLAVOR:Marlin
;TIME:1440
;Filament used: 1.73522m
;Layer height: 0.2
;MINX:86.2
;MINY:86.2
;MINZ:0.2
;MAXX:133.8
;MAXY:133.8
;MAXZ:27.4
;LINEARADVANCEPROCESSED
;Generated with Cura_SteamEngine 4.8.0
M140 S60
M105
M190 S60
M104 S220
M105
M109 S220
M82 ;absolute extrusion mode
G92 E0 ; Reset Extruder
G28 ; Home all axes
G29; Probe Bed
M500; Save to eprom
G1 Z2.0 F3000 ; Move Z Axis up little to prevent scratching of Heat Bed
G1 X0.1 Y20 Z0.3 F5000.0 ; Move to start position
G1 X0.1 Y200.0 Z0.3 F1500.0 E15 ; Draw the first line
G1 X0.4 Y200.0 Z0.3 F5000.0 ; Move to side a little
G1 X0.4 Y20 Z0.3 F1500.0 E30 ; Draw the second line
G92 E0 ; Reset Extruder
G1 Z2.0 F3000 ; Move Z Axis up little to prevent scratching of Heat Bed
G1 X5 Y20 Z0.3 F5000.0 ; Move over to prevent blob squish
G92 E0
G92 E0
G1 F2400 E-1.2
;LAYER_COUNT:137
M900 K0.000000 T0 ;added by LinearAdvanceSettingPlugin
;LAYER:0
M107
G1 F600 Z0.4
;MESH:b8403bc3-0ef8-471e-8d2f-594f2d064a5f.stl
G0 F3600 X127.514 Y86.6 Z0.4
;TYPE:WALL-INNER
G1 F600 Z0.2
G1 F2400 E0
G1 F3600 X127.988 Y86.6 E0.01577
G1 X128.206 Y86.612 E0.02303
G1 X128.635 Y86.638 E0.03732
G1 X128.85 Y86.677 E0.04459
G1 X129.289 Y86.757 E0.05943
G1 X129.497 Y86.822 E0.06668
G1 X129.918 Y86.954 E0.08135
G1 X130.129 Y87.049 E0.08905
G1 X130.469 Y87.202 E0.10145
G1 X130.515 Y87.223 E0.10313
G1 X131.077 Y87.565 E0.12501
G1 X131.585 Y87.963 E0.14648
G1 X132.043 Y88.421 E0.16802
G1 X132.444 Y88.935 E0.1897
G1 X132.781 Y89.491 E0.21133
G1 X132.802 Y89.537 E0.21301
G1 X132.951 Y89.871 E0.22517
G1 X133.05 Y90.092 E0.23323
G1 X133.178 Y90.505 E0.24761
G1 X133.242 Y90.71 E0.25475
G1 X133.322 Y91.151 E0.26966
G1 X133.361 Y91.363 E0.27683
G1 X133.385 Y91.77 E0.29039
G1 X133.4 Y92.012 E0.29845
G1 X133.387 Y92.402 E0.31143
G1 X133.324 Y92.026 E0.31258
G1 X133.281 Y91.777 E0.31462
G1 X133.185 Y91.409 E0.31888
G1 X133.127 Y91.187 E0.32262
G1 X132.986 Y90.805 E0.33036
G1 X132.906 Y90.59 E0.33575
G1 X132.739 Y90.243 E0.34569
G1 X132.629 Y90.016 E0.35305
G1 X132.439 Y89.704 E0.3645
G1 X132.299 Y89.473 E0.37349
G1 X131.917 Y88.965 E0.39463
G1 X131.489 Y88.495 E0.41577
G1 X131.016 Y88.067 E0.43699
G1 X130.528 Y87.702 E0.45725
G1 X130.303 Y87.565 E0.46602
G1 X129.984 Y87.371 E0.47772
G1 X129.768 Y87.267 E0.48473
G1 X129.412 Y87.095 E0.49499
G1 X129.195 Y87.015 E0.50044
G1 X128.814 Y86.875 E0.50822
G1 X128.589 Y86.816 E0.51207
G1 X128.201 Y86.714 E0.51658
G1 X127.976 Y86.677 E0.51842
G1 X127.514 Y86.6 E0.51988
G0 X128.77 Y86.969
G0 X128.694 Y87.257
;TYPE:WALL-OUTER
G1 X128.117 Y87.106 E0.53972
G1 X127.552 Y87.012 E0.55877
G1 X126.959 Y86.971 E0.57854
G1 X123.055 Y86.908 E0.7084
G1 X121.135 Y86.886 E0.77226
G1 X119.244 Y86.869 E0.83516
G1 X117.391 Y86.857 E0.89679
G1 X113.831 Y86.843 E1.0152
G1 X110.843 Y86.839 E1.11458
G1 X107.234 Y86.841 E1.23462
G1 X104.504 Y86.851 E1.32542
G1 X101.688 Y86.866 E1.41908
G1 X95.946 Y86.925 E1.61007
G1 X94.535 Y86.946 E1.65701
G1 X91.849 Y86.996 E1.74636
G1 X90.464 Y87.03 E1.79244
G1 X89.781 Y87.296 E1.81682
G1 X89.147 Y87.652 E1.841
G1 X88.58 Y88.083 E1.86469
G1 X88.076 Y88.587 E1.88839
G1 X87.646 Y89.157 E1.91214
G1 X87.295 Y89.786 E1.9361
G1 X87.03 Y90.464 E1.96031
G1 X86.975 Y92.933 E2.04245
G1 X86.931 Y95.426 E2.12538
G1 X86.876 Y100.196 E2.28404
G1 X86.859 Y102.524 E2.36147
G1 X86.844 Y105.897 E2.47366
G1 X86.838 Y109.952 E2.60853
G1 X86.842 Y113.323 E2.72065
G1 X86.851 Y115.912 E2.80676
G1 X86.868 Y118.647 E2.89773
G1 X86.892 Y121.418 E2.9899
G1 X86.926 Y124.205 E3.0826
G1 X86.972 Y126.904 E3.17238
G1 X86.999 Y128.241 E3.21686
G1 X87.03 Y129.536 E3.25995
G1 X87.296 Y130.219 E3.28432
G1 X87.652 Y130.853 E3.30851
G1 X88.083 Y131.42 E3.3322
G1 X88.587 Y131.924 E3.3559
G1 X89.157 Y132.354 E3.37965
G1 X89.786 Y132.705 E3.40361
G1 X90.464 Y132.97 E3.42782
G1 X92.933 Y133.025 E3.50996
G1 X95.426 Y133.069 E3.59289
G1 X100.196 Y133.124 E3.75155
G1 X102.524 Y133.141 E3.82898
G1 X105.897 Y133.156 E3.94117
G1 X109.952 Y133.162 E4.07604
G1 X113.323 Y133.158 E4.18816
G1 X115.912 Y133.149 E4.27427
G1 X118.647 Y133.132 E4.36524
G1 X121.418 Y133.108 E4.45741
G1 X124.205 Y133.074 E4.55011
G1 X126.904 Y133.028 E4.63989
G1 X128.241 Y133.001 E4.68437
G1 X129.536 Y132.97 E4.72745
G1 X130.219 Y132.704 E4.75183
G1 X130.853 Y132.348 E4.77602
G1 X131.42 Y131.917 E4.79971
G1 X131.924 Y131.413 E4.82341
G1 X132.354 Y130.843 E4.84716
G1 X132.705 Y130.214 E4.87112
G1 X132.97 Y129.536 E4.89533
G1 X133.001 Y128.248 E4.93818
G1 X133.027 Y126.959 E4.98106
G1 X133.072 Y124.313 E5.06908
G1 X133.128 Y119.181 E5.23978
G1 X133.15 Y115.433 E5.36444
G1 X133.158 Y113.063 E5.44327
G1 X133.162 Y108.961 E5.5797
G1 X133.155 Y105.182 E5.70539
G1 X133.141 Y102.016 E5.8107
G1 X133.124 Y99.821 E5.8837
G1 X133.099 Y97.484 E5.96144
G1 X133.029 Y93.042 E6.1092
G1 X132.989 Y92.449 E6.12897
G1 X132.89 Y91.861 E6.1488
G1 X132.745 Y91.308 E6.16781
G1 X132.537 Y90.747 E6.18771
G1 X132.277 Y90.207 E6.20765
G1 X131.967 Y89.698 E6.22747
G1 X131.608 Y89.22 E6.24735
G1 X131.206 Y88.778 E6.26722
G1 X130.762 Y88.376 E6.28714
G1 X130.304 Y88.034 E6.30616
G1 X129.793 Y87.723 E6.32605
G1 X129.256 Y87.464 E6.34588
G1 X128.694 Y87.257 E6.3658
G0 X128.501 Y87.207
G0 X128.613 Y86.782
G0 X128.689 Y86.241
G1 X129.382 Y86.367 E6.38923
G1 X130.064 Y86.58 E6.41299
G1 X130.7 Y86.867 E6.4362
G1 X131.305 Y87.235 E6.45975
G1 X131.85 Y87.662 E6.48278
G1 X132.34 Y88.152 E6.50583
G1 X132.774 Y88.708 E6.52929
G1 X133.137 Y89.308 E6.55261
G1 X133.425 Y89.95 E6.57601
G1 X133.632 Y90.616 E6.59921
G1 X133.758 Y91.31 E6.62267
G1 X133.8 Y92.012 E6.64606
G1 X133.8 Y127.995 E7.84286
G1 X133.759 Y128.689 E7.86598
G1 X133.633 Y129.382 E7.88941
G1 X133.42 Y130.064 E7.91318
G1 X133.133 Y130.7 E7.93638
G1 X132.765 Y131.305 E7.95994
G1 X132.339 Y131.849 E7.98292
G1 X131.848 Y132.34 E8.00601
G1 X131.292 Y132.774 E8.02947
G1 X130.691 Y133.138 E8.05284
G1 X130.05 Y133.425 E8.0762
G1 X129.384 Y133.632 E8.0994
G1 X128.69 Y133.758 E8.12286
G1 X127.988 Y133.8 E8.14625
G1 X92.004 Y133.8 E9.34308
G1 X91.3 Y133.757 E9.36654
G1 X90.607 Y133.63 E9.38997
G1 X89.941 Y133.422 E9.41318
G1 X89.31 Y133.139 E9.43618
G1 X88.704 Y132.772 E9.45974
G1 X88.151 Y132.338 E9.48312
G1 X87.65 Y131.835 E9.50674
G1 X87.224 Y131.291 E9.52972
G1 X86.863 Y130.693 E9.55295
G1 X86.574 Y130.049 E9.57643
G1 X86.367 Y129.38 E9.59972
G1 X86.243 Y128.694 E9.62291
G1 X86.2 Y127.988 E9.64643
G1 X86.2 Y92.001 E10.84336
G1 X86.244 Y91.294 E10.86692
G1 X86.37 Y90.607 E10.89015
G1 X86.575 Y89.947 E10.91314
G1 X86.866 Y89.301 E10.93671
G1 X87.232 Y88.698 E10.96017
G1 X87.66 Y88.152 E10.98324
G1 X88.16 Y87.654 E11.00671
G1 X88.716 Y87.22 E11.03017
G1 X89.311 Y86.861 E11.05329
G1 X89.946 Y86.576 E11.07643
G1 X90.62 Y86.367 E11.09991
G1 X91.31 Y86.242 E11.12323
G1 X92.003 Y86.201 E11.14632
G1 X127.995 Y86.2 E12.34342
G1 X128.689 Y86.241 E12.36654
G0 X128.885 Y86.276
G0 X128.806 Y86.709
G0 X127.333 Y86.604
G0 X127.229 Y86.499
;TYPE:SKIN
G1 X127.041 Y86.594 E12.37165
G1 X121.334 Y86.544 E12.51006
G1 X115.091 Y86.524 E12.66147
G1 X108.581 Y86.519 E12.81936
G1 X102.087 Y86.531 E12.97686
G1 X95.614 Y86.563 E13.13384
G1 X91.703 Y86.612 E13.2287
G1 X90.423 Y86.746 E13.25992
G1 X89.415 Y87.152 E13.28627
G1 X88.405 Y87.839 E13.3159
G1 X87.593 Y88.724 E13.34503
G1 X87.054 Y89.6 E13.36997
G1 X86.746 Y90.423 E13.39128
G1 X86.603 Y91.977 E13.42913
G1 X86.555 Y97.02 E13.55144
G1 X86.527 Y103.214 E13.70167
G1 X86.519 Y109.712 E13.85926
G1 X86.526 Y116.225 E14.01722
G1 X86.553 Y122.474 E14.16877
G1 X86.601 Y128.178 E14.30712
G1 X86.688 Y129.397 E14.33675
G1 X87.017 Y130.292 E14.35988
G1 X87.394 Y130.952 E14.37832
G0 X87.552 Y131.393
G1 X88.6 Y132.441 E14.40296
G0 X89.047 Y132.604
M104 S215
G1 X89.705 Y132.98 E14.4214
G1 X90.601 Y133.31 E14.44462
G1 X92.105 Y133.4 E14.48127
G1 X98.092 Y133.448 E14.6269
G1 X104.34 Y133.473 E14.77887
G1 X110.569 Y133.48 E14.93039
G1 X117.065 Y133.47 E15.08839
G1 X123.26 Y133.443 E15.23908
G1 X128.022 Y133.396 E15.35491
G1 X129.575 Y133.252 E15.39285
G1 X130.583 Y132.846 E15.41928
G1 X131.592 Y132.158 E15.44899
G1 X132.405 Y131.274 E15.4782
G1 X132.943 Y130.397 E15.50323
G1 X133.252 Y129.575 E15.52459
G1 X133.396 Y128.022 E15.56252
G1 X133.443 Y122.978 E15.68522
G1 X133.47 Y116.782 E15.83593
G1 X133.479 Y110.286 E15.99393
G1 X133.472 Y103.49 E16.15924
G1 X133.445 Y97.241 E16.31124
G1 X133.404 Y92.957 E16.41544
G1 X133.46 Y92.73 E16.42113
G0 X133.561 Y92.549
G1 X133.604 Y92.592 E16.42214
;MESH:NONMESH
G0 F600 X133.604 Y92.592 Z0.4
G0 F3600 X133.481 Y92.588
G0 X132.757 Y90.653
G0 X132.165 Y89.561
G0 X131.376 Y88.609
G0 X130.44 Y87.837
G0 X129.555 Y87.356
G0 X127.519 Y86.6
;TIME_ELAPSED:13.620753
;LAYER:1
M106 S255
;TYPE:WALL-INNER
;MESH:b8403bc3-0ef8-471e-8d2f-594f2d064a5f.stl
G1 F5400 X128.003 Y86.6 E16.43824
G1 X128.16 Y86.609 E16.44347
G1 X128.258 Y86.615 E16.44673
G1 X128.647 Y86.64 E16.4597
G1 X128.82 Y86.67 E16.46554
G1 X128.917 Y86.688 E16.46882
G1 X129.29 Y86.756 E16.48143
G1 X129.486 Y86.818 E16.48827
G1 X129.928 Y86.957 E16.50368
G1 X130.126 Y87.046 E16.5109
G1 X130.454 Y87.194 E16.52287
G1 X130.512 Y87.22 E16.52498
G1 X131.057 Y87.549 E16.54616
G1 X131.572 Y87.951 E16.56789
G1 X132.041 Y88.418 E16.5899
G1 X132.45 Y88.942 E16.61201
G1 X132.779 Y89.487 E16.63318
G1 X132.803 Y89.54 E16.63512
G1 X132.952 Y89.874 E16.64728
G1 X133.042 Y90.073 E16.65454
G1 X133.181 Y90.516 E16.66999
G1 X133.243 Y90.712 E16.67682
G1 X133.309 Y91.085 E16.68942
G1 X133.327 Y91.182 E16.6927
G1 X133.36 Y91.36 E16.69873
G1 X133.383 Y91.742 E16.71145
G1 X133.389 Y91.84 E16.71472
G1 X133.4 Y92.012 E16.72045
G1 X133.386 Y92.393 E16.73313
G1 X133.325 Y92.025 E16.73425
G1 X133.294 Y91.846 E16.73567
G1 X133.275 Y91.749 E16.73629
G1 X133.185 Y91.407 E16.74027
G1 X133.135 Y91.217 E16.74349
G1 X133.104 Y91.122 E16.7454
G1 X132.987 Y90.808 E16.75185
G1 X132.91 Y90.602 E16.75702
G1 X132.729 Y90.223 E16.76792
G1 X132.631 Y90.019 E16.77453
G1 X132.441 Y89.707 E16.78597
G1 X132.295 Y89.469 E16.79525
G1 X131.965 Y89.026 E16.81363
G1 X131.903 Y88.948 E16.81694
G1 X131.533 Y88.54 E16.83526
G1 X131.462 Y88.47 E16.83858
G1 X131.054 Y88.098 E16.85694
G1 X130.976 Y88.036 E16.86025
G1 X130.533 Y87.706 E16.87863
G1 X130.288 Y87.556 E16.88818
G1 X129.981 Y87.369 E16.89946
G1 X129.778 Y87.272 E16.90606
G1 X129.401 Y87.091 E16.91694
G1 X129.195 Y87.015 E16.92213
G1 X128.88 Y86.898 E16.92871
G1 X128.786 Y86.867 E16.93066
G1 X128.601 Y86.818 E16.93385
G1 X128.252 Y86.726 E16.93799
G1 X128.155 Y86.707 E16.93903
G1 X127.99 Y86.68 E16.94041
G1 X127.519 Y86.6 E16.94196
G0 X90.445 Y86.932
G0 X90.465 Y87.03
;TYPE:WALL-OUTER
G1 F3600 X89.786 Y87.294 E16.96619
G1 X89.17 Y87.637 E16.98964
G1 X89.127 Y87.667 E16.99139
G1 X88.603 Y88.063 E17.01323
G1 X88.565 Y88.098 E17.01495
G1 X88.098 Y88.564 E17.03689
G1 X88.066 Y88.6 E17.0385
G1 X87.642 Y89.161 E17.06188
G1 X87.296 Y89.783 E17.08556
G1 X87.03 Y90.464 E17.10987
G1 X86.972 Y93.093 E17.19734
G1 X86.933 Y95.264 E17.26956
G1 X86.875 Y100.353 E17.43883
G1 X86.859 Y102.599 E17.51353
G1 X86.844 Y105.86 E17.62199
G1 X86.838 Y110.022 E17.76042
G1 X86.843 Y113.447 E17.87434
G1 X86.851 Y115.998 E17.95919
G1 X86.869 Y118.831 E18.05341
G1 X86.894 Y121.604 E18.14565
G1 X86.929 Y124.389 E18.23829
G1 X86.973 Y126.993 E18.32491
G1 X87.001 Y128.328 E18.36932
G1 X87.03 Y129.536 E18.40951
G1 X87.294 Y130.214 E18.43371
G1 X87.637 Y130.83 E18.45716
G1 X87.667 Y130.873 E18.4589
G1 X88.063 Y131.397 E18.48075
G1 X88.098 Y131.435 E18.48247
G1 X88.564 Y131.902 E18.50441
G1 X88.6 Y131.934 E18.50601
G1 X89.161 Y132.358 E18.5294
G1 X89.783 Y132.704 E18.55307
G1 X90.464 Y132.97 E18.57739
G1 X93.093 Y133.028 E18.66485
G1 X95.264 Y133.067 E18.73707
G1 X100.353 Y133.125 E18.90634
G1 X102.599 Y133.141 E18.98105
G1 X105.86 Y133.156 E19.08951
G1 X110.022 Y133.162 E19.22794
G1 X113.447 Y133.157 E19.34185
G1 X115.998 Y133.149 E19.4267
G1 X118.831 Y133.131 E19.52093
G1 X121.604 Y133.106 E19.61316
G1 X124.389 Y133.071 E19.7058
G1 X126.993 Y133.027 E19.79242
G1 X128.328 Y132.999 E19.83683
G1 X129.536 Y132.97 E19.87702
G1 X130.214 Y132.706 E19.90122
G1 X130.83 Y132.363 E19.92467
G1 X130.873 Y132.333 E19.92642
G1 X131.397 Y131.937 E19.94826
G1 X131.435 Y131.902 E19.94998
G1 X131.902 Y131.436 E19.97192
G1 X131.934 Y131.4 E19.97353
G1 X132.358 Y130.839 E19.99691
G1 X132.704 Y130.217 E20.02059
G1 X132.97 Y129.536 E20.0449
G1 X133.002 Y128.172 E20.09028
G1 X133.03 Y126.803 E20.13583
G1 X133.069 Y124.494 E20.21264
G1 X133.129 Y119.051 E20.39368
G1 X133.15 Y115.399 E20.51515
G1 X133.158 Y113.041 E20.59358
G1 X133.162 Y109.018 E20.72738
G1 X133.155 Y105.163 E20.8556
G1 X133.142 Y102.135 E20.95631
G1 X133.122 Y99.693 E21.03754
G1 X133.102 Y97.67 E21.10483
G1 X133.029 Y93.042 E21.25877
G1 X132.988 Y92.44 E21.27884
G1 X132.901 Y91.919 E21.29641
G1 X132.885 Y91.84 E21.29909
G1 X132.751 Y91.33 E21.31663
G1 X132.726 Y91.254 E21.31929
G1 X132.541 Y90.758 E21.3369
G1 X132.279 Y90.21 E21.3571
G1 X131.963 Y89.693 E21.37725
G1 X131.648 Y89.27 E21.39479
G1 X131.598 Y89.207 E21.39747
G1 X131.243 Y88.816 E21.41504
G1 X131.186 Y88.759 E21.41772
G1 X130.795 Y88.403 E21.4353
G1 X130.732 Y88.353 E21.43798
G1 X130.309 Y88.038 E21.45552
G1 X129.79 Y87.721 E21.47575
G1 X129.245 Y87.46 E21.49585
G1 X128.748 Y87.276 E21.51347
G1 X128.672 Y87.251 E21.51613
G1 X128.161 Y87.116 E21.53371
G1 X128.082 Y87.1 E21.53639
G1 X127.562 Y87.013 E21.55393
G1 X126.959 Y86.971 E21.57403
G1 X123.038 Y86.908 E21.70446
G1 X121.111 Y86.886 E21.76856
G1 X119.212 Y86.869 E21.83172
G1 X117.353 Y86.857 E21.89356
G1 X113.785 Y86.843 E22.01223
G1 X110.803 Y86.839 E22.11141
G1 X107.285 Y86.841 E22.22842
G1 X104.479 Y86.851 E22.32175
G1 X101.669 Y86.866 E22.41521
G1 X95.938 Y86.925 E22.60583
G1 X94.529 Y86.946 E22.6527
G1 X91.935 Y86.995 E22.739
G1 X90.465 Y87.03 E22.7879
G0 F5400 X90.279 Y87.102
G0 X90.619 Y86.367
G1 F3600 X91.288 Y86.245 E22.81052
G1 X91.987 Y86.201 E22.83381
G1 X128.01 Y86.2 E24.03194
G1 X128.675 Y86.24 E24.0541
G1 X128.718 Y86.246 E24.05555
G1 X129.375 Y86.365 E24.07775
G1 X129.399 Y86.371 E24.07858
G1 X130.069 Y86.582 E24.10194
G1 X130.695 Y86.864 E24.12478
G1 X131.283 Y87.219 E24.14762
G1 X131.836 Y87.65 E24.17094
G1 X132.342 Y88.154 E24.19469
G1 X132.78 Y88.716 E24.21839
G1 X133.136 Y89.305 E24.24128
G1 X133.417 Y89.93 E24.26407
G1 X133.633 Y90.62 E24.28812
G1 X133.757 Y91.307 E24.31134
G1 X133.8 Y92.012 E24.33483
G1 X133.8 Y128.01 E25.53213
G1 X133.76 Y128.675 E25.55429
G1 X133.754 Y128.718 E25.55573
G1 X133.63 Y129.395 E25.57863
G1 X133.419 Y130.068 E25.60208
G1 X133.136 Y130.695 E25.62496
G1 X132.781 Y131.283 E25.64781
G1 X132.35 Y131.836 E25.67113
G1 X131.846 Y132.342 E25.69488
G1 X131.287 Y132.778 E25.71846
G1 X130.695 Y133.136 E25.74147
G1 X130.07 Y133.417 E25.76426
G1 X129.4 Y133.628 E25.78763
G1 X129.376 Y133.634 E25.78845
G1 X128.69 Y133.758 E25.81163
G1 X127.988 Y133.8 E25.83503
G1 X91.987 Y133.8 E27.03242
G1 X91.3 Y133.757 E27.05532
G1 X90.64 Y133.638 E27.07762
G1 X90.598 Y133.628 E27.07906
G1 X89.941 Y133.422 E27.10196
G1 X89.316 Y133.142 E27.12474
G1 X88.721 Y132.783 E27.14785
G1 X88.696 Y132.766 E27.14886
G1 X88.153 Y132.341 E27.17179
G1 X87.653 Y131.839 E27.19536
G1 X87.216 Y131.278 E27.21901
G1 X86.864 Y130.694 E27.24169
G1 X86.57 Y130.038 E27.2656
G1 X86.369 Y129.391 E27.28813
G1 X86.242 Y128.69 E27.31183
G1 X86.2 Y127.988 E27.33522
G1 X86.201 Y91.976 E28.53298
G1 X86.24 Y91.316 E28.55497
G1 X86.363 Y90.634 E28.57802
G1 X86.374 Y90.593 E28.57943
G1 X86.569 Y89.965 E28.6013
G1 X86.855 Y89.324 E28.62465
G1 X86.877 Y89.282 E28.62623
G1 X87.217 Y88.719 E28.6481
G1 X87.233 Y88.696 E28.64903
G1 X87.648 Y88.166 E28.67142
G1 X88.145 Y87.667 E28.69485
G1 X88.724 Y87.215 E28.71928
G1 X89.323 Y86.855 E28.74252
G1 X89.921 Y86.587 E28.76432
G1 X89.957 Y86.573 E28.7656
G1 X90.619 Y86.367 E28.78866
G0 F5400 X90.815 Y86.332
G0 X90.659 Y86.682
;TYPE:SKIN
G1 X90.262 Y86.796 E28.79939
G1 X89.812 Y86.963 E28.81185
G1 X89.205 Y87.288 E28.82973
G0 X88.838 Y87.372
G1 X87.372 Y88.838 E28.86421
G0 X87.288 Y89.204
G1 X86.964 Y89.811 E28.88079
G1 X86.681 Y90.66 E28.90235
G1 X86.598 Y92.157 E28.93847
G1 X86.55 Y98.144 E29.0827
G1 X86.525 Y104.392 E29.23322
