;FLAVOR:Marlin
;TIME:6860
;Filament used: 15.9023m
;Layer height: 0.2
;MINX:43.999
;MINY:73.8
;MINZ:0.24
;MAXX:176.103
;MAXY:146.2
;MAXZ:53.49
;LINEARADVANCEPROCESSED
;Generated with Cura_SteamEngine 4.8.0
M140 S55
M105
M190 S55
M104 S230
M105
M109 S230
M82 ;absolute extrusion mode
G92 E0 ; Reset Extruder
G28 ; Home all axes
G29; Probe Bed
M500; Save to eprom
G1 Z2.0 F3000 ; Move Z Axis up little to prevent scratching of Heat Bed
G1 X0.1 Y20 Z0.3 F5000.0 ; Move to start position
G1 X0.1 Y200.0 Z0.3 F1500.0 E15 ; Draw the first line
G1 X0.4 Y200.0 Z0.3 F5000.0 ; Move to side a little
G1 X0.4 Y20 Z0.3 F1500.0 E30 ; Draw the second line
G92 E0 ; Reset Extruder
G1 Z2.0 F3000 ; Move Z Axis up little to prevent scratching of Heat Bed
G1 X5 Y20 Z0.3 F5000.0 ; Move over to prevent blob squish
G92 E0
G92 E0
G1 F2400 E-1.2
;LAYER_COUNT:262
M900 K0.000000 T0 ;added by LinearAdvanceSettingPlugin
;LAYER:-6
M107
G0 F7200 X50.992 Y76.343 Z0.24
;TYPE:SUPPORT-INTERFACE
G1 F2400 E0
G1 F2700 X51.176 Y76.226 E0.01741
G1 X51.932 Y75.783 E0.08735
G1 X52.074 Y75.706 E0.10024
G1 X52.906 Y75.297 E0.17425
G1 X53.019 Y75.247 E0.18411
G1 X53.869 Y74.904 E0.25728
G1 X54.042 Y74.842 E0.27195
G1 X54.88 Y74.573 E0.3422
G1 X55.044 Y74.527 E0.3558
G1 X55.916 Y74.315 E0.42743
G1 X56.078 Y74.282 E0.44063
G1 X56.971 Y74.134 E0.51289
G1 X57.148 Y74.111 E0.52714
G1 X58.042 Y74.028 E0.5988
G1 X58.184 Y74.021 E0.61015
G1 X58.925 Y74 E0.66933
G1 X161.086 Y74.001 E8.82426
G1 X162.087 Y74.037 E8.90422
G1 X162.21 Y74.046 E8.91406
G1 X163.127 Y74.148 E8.98771
G1 X163.302 Y74.173 E9.00182
G1 X164.191 Y74.337 E9.07398
G1 X164.314 Y74.365 E9.08405
G1 X165.208 Y74.599 E9.15782
G1 X165.371 Y74.648 E9.17141
G1 X166.213 Y74.934 E9.24239
G1 X166.379 Y74.998 E9.25659
G1 X167.182 Y75.339 E9.32623
G1 X167.371 Y75.427 E9.34287
G1 X168.165 Y75.835 E9.41413
G1 X168.282 Y75.902 E9.42489
G1 X169.061 Y76.376 E9.49768
G1 X169.212 Y76.476 E9.51214
G1 X169.926 Y76.987 E9.58223
G1 X170.074 Y77.1 E9.59709
G1 X170.766 Y77.677 E9.66901
G1 X170.874 Y77.773 E9.68055
G1 X171.386 Y78.255 E9.73668
G1 X171.506 Y78.375 E9.75023
G1 X172.188 Y79.108 E9.83015
G1 X172.307 Y79.247 E9.84475
G1 X172.861 Y79.938 E9.91545
G1 X172.965 Y80.077 E9.92931
G1 X173.457 Y80.792 E9.99859
G1 X173.574 Y80.976 E10.01599
G1 X174.014 Y81.725 E10.08534
G1 X174.087 Y81.859 E10.09752
G1 X174.492 Y82.682 E10.17074
G1 X174.553 Y82.819 E10.18271
G1 X174.895 Y83.664 E10.25547
G1 X174.954 Y83.83 E10.26954
G1 X175.225 Y84.672 E10.34014
G1 X175.272 Y84.838 E10.35392
G1 X175.483 Y85.707 E10.4253
G1 X175.517 Y85.87 E10.43859
G1 X175.665 Y86.762 E10.51077
G1 X175.689 Y86.948 E10.52574
G1 X175.77 Y87.832 E10.5966
G1 X175.779 Y87.984 E10.60875
G1 X175.8 Y88.717 E10.66729
G1 X175.8 Y131.269 E14.06397
G1 X175.764 Y132.275 E14.14433
G1 X175.754 Y132.41 E14.15513
G1 X175.652 Y133.327 E14.22878
G1 X175.627 Y133.502 E14.24289
G1 X175.465 Y134.38 E14.31416
G1 X175.435 Y134.514 E14.32512
G1 X175.204 Y135.399 E14.39813
G1 X175.152 Y135.571 E14.41248
G1 X174.866 Y136.413 E14.48346
G1 X174.802 Y136.579 E14.49766
G1 X174.461 Y137.382 E14.5673
G1 X174.38 Y137.557 E14.5827
G1 X173.976 Y138.343 E14.65324
G1 X173.898 Y138.482 E14.66596
G1 X173.424 Y139.261 E14.73875
G1 X173.324 Y139.412 E14.75321
G1 X172.813 Y140.126 E14.8233
G1 X172.7 Y140.274 E14.83816
G1 X172.123 Y140.966 E14.91008
G1 X172.027 Y141.074 E14.92162
G1 X171.545 Y141.586 E14.97775
G1 X171.388 Y141.742 E14.99542
G1 X170.703 Y142.378 E15.07003
G1 X170.555 Y142.505 E15.0856
G1 X169.862 Y143.061 E15.15652
G1 X169.723 Y143.165 E15.17038
G1 X169.008 Y143.657 E15.23966
G1 X168.824 Y143.774 E15.25706
G1 X168.068 Y144.217 E15.32701
G1 X167.926 Y144.294 E15.3399
G1 X167.098 Y144.701 E15.41355
G1 X166.981 Y144.753 E15.42377
G1 X166.126 Y145.098 E15.49737
G1 X165.963 Y145.156 E15.51118
G1 X165.12 Y145.427 E15.58186
G1 X164.956 Y145.473 E15.59546
G1 X164.084 Y145.685 E15.66709
G1 X163.922 Y145.718 E15.68029
G1 X163.029 Y145.866 E15.75254
G1 X162.852 Y145.889 E15.76679
G1 X161.958 Y145.972 E15.83846
G1 X161.816 Y145.979 E15.84981
G1 X161.075 Y146 E15.90898
G1 X58.914 Y145.999 E24.06392
G1 X57.913 Y145.963 E24.14387
G1 X57.79 Y145.954 E24.15372
G1 X56.873 Y145.852 E24.22737
G1 X56.698 Y145.827 E24.24148
G1 X55.809 Y145.663 E24.31364
G1 X55.686 Y145.635 E24.32371
G1 X54.792 Y145.401 E24.39748
G1 X54.629 Y145.352 E24.41106
G1 X53.787 Y145.066 E24.48205
G1 X53.621 Y145.002 E24.49625
G1 X52.818 Y144.661 E24.56589
G1 X52.629 Y144.573 E24.58253
G1 X51.835 Y144.165 E24.65379
G1 X51.718 Y144.098 E24.66455
G1 X50.939 Y143.624 E24.73734
G1 X50.788 Y143.524 E24.7518
G1 X50.074 Y143.013 E24.82188
G1 X49.926 Y142.9 E24.83675
G1 X49.234 Y142.323 E24.90867
G1 X49.126 Y142.227 E24.9202
G1 X48.614 Y141.745 E24.97634
G1 X48.454 Y141.584 E24.99445
G1 X47.81 Y140.89 E25.07003
G1 X47.693 Y140.753 E25.08441
G1 X47.143 Y140.067 E25.1546
G1 X47.027 Y139.911 E25.17011
G1 X46.543 Y139.208 E25.23825
G1 X46.426 Y139.024 E25.25565
G1 X45.983 Y138.268 E25.3256
G1 X45.906 Y138.126 E25.33849
G1 X45.497 Y137.294 E25.41249
G1 X45.447 Y137.181 E25.42236
G1 X45.098 Y136.317 E25.49674
G1 X45.042 Y136.159 E25.51012
G1 X44.77 Y135.311 E25.58121
G1 X44.728 Y135.161 E25.59364
G1 X44.512 Y134.273 E25.66659
G1 X44.483 Y134.13 E25.67824
G1 X44.333 Y133.224 E25.75155
G1 X44.311 Y133.052 E25.76539
G1 X44.228 Y132.153 E25.83746
G1 X44.221 Y132.016 E25.84841
G1 X44.2 Y131.283 E25.90694
G1 X44.2 Y88.731 E29.30363
G1 X44.236 Y87.725 E29.38398
G1 X44.246 Y87.59 E29.39479
G1 X44.347 Y86.675 E29.46827
G1 X44.373 Y86.5 E29.48239
G1 X44.535 Y85.62 E29.55382
G1 X44.565 Y85.486 E29.56478
G1 X44.796 Y84.6 E29.63787
G1 X44.848 Y84.429 E29.65213
G1 X45.134 Y83.587 E29.72312
G1 X45.198 Y83.421 E29.73732
G1 X45.539 Y82.618 E29.80696
G1 X45.62 Y82.443 E29.82235
G1 X46.035 Y81.635 E29.89486
G1 X46.102 Y81.518 E29.90562
G1 X46.576 Y80.739 E29.97841
G1 X46.676 Y80.588 E29.99287
G1 X47.192 Y79.867 E30.06364
G1 X47.3 Y79.726 E30.07782
G1 X47.877 Y79.034 E30.14974
G1 X47.973 Y78.926 E30.16128
G1 X48.455 Y78.414 E30.21741
G1 X48.612 Y78.258 E30.23507
G1 X49.308 Y77.612 E30.31088
G1 X49.447 Y77.493 E30.32548
G1 X50.138 Y76.939 E30.39618
G1 X50.277 Y76.835 E30.41004
G1 X50.992 Y76.343 E30.47932
G0 F7200 X51.2 Y76.211
G1 F2700 X51.2 Y143.782 E35.87313
G0 F7200 X52.8 Y144.652
G1 F2700 X52.8 Y75.349 E41.40519
G0 F7200 X54.4 Y74.727
G1 F2700 X54.4 Y145.274 E47.03656
G0 F7200 X56 Y145.698
G1 F2700 X56 Y74.297 E52.7361
G0 F7200 X57.6 Y74.069
G1 F2700 X57.6 Y145.932 E58.47251
G0 F7200 X59.2 Y145.999
G1 F2700 X59.2 Y74.001 E64.2197
G0 F7200 X60.8 Y74.001
G1 F2700 X60.8 Y145.999 E69.96689
G0 F7200 X62.4 Y145.999
G1 F2700 X62.4 Y74.001 E75.71409
G0 F7200 X64 Y74.001
G1 F2700 X64 Y145.999 E81.46128
G0 F7200 X65.6 Y145.999
G1 F2700 X65.6 Y74.001 E87.20847
G0 F7200 X67.2 Y74.001
G1 F2700 X67.2 Y145.999 E92.95566
G0 F7200 X68.8 Y145.999
G1 F2700 X68.8 Y74.001 E98.70285
G0 F7200 X70.4 Y74.001
G1 F2700 X70.4 Y145.999 E104.45004
G0 F7200 X72 Y145.999
G1 F2700 X72 Y74.001 E110.19724
G0 F7200 X73.6 Y74.001
G1 F2700 X73.6 Y145.999 E115.94443
G0 F7200 X75.2 Y145.999
G1 F2700 X75.2 Y74.001 E121.69162
G0 F7200 X76.8 Y74.001
G1 F2700 X76.8 Y145.999 E127.43881
G0 F7200 X78.4 Y145.999
G1 F2700 X78.4 Y74.001 E133.186
G0 F7200 X80 Y74.001
G1 F2700 X80 Y145.999 E138.93319
G0 F7200 X81.6 Y145.999
G1 F2700 X81.6 Y74.001 E144.68039
G0 F7200 X83.2 Y74.001
G1 F2700 X83.2 Y145.999 E150.42758
G0 F7200 X84.8 Y145.999
G1 F2700 X84.8 Y74.001 E156.17477
G0 F7200 X86.4 Y74.001
G1 F2700 X86.4 Y145.999 E161.92196
G0 F7200 X88 Y145.999
G1 F2700 X88 Y74.001 E167.66915
G0 F7200 X89.6 Y74.001
G1 F2700 X89.6 Y145.999 E173.41635
G0 F7200 X91.2 Y145.999
G1 F2700 X91.2 Y74.001 E179.16354
G0 F7200 X92.8 Y74.001
G1 F2700 X92.8 Y145.999 E184.91073
G0 F7200 X94.4 Y145.999
G1 F2700 X94.4 Y74.001 E190.65792
G0 F7200 X96 Y74.001
G1 F2700 X96 Y145.999 E196.40511
G0 F7200 X97.6 Y145.999
G1 F2700 X97.6 Y74.001 E202.1523
G0 F7200 X99.2 Y74.001
G1 F2700 X99.2 Y145.999 E207.8995
G0 F7200 X100.8 Y145.999
G1 F2700 X100.8 Y74.001 E213.64669
G0 F7200 X102.4 Y74.001
G1 F2700 X102.4 Y145.999 E219.39388
G0 F7200 X104 Y145.999
G1 F2700 X104 Y74.001 E225.14107
G0 F7200 X105.6 Y74.001
G1 F2700 X105.6 Y145.999 E230.88826
G0 F7200 X107.2 Y145.999
G1 F2700 X107.2 Y74.001 E236.63545
G0 F7200 X108.8 Y74.001
G1 F2700 X108.8 Y145.999 E242.38265
G0 F7200 X110.4 Y145.999
G1 F2700 X110.4 Y74.001 E248.12984
G0 F7200 X112 Y74.001
G1 F2700 X112 Y145.999 E253.87703
G0 F7200 X113.6 Y145.999
G1 F2700 X113.6 Y74.001 E259.62422
G0 F7200 X115.2 Y74.001
G1 F2700 X115.2 Y145.999 E265.37141
G0 F7200 X116.8 Y145.999
G1 F2700 X116.8 Y74.001 E271.1186
G0 F7200 X118.4 Y74.001
G1 F2700 X118.4 Y145.999 E276.8658
G0 F7200 X120 Y145.999
G1 F2700 X120 Y74.001 E282.61299
G0 F7200 X121.6 Y74.001
G1 F2700 X121.6 Y145.999 E288.36018
G0 F7200 X123.2 Y145.999
G1 F2700 X123.2 Y74.001 E294.10737
G0 F7200 X124.8 Y74.001
G1 F2700 X124.8 Y145.999 E299.85456
G0 F7200 X126.4 Y145.999
G1 F2700 X126.4 Y74.001 E305.60175
G0 F7200 X128 Y74.001
G1 F2700 X128 Y145.999 E311.34895
G0 F7200 X129.6 Y145.999
G1 F2700 X129.6 Y74.001 E317.09614
G0 F7200 X131.2 Y74.001
G1 F2700 X131.2 Y145.999 E322.84333
G0 F7200 X132.8 Y145.999
G1 F2700 X132.8 Y74.001 E328.59052
G0 F7200 X134.4 Y74.001
G1 F2700 X134.4 Y145.999 E334.33771
G0 F7200 X136 Y145.999
G1 F2700 X136 Y74.001 E340.0849
G0 F7200 X137.6 Y74.001
G1 F2700 X137.6 Y145.999 E345.8321
G0 F7200 X139.2 Y145.999
G1 F2700 X139.2 Y74.001 E351.57929
G0 F7200 X140.8 Y74.001
G1 F2700 X140.8 Y145.999 E357.32648
G0 F7200 X142.4 Y145.999
G1 F2700 X142.4 Y74.001 E363.07367
G0 F7200 X144 Y74.001
G1 F2700 X144 Y145.999 E368.82086
G0 F7200 X145.6 Y145.999
G1 F2700 X145.6 Y74.001 E374.56805
G0 F7200 X147.2 Y74.001
G1 F2700 X147.2 Y145.999 E380.31525
G0 F7200 X148.8 Y145.999
G1 F2700 X148.8 Y74.001 E386.06244
G0 F7200 X150.4 Y74.001
G1 F2700 X150.4 Y145.999 E391.80963
G0 F7200 X152 Y145.999
G1 F2700 X152 Y74.001 E397.55682
G0 F7200 X153.6 Y74.001
G1 F2700 X153.6 Y145.999 E403.30401
G0 F7200 X155.2 Y145.999
G1 F2700 X155.2 Y74.001 E409.0512
G0 F7200 X156.8 Y74.001
G1 F2700 X156.8 Y145.999 E414.7984
G0 F7200 X158.4 Y145.999
G1 F2700 X158.4 Y74.001 E420.54559
G0 F7200 X160 Y74.001
G1 F2700 X160 Y145.999 E426.29278
G0 F7200 X161.6 Y145.986
G1 F2700 X161.6 Y74.02 E432.03742
G0 F7200 X163.2 Y74.159
G1 F2700 X163.2 Y145.838 E437.75914
G0 F7200 X164.8 Y145.511
G1 F2700 X164.8 Y74.493 E443.42811
G0 F7200 X166.4 Y75.007
G1 F2700 X166.4 Y144.988 E449.01429
G0 F7200 X168 Y144.254
G1 F2700 X168 Y75.751 E454.4825
G0 F7200 X169.6 Y76.754
G1 F2700 X169.6 Y143.25 E459.7905
G0 F7200 X171.2 Y141.917
G1 F2700 X171.2 Y78.08 E464.88624
G0 F7200 X172.8 Y79.862
G1 F2700 X172.8 Y140.144 E469.69821
G0 F7200 X174.4 Y137.514
G1 F2700 X174.4 Y82.496 E474.08999
G0 F7200 X49.6 Y77.37
G1 F2700 X49.6 Y142.628 E479.29916
G0 F7200 X48 Y141.094
G1 F2700 X48 Y78.897 E484.264
G0 F7200 X46.4 Y81.028
G1 F2700 X46.4 Y138.979 E488.8899
G0 F7200 X44.8 Y135.404
G1 F2700 X44.8 Y84.586 E492.94641
G0 F600 X44.8 Y84.586 Z0.54
G0 F7200 X45.619 Y137.543
;TIME_ELAPSED:145.016198
;LAYER:-5
;TYPE:SUPPORT
G1 F2700 X52.665 Y144.589 E493.94068
G1 X52.628 Y144.572 E493.94474
G1 X51.834 Y144.164 E494.03381
G1 X51.717 Y144.097 E494.04727
G1 X50.938 Y143.623 E494.13825
G1 X50.787 Y143.523 E494.15632
G1 X50.074 Y143.012 E494.24385
G1 X49.925 Y142.899 E494.26251
G1 X49.234 Y142.322 E494.35234
G1 X49.126 Y142.226 E494.36675
G1 X48.614 Y141.744 E494.43692
G1 X48.454 Y141.583 E494.45957
G1 X47.81 Y140.889 E494.55404
G1 X47.692 Y140.752 E494.57208
G1 X47.142 Y140.066 E494.65981
G1 X47.027 Y139.91 E494.67915
G1 X46.542 Y139.207 E494.76437
G1 X46.425 Y139.022 E494.78621
G1 X45.983 Y138.267 E494.8735
G1 X45.906 Y138.125 E494.88962
G0 F7200 X52.665 Y144.589
G1 F2700 X52.818 Y144.659 E494.90641
G1 X53.62 Y145.001 E494.99341
G1 X53.787 Y145.065 E495.01125
G1 X54.628 Y145.35 E495.09985
G1 X54.791 Y145.4 E495.11687
G1 X54.925 Y145.434 E495.13066
G1 X44.757 Y135.267 E496.5654
G1 X44.728 Y135.159 E496.57656
G1 X44.512 Y134.272 E496.66765
G1 X44.482 Y134.129 E496.68223
G1 X44.373 Y133.468 E496.74908
G1 X56.735 Y145.83 E498.49349
G1 X56.873 Y145.851 E498.50742
G1 X57.789 Y145.953 E498.59938
G1 X57.913 Y145.962 E498.61179
G1 X58.294 Y145.975 E498.64983
G1 X44.217 Y131.898 E500.63624
G1 X44.2 Y131.282 E500.69773
G1 X44.199 Y130.466 E500.77915
G1 X59.731 Y145.998 E502.97088
G1 X61.145 Y145.998 E503.11197
G1 X44.199 Y129.052 E505.50324
G1 X44.199 Y127.638 E505.64433
G1 X62.559 Y145.998 E508.23512
G1 X63.974 Y145.998 E508.37631
G1 X44.199 Y126.224 E511.16671
G1 X44.199 Y124.81 E511.3078
G1 X65.388 Y145.998 E514.29772
G1 X66.802 Y145.998 E514.43881
G1 X44.199 Y123.395 E517.62834
G1 X44.199 Y121.981 E517.76943
G1 X68.216 Y145.998 E521.15849
G1 X69.63 Y145.998 E521.29958
G1 X44.199 Y120.567 E524.88816
G1 X44.199 Y119.153 E525.02925
G1 X71.045 Y145.998 E528.81744
G1 X72.459 Y145.998 E528.95853
G1 X44.199 Y117.738 E532.94633
G1 X44.199 Y116.324 E533.08741
G1 X73.873 Y145.998 E537.27474
G1 X75.287 Y145.998 E537.41583
G1 X44.199 Y114.91 E541.80268
G1 X44.199 Y113.496 E541.94377
G1 X76.701 Y145.998 E546.53015
G1 X78.116 Y145.998 E546.67134
G1 X44.199 Y112.082 E551.45733
G1 X44.199 Y110.667 E551.59851
G1 X79.53 Y145.998 E556.5841
G1 X80.944 Y145.998 E556.72519
G1 X44.199 Y109.253 E561.91031
G1 X44.199 Y107.839 E562.0514
G1 X82.358 Y145.998 E567.43604
G1 X83.773 Y145.998 E567.57723
G1 X44.199 Y106.425 E573.16148
G1 X44.199 Y105.011 E573.30257
G1 X85.187 Y145.998 E579.08635
G1 X86.601 Y145.998 E579.22744
G1 X44.199 Y103.596 E585.21082
G1 X44.199 Y102.182 E585.35191
G1 X88.015 Y145.998 E591.53482
G1 X89.429 Y145.998 E591.67591
G1 X44.199 Y100.768 E598.05835
G1 X44.199 Y99.354 E598.19944
G1 X90.844 Y145.998 E604.78148
G1 X92.258 Y145.998 E604.92257
G1 X44.199 Y97.939 E611.70422
G1 X44.199 Y96.525 E611.84531
G1 X93.672 Y145.998 E618.82648
G1 X95.086 Y145.998 E618.96757
G1 X44.199 Y95.111 E626.14827
G1 X44.199 Y93.697 E626.28936
G1 X96.5 Y145.998 E633.6696
G1 X97.915 Y145.998 E633.81079
G1 X44.199 Y92.283 E641.39063
G1 X44.199 Y90.868 E641.53182
G1 X99.329 Y145.998 E649.31125
G1 X100.743 Y145.998 E649.45234
G1 X44.199 Y89.454 E657.43131
G1 X44.199 Y88.73 E657.50355
G1 X44.223 Y88.063 E657.57015
G1 X102.157 Y145.998 E665.74533
G1 X103.572 Y145.998 E665.88652
G1 X44.337 Y86.763 E674.24522
G1 X44.346 Y86.674 E674.25415
G1 X44.373 Y86.499 E674.27182
G1 X44.534 Y85.619 E674.36108
G1 X44.547 Y85.559 E674.36721
G1 X104.986 Y145.998 E682.8958
G1 X106.4 Y145.998 E683.03689
G1 X44.843 Y84.441 E691.72325
G1 X44.848 Y84.427 E691.72473
G1 X45.133 Y83.586 E691.81334
G1 X45.198 Y83.42 E691.83112
G1 X45.209 Y83.393 E691.83403
G1 X107.814 Y145.998 E700.66827
G1 X109.228 Y145.998 E700.80936
G1 X45.638 Y82.407 E709.78267
G1 X46.034 Y81.634 E709.86933
G1 X46.101 Y81.516 E709.88287
G1 X46.123 Y81.479 E709.88717
G1 X110.643 Y145.999 E718.99164
G1 X112.058 Y145.999 E719.13283
G1 X46.664 Y80.605 E728.36063
G1 X46.676 Y80.587 E728.36278
G1 X47.192 Y79.866 E728.45125
G1 X47.255 Y79.782 E728.46173
G1 X113.472 Y145.999 E737.80566
G1 X114.886 Y145.999 E737.94675
G1 X47.897 Y79.009 E747.39969
G1 X47.972 Y78.925 E747.41093
G1 X48.454 Y78.413 E747.48109
G1 X48.585 Y78.283 E747.49951
G1 X116.3 Y145.999 E757.0549
G1 X117.714 Y145.999 E757.19599
G1 X49.318 Y77.602 E766.84747
G1 X49.447 Y77.492 E766.86439
G1 X50.099 Y76.969 E766.94779
G1 X119.129 Y145.999 E776.68867
G1 X120.543 Y145.999 E776.82976
G1 X50.93 Y76.385 E786.65297
G1 X50.992 Y76.342 E786.6605
G1 X51.175 Y76.225 E786.68218
G1 X51.811 Y75.853 E786.75569
G1 X121.957 Y145.999 E796.65405
G1 X123.371 Y145.999 E796.79514
G1 X52.747 Y75.374 E806.76102
G1 X52.906 Y75.296 E806.77869
G1 X53.018 Y75.246 E806.79093
G1 X53.741 Y74.954 E806.86873
G1 X124.785 Y145.999 E816.89388
G1 X126.2 Y145.999 E817.03507
G1 X54.8 Y74.599 E827.11038
G1 X54.879 Y74.572 E827.11871
G1 X55.044 Y74.526 E827.1358
G1 X55.915 Y74.314 E827.22525
G1 X55.927 Y74.312 E827.22646
G1 X127.614 Y145.999 E837.34227
G1 X129.028 Y145.999 E837.48336
G1 X57.141 Y74.111 E847.62747
G1 X57.148 Y74.11 E847.62817
G1 X58.042 Y74.027 E847.71776
