;FLAVOR:Marlin
;TIME:1448
;Filament used: 2.34269m
;Layer height: 0.2
;MINX:49.7
;MINY:94.086
;MINZ:0.2
;MAXX:160.417
;MAXY:117.912
;MAXZ:11.8
;LINEARADVANCEPROCESSED
;Generated with Cura_SteamEngine 4.8.0
M140 S60
M105
M190 S60
M104 S210
M105
M109 S210
M82 ;absolute extrusion mode
G92 E0 ; Reset Extruder
G28 ; Home all axes
G29; Probe Bed
M500; Save to eprom
G1 Z2.0 F3000 ; Move Z Axis up little to prevent scratching of Heat Bed
G1 X0.1 Y20 Z0.3 F5000.0 ; Move to start position
G1 X0.1 Y200.0 Z0.3 F1500.0 E15 ; Draw the first line
G1 X0.4 Y200.0 Z0.3 F5000.0 ; Move to side a little
G1 X0.4 Y20 Z0.3 F1500.0 E30 ; Draw the second line
G92 E0 ; Reset Extruder
G1 Z2.0 F3000 ; Move Z Axis up little to prevent scratching of Heat Bed
G1 X5 Y20 Z0.3 F5000.0 ; Move over to prevent blob squish
G92 E0
G92 E0
G1 F2400 E-1.2
;LAYER_COUNT:59
M900 K0.000000 T0 ;added by LinearAdvanceSettingPlugin
;LAYER:0
M107
G1 F600 Z0.4
;MESH:Nut_Trap_Burly.STL
G0 F3600 X112.515 Y97.017 Z0.4
;TYPE:WALL-INNER
G1 F600 Z0.2
G1 F2400 E0
G1 F3600 X111.366 Y96.53 E0.04151
G1 X111.369 Y96.53 E0.04161
G1 X112.515 Y97.017 E0.04171
G0 X119.338 Y99.903
G1 X116.341 Y98.635 E0.14995
G1 X119.333 Y99.9 E0.14998
G1 X119.338 Y99.903 E0.15018
G0 X120.399 Y100.882
G1 X120.351 Y100.803 E0.15325
G1 X120.275 Y100.678 E0.15812
G1 X120.361 Y100.796 E0.15819
G1 X120.399 Y100.882 E0.15827
G0 X120.583 Y101.394
G1 X120.54 Y101.217 E0.16433
G1 X120.528 Y101.172 E0.16588
G1 X120.547 Y101.215
G1 X120.583 Y101.394 E0.16593
G0 X120.617 Y102.167
G1 X120.62 Y102.113 E0.16773
G1 X120.633 Y101.912 E0.17443
G1 X120.63 Y102.113 E0.17451
G1 X120.617 Y102.167 E0.17455
G0 X120.526 Y102.554
G1 X120.451 Y102.71 E0.18031
G1 X120.512 Y102.549 E0.18041
G1 X120.553 Y102.442 E0.18421
G1 X120.526 Y102.554 E0.18429
G0 X119.818 Y103.506
G1 X119.697 Y103.605 E0.18949
G1 X119.58 Y103.668 E0.19391
G1 X119.689 Y103.594 E0.19395
G1 X119.818 Y103.506 E0.19404
G0 X109.712 Y108.044
G0 X109.321 Y108.904
G0 X109.618 Y109.321
G0 X146.595 Y109.511
G0 X146.645 Y109.561
G1 X146.72 Y109.561 E0.19653
G1 X146.72 Y109.526 E0.19663
G1 X147.532 Y109.526 E0.22364
G1 X147.532 Y109.561 E0.2248
G1 X147.607 Y109.561 E0.22683
G1 X147.607 Y109.601 E0.22711
G1 X157.056 Y109.601 E0.54138
G1 X157.242 Y109.601 E0.54757
G1 X157.267 Y109.609 E0.54844
G1 X157.267 Y109.795 E0.55463
G1 X157.266 Y115.189 E0.73403
G1 X131.137 Y115.19 E1.60309
G1 X130.633 Y115.166 E1.61987
G1 X129.697 Y115.032 E1.65132
G1 X129.205 Y114.932 E1.66802
G1 X127.979 Y114.634 E1.70998
G1 X127.073 Y114.423 E1.74092
G1 X126.215 Y114.233 E1.77015
G1 X125.657 Y114.117 E1.78911
G1 X125.113 Y114.012 E1.80753
G1 X124.098 Y113.81 E1.84196
G1 X123.12 Y113.633 E1.87501
G1 X121.983 Y113.443 E1.91335
G1 X121.076 Y113.307 E1.94386
G1 X119.548 Y113.1 E1.99514
G1 X118.906 Y113.023 E2.01665
G1 X116.028 Y112.727 E2.11288
G1 X112.766 Y112.526 E2.22158
G1 X109.5 Y112.459 E2.33023
G1 X106.234 Y112.526 E2.43888
G1 X102.972 Y112.727 E2.54758
G1 X99.725 Y113.061 E2.65614
G1 X98.192 Y113.268 E2.70759
G1 X97.256 Y113.407 E2.73907
G1 X96.068 Y113.601 E2.7791
G1 X95.617 Y113.678 E2.79432
G1 X94.177 Y113.949 E2.84306
G1 X93.083 Y114.171 E2.88018
G1 X92.082 Y114.389 E2.91426
G1 X91.04 Y114.63 E2.94983
G1 X90.228 Y114.828 E2.97763
G1 X89.668 Y114.959 E2.99676
G1 X89.177 Y115.057 E3.01341
G1 X88.626 Y115.138 E3.03193
G1 X87.874 Y115.189 E3.057
G1 X69.71 Y115.185 E3.66114
G1 X50.18 Y115.187 E4.31071
G1 X50.105 Y115.187 E4.3132
G1 X50.1 Y114.939 E4.32145
G1 X50.1 Y114.864 E4.32395
G1 X50.1 Y109.6 E4.49903
G1 X71.645 Y109.6 E5.21562
G1 X71.645 Y109.56 E5.21695
G1 X71.72 Y109.56 E5.21891
G1 X71.72 Y109.525 E5.21901
G1 X72.532 Y109.525 E5.24602
G1 X72.532 Y109.56 E5.24718
G1 X72.607 Y109.56 E5.24921
G1 X72.607 Y109.6 E5.24949
G1 X94.306 Y109.6 E5.9712
G1 X94.35 Y109.9 E5.98129
G1 X99.468 Y109.9 E6.15151
G1 X99.52 Y109.6 E6.16164
G1 X105.555 Y109.599 E6.36236
G1 X105.754 Y109.543 E6.36924
G1 X108.979 Y108.179 E6.4857
G1 X109.12 Y108.119 E6.4908
G1 X109.583 Y107.923 E6.50752
G1 X119.328 Y103.799 E6.85947
G1 X119.356 Y103.787 E6.86048
G1 X119.33 Y103.801
G1 X109.584 Y107.924 E6.86184
G1 X109.203 Y108.313 E6.86741
G1 X109.192 Y108.466 E6.87149
G1 X109.154 Y108.951 E6.88767
G1 X109.517 Y109.46 E6.90846
G1 X109.969 Y109.6 E6.9242
G1 X146.645 Y109.601 E8.14405
G1 X146.645 Y109.561 E8.14485
G0 X146.245 Y109.201
;TYPE:WALL-OUTER
G1 X146.245 Y109.161 E8.14618
G1 X146.32 Y109.161 E8.14814
G1 X146.32 Y109.126 E8.14824
G1 X147.932 Y109.126 E8.20185
G1 X147.932 Y109.161 E8.20302
G1 X148.007 Y109.161 E8.20504
G1 X148.007 Y109.201 E8.20532
G1 X157.3 Y109.201 E8.51441
G1 X157.512 Y109.266 E8.52178
G1 X157.629 Y109.385 E8.52733
G1 X157.667 Y109.519 E8.53197
G1 X157.666 Y115.333 E8.72534
G1 X157.63 Y115.482 E8.73044
G1 X157.558 Y115.554 E8.73383
G1 X157.417 Y115.589 E8.73866
G1 X131.118 Y115.59 E9.61337
G1 X130.612 Y115.566 E9.63022
G1 X130.11 Y115.508 E9.64702
G1 X129.617 Y115.424 E9.66366
G1 X129.125 Y115.324 E9.68035
G1 X128.682 Y115.218 E9.69551
G1 X127.886 Y115.023 E9.72276
G1 X126.984 Y114.813 E9.75357
G1 X126.131 Y114.624 E9.78262
G1 X125.578 Y114.509 E9.80141
G1 X125.037 Y114.404 E9.81974
G1 X124.023 Y114.203 E9.85412
G1 X123.051 Y114.027 E9.88698
G1 X121.92 Y113.838 E9.92512
G1 X121.02 Y113.703 E9.95539
G1 X119.497 Y113.497 E10.0065
G1 X118.862 Y113.421 E10.02777
G1 X115.995 Y113.126 E10.12363
G1 X112.75 Y112.926 E10.23177
G1 X109.5 Y112.859 E10.33989
G1 X106.25 Y112.926 E10.448
G1 X103.005 Y113.126 E10.55614
G1 X99.772 Y113.458 E10.66423
G1 X98.248 Y113.664 E10.71538
G1 X97.318 Y113.802 E10.74665
G1 X96.134 Y113.995 E10.78655
G1 X95.688 Y114.072 E10.80161
G1 X94.254 Y114.342 E10.85014
G1 X93.165 Y114.562 E10.88709
G1 X92.17 Y114.779 E10.92096
G1 X91.132 Y115.019 E10.9564
G1 X90.323 Y115.216 E10.98409
G1 X89.746 Y115.351 E11.0038
G1 X89.235 Y115.453 E11.02113
G1 X88.673 Y115.536 E11.04003
G1 X87.886 Y115.589 E11.06626
G1 X69.71 Y115.585 E11.6708
G1 X49.836 Y115.587 E12.33181
G1 X49.765 Y115.561 E12.33433
G1 X49.71 Y115.472 E12.3378
G1 X49.7 Y114.939 E12.35554
G1 X49.7 Y109.321 E12.54239
G1 X49.737 Y109.24 E12.54535
G1 X49.82 Y109.2 E12.54842
G1 X71.245 Y109.2 E13.26102
G1 X71.245 Y109.16 E13.26235
G1 X71.32 Y109.16 E13.26431
G1 X71.32 Y109.125 E13.26441
G1 X72.932 Y109.125 E13.31802
G1 X72.932 Y109.16 E13.31919
G1 X73.007 Y109.16 E13.32121
G1 X73.007 Y109.2 E13.32149
G1 X94.652 Y109.2 E14.04141
G1 X94.696 Y109.5 E14.05149
G1 X99.131 Y109.5 E14.199
G1 X99.183 Y109.2 E14.20913
G1 X105.5 Y109.199 E14.41923
G1 X105.622 Y109.165 E14.42344
G1 X119.29 Y103.381 E14.91707
G1 X119.713 Y103.094 E14.93408
G1 X120.031 Y102.69 E14.95118
G1 X120.214 Y102.209 E14.96829
G1 X120.246 Y101.695 E14.98542
G1 X120.122 Y101.195 E15.00256
G1 X119.854 Y100.756 E15.01966
G1 X119.472 Y100.42 E15.03658
G1 X119.221 Y100.288 E15.04602
G1 X110.329 Y96.525 E15.36716
G1 X109.926 Y96.355 E15.3817
G1 X109.76 Y96.195 E15.38937
G1 X109.729 Y96.165 E15.39081
G1 X109.817 Y96.134 E15.39088
G1 X109.925 Y96.134 E15.39121
G1 X110.363 Y96.133 E15.40259
G1 X111.449 Y96.13 E15.43871
G1 X113.382 Y96.95 E15.50855
G1 X119.512 Y99.542 E15.72991
G1 X119.986 Y99.805 E15.74794
G1 X120.392 Y100.161 E15.7659
G1 X120.71 Y100.595 E15.78379
G1 X120.93 Y101.092 E15.80187
G1 X121.038 Y101.621 E15.81983
G1 X121.029 Y102.16 E15.83776
G1 X120.905 Y102.69 E15.85586
G1 X120.671 Y103.173 E15.87371
G1 X120.336 Y103.598 E15.89171
G1 X119.916 Y103.942 E15.90977
G1 X119.51 Y104.159 E15.92508
G1 X109.814 Y108.261 E16.27524
G1 X109.591 Y108.489 E16.28585
G1 X109.564 Y108.837 E16.29746
G1 X109.764 Y109.118 E16.30893
G1 X110.029 Y109.2 E16.31816
G1 X146.245 Y109.201 E17.5227
G0 X146.245 Y109.161
G0 X146.32 Y109.161
G0 X146.32 Y109.126
G0 X146.37 Y109.126
G0 X146.515 Y109.431
G0 X146.565 Y109.951
G0 X147.035 Y109.951
;TYPE:SKIN
G1 X147.11 Y109.951 E17.5252
G1 X147.142 Y109.916 E17.52678
G1 X147.142 Y109.951 E17.52794
G1 X147.217 Y109.951 E17.53043
G1 X147.217 Y109.991 E17.53177
G1 X156.877 Y109.991 E17.85306
G1 X156.876 Y114.799 E18.01297
G1 X131.156 Y114.8 E18.86842
G1 X130.664 Y114.776 E18.88481
G1 X129.763 Y114.648 E18.91508
G1 X129.29 Y114.551 E18.93113
G1 X128.069 Y114.254 E18.97293
G1 X127.159 Y114.043 E19.004
G1 X126.297 Y113.851 E19.03337
G1 X125.733 Y113.735 E19.05252
G1 X125.188 Y113.63 E19.07098
G1 X124.17 Y113.427 E19.10551
G1 X123.187 Y113.249 E19.13874
G1 X122.044 Y113.057 E19.17728
G1 X121.131 Y112.921 E19.20799
G1 X119.597 Y112.714 E19.25947
G1 X118.949 Y112.635 E19.28118
G1 X116.06 Y112.339 E19.37777
G1 X112.782 Y112.136 E19.48701
G1 X109.5 Y112.069 E19.59619
G1 X106.218 Y112.136 E19.70537
G1 X102.94 Y112.339 E19.81461
G1 X99.679 Y112.673 E19.92364
G1 X98.137 Y112.882 E19.97539
G1 X97.196 Y113.021 E20.00703
G1 X96.004 Y113.217 E20.04721
G1 X95.548 Y113.294 E20.06259
G1 X94.103 Y113.567 E20.1115
G1 X93.003 Y113.789 E20.14883
G1 X91.996 Y114.009 E20.18311
G1 X90.95 Y114.25 E20.21881
G1 X90.223 Y114.428 E20.24371
G1 X89.579 Y114.579 E20.26571
G1 X89.12 Y114.671 E20.28128
G1 X88.593 Y114.748 E20.29899
G1 X87.847 Y114.799 E20.32386
G1 X69.71 Y114.795 E20.9271
G1 X50.49 Y114.797 E21.56636
G1 X50.49 Y109.99 E21.72624
G1 X72.035 Y109.99 E22.44283
G1 X72.035 Y109.95 E22.44416
G1 X72.11 Y109.95 E22.44665
G1 X72.142 Y109.915 E22.44823
G1 X72.142 Y109.95 E22.4494
G1 X72.217 Y109.95 E22.45189
G1 X72.217 Y109.99 E22.45322
G1 X93.969 Y109.99 E23.1767
G1 X94.013 Y110.29 E23.18678
G1 X99.796 Y110.29 E23.37912
G1 X99.848 Y109.99 E23.38925
G1 X105.609 Y109.989 E23.58086
G1 X105.883 Y109.912 E23.59033
G1 X108.784 Y108.685 E23.69509
G1 X108.754 Y109.062 E23.70767
G1 X109.276 Y109.794 E23.73757
G1 X109.91 Y109.99 E23.75964
G1 X147.035 Y109.991 E24.99443
G1 X147.035 Y109.951 E24.99576
G0 X146.565 Y109.951
G0 X146.637 Y114.953
G0 X147.615 Y114.953
G0 X156.696 Y110.31
G1 X156.557 Y110.171 E25.0023
G0 X155.991 Y110.171
G1 X156.696 Y110.875 E25.03543
G0 X156.696 Y111.441
G1 X155.426 Y110.171 E25.09517
G0 X154.86 Y110.171
G1 X156.696 Y112.007 E25.18153
G0 X156.695 Y112.572
G1 X154.294 Y110.171 E25.29447
G0 X153.729 Y110.171
G1 X156.695 Y113.137 E25.43398
G0 X156.695 Y113.703
G1 X153.163 Y110.171 E25.60011
G0 X152.597 Y110.171
G1 X156.695 Y114.269 E25.79287
G0 X156.479 Y114.619
G1 X152.032 Y110.171 E26.00207
G0 X151.466 Y110.171
G1 X155.914 Y114.619 E26.21129
G0 X155.348 Y114.619
G1 X150.9 Y110.171 E26.42051
G0 X150.335 Y110.171
G1 X154.782 Y114.619 E26.6297
G0 X154.217 Y114.619
G1 X149.769 Y110.171 E26.83892
G0 X149.203 Y110.171
G1 X153.651 Y114.619 E27.04814
G0 X153.085 Y114.619
G1 X148.638 Y110.171 E27.25734
G0 X148.072 Y110.171
G1 X152.52 Y114.619 E27.46656
G0 X151.954 Y114.619
G1 X147.506 Y110.171 E27.67578
G0 X146.94 Y110.17
G1 X151.388 Y114.619 E27.88502
G0 X150.823 Y114.619
G1 X146.374 Y110.17 E28.09429
G0 X145.808 Y110.17
G1 X150.257 Y114.619 E28.30356
G0 X149.691 Y114.619
G1 X145.243 Y110.17 E28.5128
G0 X144.677 Y110.17
G1 X149.125 Y114.619 E28.72205
G0 X148.56 Y114.619
G1 X144.111 Y110.17 E28.93131
G0 X143.546 Y110.17
G1 X147.994 Y114.619 E29.14056
G0 X147.428 Y114.619
G1 X142.98 Y110.17 E29.3498
G0 X142.414 Y110.17
G1 X146.863 Y114.619 E29.55907
G0 X146.297 Y114.619
G1 X141.849 Y110.17 E29.76831
G0 X141.283 Y110.17
G1 X145.731 Y114.619 E29.97756
G0 X145.166 Y114.619
G1 X140.717 Y110.17 E30.18682
G0 X140.152 Y110.17
G1 X144.6 Y114.619 E30.39607
G0 X144.034 Y114.619
G1 X139.586 Y110.17 E30.60531
G0 X139.02 Y110.17
G1 X143.469 Y114.619 E30.81458
G0 X142.903 Y114.619
G1 X138.455 Y110.17 E31.02382
G0 X137.889 Y110.17
G1 X142.337 Y114.619 E31.23307
G0 X141.772 Y114.619
G1 X137.323 Y110.17 E31.44233
G0 X136.757 Y110.17
G1 X141.206 Y114.619 E31.6516
G0 X140.64 Y114.619
G1 X136.192 Y110.17 E31.86085
G0 X135.626 Y110.17
G1 X140.075 Y114.619 E32.07011
G0 X139.509 Y114.619
G1 X135.06 Y110.17 E32.27938
G0 X134.494 Y110.17
G1 X138.943 Y114.619 E32.48865
G0 X138.377 Y114.619
G1 X133.928 Y110.17 E32.69791
G0 X133.363 Y110.17
G1 X137.812 Y114.619 E32.90718
G0 X137.246 Y114.619
G1 X132.797 Y110.17 E33.11645
G0 X132.231 Y110.17
G1 X136.68 Y114.619 E33.32572
G0 X136.115 Y114.619
G1 X131.666 Y110.17 E33.53498
G0 X131.1 Y110.17
G1 X135.549 Y114.619 E33.74425
G0 X134.983 Y114.619
G1 X130.534 Y110.17 E33.95352
G0 X129.969 Y110.17
G1 X134.418 Y114.619 E34.16279
G0 X133.852 Y114.619
G1 X129.403 Y110.17 E34.37205
G0 X128.837 Y110.17
G1 X133.286 Y114.619 E34.58132
G0 X132.721 Y114.619
G1 X128.271 Y110.17 E34.79061
G0 X127.706 Y110.17
G1 X132.155 Y114.619 E34.99988
G0 X131.589 Y114.619
G1 X127.14 Y110.17 E35.20915
G0 X126.574 Y110.17
G1 X131.016 Y114.612 E35.41808
G0 X130.394 Y114.555
G1 X126.009 Y110.17 E35.62434
G0 X125.443 Y110.17
G1 X129.731 Y114.457 E35.82601
G0 X129.004 Y114.296
G1 X124.877 Y110.17 E36.02011
G0 X124.312 Y110.17
G1 X128.256 Y114.114 E36.20562
G0 X127.518 Y113.941
G1 X123.746 Y110.17 E36.38302
G0 X123.18 Y110.17
G1 X126.787 Y113.776 E36.55266
G0 X126.064 Y113.619
G1 X122.615 Y110.17 E36.71489
G0 X122.048 Y110.169
G1 X125.36 Y113.48 E36.87065
G0 X124.654 Y113.34
G1 X121.483 Y110.169 E37.01981
G0 X120.917 Y110.169
G1 X123.953 Y113.205 E37.16261
G0 X123.262 Y113.079
G1 X120.351 Y110.169 E37.29951
G0 X119.786 Y110.169
G1 X122.581 Y112.964 E37.43098
G0 X121.905 Y112.854
G1 X119.22 Y110.169 E37.55728
G0 X118.654 Y110.169
G1 X121.241 Y112.755 E37.67894
G0 X120.585 Y112.666
G1 X118.088 Y110.169 E37.79639
G0 X117.523 Y110.169
G1 X119.931 Y112.577 E37.90965
G0 X119.282 Y112.494
G1 X116.957 Y110.169 E38.01901
G0 X116.391 Y110.169
G1 X118.645 Y112.422 E38.12501
G0 X118.015 Y112.358
G1 X115.826 Y110.169 E38.22798
G0 X115.26 Y110.169
G1 X117.385 Y112.294 E38.32793
G0 X116.755 Y112.229
G1 X114.694 Y110.169 E38.42485
G0 X114.129 Y110.169
G1 X116.125 Y112.165 E38.51874
G0 X115.52 Y112.125
G1 X113.563 Y110.169 E38.61076
G0 X112.997 Y110.169
G1 X114.916 Y112.087 E38.701
G0 X114.313 Y112.05
G1 X112.432 Y110.169 E38.78948
G0 X111.866 Y110.169
G1 X113.709 Y112.012 E38.87617
G0 X113.106 Y111.975
G1 X111.3 Y110.169 E38.96112
G0 X110.735 Y110.169
G1 X112.515 Y111.949 E39.04484
G0 X111.937 Y111.937
G1 X110.169 Y110.169 E39.128
G0 X109.478 Y110.044
G1 X111.36 Y111.925 E39.2165
G0 X110.783 Y111.914
G1 X108.056 Y109.187 E39.34477
G0 X108.453 Y109.019
G1 X108.629 Y109.195 E39.35305
G0 X107.659 Y109.356
G1 X110.205 Y111.902 E39.47281
G0 X109.627 Y111.89
G1 X107.261 Y109.524 E39.5841
G0 X106.864 Y109.692
G1 X109.068 Y111.896 E39.68777
G0 X108.514 Y111.908
G1 X106.466 Y109.861 E39.78408
G0 X106.068 Y110.028
G1 X107.959 Y111.919 E39.87302
G0 X107.405 Y111.93
G1 X105.641 Y110.167 E39.95597
G0 X105.077 Y110.168
G1 X106.85 Y111.942 E40.03939
G0 X106.296 Y111.953
G1 X104.511 Y110.168 E40.12335
G0 X103.946 Y110.168
G1 X105.76 Y111.983 E40.2087
G0 X105.228 Y112.016
G1 X103.38 Y110.168 E40.29563
G0 X102.814 Y110.168
G1 X104.694 Y112.048 E40.38406
G0 X104.162 Y112.082
G1 X102.249 Y110.168 E40.47406
G0 X101.683 Y110.168
G1 X103.63 Y112.115 E40.56564
G0 X103.096 Y112.147
G1 X101.117 Y110.168 E40.65873
G0 X100.551 Y110.168
G1 X102.577 Y112.194 E40.75402
G0 X102.064 Y112.246
G1 X99.996 Y110.179 E40.85127
G0 X99.721 Y110.469
G1 X101.551 Y112.299 E40.93735
G0 X101.038 Y112.352
G1 X99.156 Y110.469 E41.0259
G0 X98.59 Y110.469
G1 X100.525 Y112.404 E41.11691
G0 X100.011 Y112.456
G1 X98.024 Y110.469 E41.21038
G0 X97.459 Y110.469
G1 X99.503 Y112.514 E41.30654
G0 X99.004 Y112.581
G1 X96.893 Y110.469 E41.40586
G0 X96.327 Y110.469
G1 X98.507 Y112.649 E41.5084
G0 X98.009 Y112.717
G1 X95.762 Y110.469 E41.61412
G0 X95.196 Y110.469
G1 X97.517 Y112.79 E41.72329
G0 X97.026 Y112.865
G1 X94.63 Y110.469 E41.83599
G0 X94.065 Y110.469
G1 X96.54 Y112.945 E41.95243
G0 X96.054 Y113.025
G1 X93.198 Y110.169 E42.08677
G0 X92.633 Y110.169
G1 X95.57 Y113.106 E42.22492
G0 X95.093 Y113.195
G1 X92.067 Y110.169 E42.36725
G0 X91.501 Y110.169
G1 X94.617 Y113.285 E42.51382
G0 X94.142 Y113.375
G1 X90.936 Y110.169 E42.66462
G0 X90.37 Y110.169
G1 X93.671 Y113.47 E42.81989
G0 X93.2 Y113.564
G1 X89.804 Y110.169 E42.9796
G0 X89.238 Y110.169
G1 X92.732 Y113.663 E43.14395
G0 X92.268 Y113.764
G1 X88.673 Y110.169 E43.31305
G0 X88.107 Y110.169
G1 X91.805 Y113.867 E43.48699
G0 X91.345 Y113.972
G1 X87.541 Y110.169 E43.66589
G0 X86.976 Y110.169
