;FLAVOR:Marlin
;TIME:232
;Filament used: 0.241264m
;Layer height: 0.2
;MINX:102.909
;MINY:102.982
;MINZ:0.2
;MAXX:117.091
;MAXY:117.018
;MAXZ:8
;LINEARADVANCEPROCESSED
;Generated with Cura_SteamEngine 4.8.0
M140 S55
M105
M190 S55
M104 S230
M105
M109 S230
M82 ;absolute extrusion mode
G92 E0 ; Reset Extruder
G28 ; Home all axes
G29; Probe Bed
M500; Save to eprom
G1 Z2.0 F3000 ; Move Z Axis up little to prevent scratching of Heat Bed
G1 X0.1 Y20 Z0.3 F5000.0 ; Move to start position
G1 X0.1 Y200.0 Z0.3 F1500.0 E15 ; Draw the first line
G1 X0.4 Y200.0 Z0.3 F5000.0 ; Move to side a little
G1 X0.4 Y20 Z0.3 F1500.0 E30 ; Draw the second line
G92 E0 ; Reset Extruder
G1 Z2.0 F3000 ; Move Z Axis up little to prevent scratching of Heat Bed
G1 X5 Y20 Z0.3 F5000.0 ; Move over to prevent blob squish
G92 E0
G92 E0
G1 F2400 E-1.2
;LAYER_COUNT:40
M900 K0.000000 T0 ;added by LinearAdvanceSettingPlugin
;LAYER:0
M107
;MESH:78f5e834-f59e-419b-828b-3f8ce3c110df.stl
G0 F3600 X105.256 Y105.068 Z0.2
;TYPE:WALL-INNER
G1 F2400 E0
G1 F3600 X108.52 Y104.262 E0.11182
G1 X108.621 Y104.237 E0.11528
G1 X109.225 Y104.087 E0.13598
G1 X109.398 Y104.044 E0.14191
G1 X111.899 Y103.425 E0.2276
G1 X112.981 Y104.551 E0.27954
G1 X113.034 Y104.606 E0.28208
G1 X113.515 Y105.106 E0.30516
G1 X114.002 Y105.612 E0.32852
G1 X113.416 Y105.202 E0.33288
G1 X112.771 Y104.86 E0.34849
G1 X112.7 Y104.832 E0.35092
G1 X112.242 Y104.652 E0.36729
G1 X111.688 Y104.494 E0.38645
G1 X111.076 Y104.389 E0.4071
G1 X110.491 Y104.35 E0.4266
G1 X109.888 Y104.375 E0.44667
G1 X109.494 Y104.432 E0.45991
G1 X109.317 Y104.457 E0.46572
G1 X108.714 Y104.611 E0.48559
G1 X108.617 Y104.649 E0.489
G1 X108.018 Y104.885 E0.51041
G1 X107.382 Y105.249 E0.53479
G1 X106.844 Y105.644 E0.55698
G1 X106.353 Y106.093 E0.57911
G1 X105.962 Y106.524 E0.59847
G1 X105.535 Y107.141 E0.62343
G1 X105.129 Y107.953 E0.65362
G1 X104.926 Y108.573 E0.67532
G1 X104.799 Y109.157 E0.6952
G1 X104.74 Y109.827 E0.71757
G1 X104.753 Y110.422 E0.73736
G1 X104.85 Y111.092 E0.75988
G1 X105.034 Y111.748 E0.78254
G1 X105.303 Y112.374 E0.8052
G1 X105.692 Y113.021 E0.83031
G1 X106.162 Y113.6 E0.85511
G1 X106.68 Y114.083 E0.87867
G1 X107.303 Y114.519 E0.90396
G1 X107.965 Y114.852 E0.92861
G1 X108.503 Y115.04 E0.94756
G1 X109.181 Y115.199 E0.97073
G1 X109.903 Y115.271 E0.99486
G1 X110.644 Y115.24 E1.01953
G1 X111.319 Y115.121 E1.04232
G1 X111.903 Y114.953 E1.06253
G1 X112.633 Y114.637 E1.08899
G1 X113.293 Y114.238 E1.11464
G1 X113.855 Y113.796 E1.13842
G1 X114.377 Y113.254 E1.16345
G1 X114.757 Y112.76 E1.18418
G1 X115.064 Y112.273 E1.20333
G1 X115.151 Y112.091 E1.21004
G1 X115.384 Y111.597 E1.2282
G1 X115.584 Y110.94 E1.25105
G1 X115.7 Y110.183 E1.27652
G1 X115.717 Y110.079 E1.28002
G1 X115.715 Y109.292 E1.3062
G1 X115.603 Y108.51 E1.33247
G1 X115.389 Y107.748 E1.3588
G1 X115.293 Y107.521 E1.367
G1 X115.086 Y107.031 E1.38469
G1 X114.849 Y106.514 E1.4036
G1 X114.824 Y106.466 E1.4054
G1 X114.86 Y106.503
G1 X115.232 Y106.89 E1.41066
G1 X115.6 Y107.273 E1.42403
G1 X116.643 Y108.358 E1.47409
G1 X116.086 Y110.287 E1.54087
G1 X115.874 Y111.023 E1.56322
G1 X115.683 Y111.683 E1.58077
G1 X115.532 Y112.207 E1.59691
G1 X114.744 Y114.932 E1.69126
G1 X108.101 Y116.575 E1.91886
G1 X103.357 Y111.642 E2.14649
G1 X105.256 Y105.068 E2.37409
G0 X109.901 Y104.536
G0 X111.058 Y104.549
G0 X112.197 Y104.807
G0 X113.328 Y105.336
G0 X113.969 Y105.8
G0 X114.584 Y106.36
G0 X115.508 Y108.551
G0 X115.211 Y108.593
;TYPE:WALL-OUTER
G1 X115.011 Y107.88 E2.39872
G1 X114.72 Y107.192 E2.42356
G1 X114.49 Y106.691 E2.4419
G1 X114.405 Y106.53 E2.44795
G1 X113.776 Y105.942 E2.47659
G1 X113.207 Y105.544 E2.49969
G1 X112.603 Y105.224 E2.52242
G1 X112.114 Y105.031 E2.53991
G1 X111.599 Y104.885 E2.55771
G1 X111.029 Y104.787 E2.57695
G1 X110.486 Y104.751 E2.59505
G1 X109.925 Y104.774 E2.61372
G1 X109.395 Y104.85 E2.63153
G1 X108.837 Y104.992 E2.65068
G1 X108.192 Y105.247 E2.67375
G1 X107.6 Y105.585 E2.69642
G1 X107.098 Y105.954 E2.71714
G1 X106.637 Y106.376 E2.73793
G1 X106.276 Y106.773 E2.75578
G1 X105.88 Y107.345 E2.77892
G1 X105.5 Y108.106 E2.80721
G1 X105.312 Y108.678 E2.82723
G1 X105.195 Y109.217 E2.84558
G1 X105.14 Y109.84 E2.86638
G1 X105.152 Y110.389 E2.88464
G1 X105.242 Y111.009 E2.90548
G1 X105.412 Y111.614 E2.92638
G1 X105.66 Y112.191 E2.94727
G1 X106.02 Y112.791 E2.97054
G1 X106.455 Y113.326 E2.99348
G1 X106.932 Y113.771 E3.01518
G1 X107.509 Y114.175 E3.0386
G1 X108.121 Y114.483 E3.06139
G1 X108.615 Y114.655 E3.07879
G1 X109.247 Y114.804 E3.10039
G1 X109.914 Y114.87 E3.12268
G1 X110.601 Y114.841 E3.14555
G1 X111.229 Y114.731 E3.16675
G1 X111.768 Y114.576 E3.18541
G1 X112.449 Y114.281 E3.21009
G1 X113.065 Y113.908 E3.23404
G1 X113.586 Y113.499 E3.25607
G1 X114.074 Y112.992 E3.27948
G1 X114.429 Y112.531 E3.29883
G1 X114.713 Y112.08 E3.31656
G1 X115.01 Y111.452 E3.33966
G1 X115.193 Y110.851 E3.36056
G1 X115.317 Y110.049 E3.38755
G1 X115.315 Y109.321 E3.41176
G1 X115.211 Y108.593 E3.43622
G0 X115.157 Y108.401
G0 X115.581 Y108.283
G0 X116.77 Y108.326
G0 X117.091 Y108.247
G1 X115.064 Y115.265 E3.67918
G1 X107.973 Y117.018 E3.92213
G1 X102.909 Y111.753 E4.1651
G1 X104.936 Y104.735 E4.40806
G1 X112.027 Y102.982 E4.65101
G1 X117.091 Y108.247 E4.89398
G0 X117.036 Y108.439
G0 X116.579 Y108.349
G0 X116.206 Y108.466
;TYPE:SKIN
G1 X116.062 Y108.963 E4.91119
G1 X115.985 Y108.43 E4.9291
G1 X115.909 Y108.158 E4.93849
G1 X116.206 Y108.466 E4.95272
G0 X114.794 Y113.352
G1 X114.431 Y114.608 E4.99621
G1 X112.679 Y115.042 E5.05624
G1 X112.812 Y114.984 E5.06107
G1 X113.515 Y114.56 E5.08837
G1 X114.117 Y114.086 E5.11386
G1 X114.673 Y113.509 E5.14051
G1 X114.794 Y113.352 E5.1471
G0 X110.231 Y115.647
G1 X108.226 Y116.142 E5.21579
G1 X106.754 Y114.611 E5.28643
G1 X107.102 Y114.855 E5.30056
G1 X107.813 Y115.212 E5.32702
G1 X108.394 Y115.415 E5.34749
G1 X109.117 Y115.585 E5.3722
G1 X109.892 Y115.661 E5.3981
G1 X110.231 Y115.647 E5.40938
G0 X107.672 Y114.509
G0 X105.259 Y113.056
G1 X103.794 Y111.534 E5.47964
G1 X104.376 Y109.521 E5.54934
G1 X104.35 Y109.814 E5.55912
G1 X104.363 Y110.455 E5.58045
G1 X104.468 Y111.173 E5.60458
G1 X104.665 Y111.879 E5.62896
G1 X104.956 Y112.552 E5.65335
G1 X105.259 Y113.056 E5.67291
G0 X104.913 Y110.409
G0 X104.957 Y109.186
G0 X105.277 Y108.018
G0 X105.501 Y107.569
G0 X107.016 Y105.034
G1 X106.596 Y105.342 E5.69023
G1 X106.076 Y105.818 E5.71368
G1 X105.656 Y106.281 E5.73447
G1 X105.198 Y106.942 E5.76122
G1 X105.015 Y107.31 E5.77488
G1 X105.569 Y105.392 E5.84129
G1 X107.016 Y105.034 E5.89086
G0 X106.108 Y105.542
G1 X106.029 Y105.463 E5.89458
G0 X105.673 Y105.673
G1 X105.826 Y105.826 E5.90178
G0 X104.151 Y110.94
G1 X104.269 Y111.057 E5.9073
G0 X104.026 Y111.379
G1 X104.46 Y111.814 E5.92774
G0 X108.173 Y115.527
G1 X108.526 Y115.88 E5.94435
G0 X113.912 Y114.477
G1 X113.97 Y114.535 E5.94707
G0 X114.228 Y114.228
G1 X114.325 Y114.325 E5.95164
G0 X112.461 Y115.007
;TYPE:SKIN
G1 X112.391 Y114.937 E5.95328
G0 X112.194 Y115.022
G1 X112.478 Y115.306 E5.95996
G0 X112.251 Y115.362
G1 X111.997 Y115.109 E5.96592
G0 X111.781 Y115.175
G1 X112.024 Y115.418 E5.97164
G0 X111.797 Y115.474
G1 X111.561 Y115.238 E5.97719
G0 X111.339 Y115.299
G1 X111.57 Y115.53 E5.98262
G0 X111.344 Y115.587
G1 X111.099 Y115.341 E5.9884
G0 X110.858 Y115.384
G1 X111.117 Y115.643 E5.99449
G0 X110.89 Y115.698
G1 X110.612 Y115.42 E6.00102
G0 X110.406 Y115.497
G1 X110.664 Y115.755 E6.00709
G0 X106.717 Y114.354
G1 X106.633 Y114.27 E6.00907
G0 X106.587 Y114.506
G1 X105.328 Y113.248 E6.03867
G0 X105.489 Y113.126
G1 X105.793 Y113.429 E6.0458
G0 X105.157 Y111.512
G0 X104.545 Y109.354
G1 X104.281 Y109.089 E6.05202
G0 X104.344 Y108.87
G1 X104.619 Y109.145 E6.05849
G0 X104.668 Y108.911
G1 X104.407 Y108.65 E6.06463
G0 X104.471 Y108.431
G1 X104.719 Y108.679 E6.07046
G0 X104.776 Y108.453
G1 X104.534 Y108.211 E6.07615
G0 X104.597 Y107.991
G1 X104.846 Y108.24 E6.08201
G0 X104.916 Y108.027
G1 X104.66 Y107.772 E6.08802
G0 X104.723 Y107.552
G1 X104.994 Y107.822 E6.09438
G0 X105.088 Y107.633
G1 X104.945 Y107.491 E6.09773
G0 X106.947 Y105.768
G0 X108.088 Y105.03
G0 X111.164 Y104.008
;TYPE:SKIN
G1 X111.774 Y103.858 E6.11863
G1 X112.112 Y104.209 E6.13483
G1 X111.774 Y104.113 E6.14652
G1 X111.164 Y104.008 E6.16711
;MESH:NONMESH
G0 F600 X111.164 Y104.008 Z0.4
G0 F3600 X105.576 Y105.401
;TIME_ELAPSED:9.387273
;LAYER:1
M106 S255
;TYPE:WALL-INNER
;MESH:78f5e834-f59e-419b-828b-3f8ce3c110df.stl
G1 F3168 X106.341 Y105.212 E6.19332
G1 X106.676 Y105.129 E6.20479
G1 X107.443 Y104.939 E6.23108
G1 X106.736 Y105.37 E6.24029
G1 X106.466 Y105.585 E6.24965
G1 X106.238 Y105.766 E6.25933
G1 X105.735 Y106.278 E6.2832
G1 X105.693 Y106.321 E6.2852
G1 X105.253 Y106.909 E6.30963
G1 X105.022 Y107.32 E6.32531
G1 X105.149 Y106.88 E6.32722
G1 X105.339 Y106.22 E6.34138
G1 X105.355 Y106.162 E6.3433
G1 X105.576 Y105.401 E6.36966
G0 F5400 X104.349 Y109.649
G1 F3168 X104.344 Y110.28 E6.39065
G1 X104.409 Y110.846 E6.4096
G1 X104.432 Y111.041 E6.41613
G1 X104.627 Y111.785 E6.44171
G1 X104.654 Y111.851 E6.44408
G1 X104.889 Y112.432 E6.46492
G1 X105.174 Y112.954 E6.48471
G1 X105.175 Y112.956 E6.48478
G1 X104.776 Y112.541 E6.50393
G1 X104.342 Y112.089 E6.51856
G1 X103.805 Y111.531 E6.54432
G1 X104.022 Y110.78 E6.57032
G1 X104.18 Y110.233 E6.58393
G1 X104.349 Y109.649 E6.58806
G0 F5400 X105.397 Y112.192
G0 X106.937 Y114.788
G1 F3168 X107.346 Y115.052 E6.60425
G1 X108.046 Y115.379 E6.62995
G1 X108.076 Y115.393 E6.63105
G1 X108.727 Y115.604 E6.65381
G1 X108.861 Y115.647 E6.65849
G1 X109.622 Y115.787 E6.68423
G1 X108.938 Y115.956 E6.6932
G1 X108.802 Y115.989 E6.69739
G1 X108.229 Y116.132 E6.71704
G1 X107.801 Y115.687 E6.73757
G1 X107.266 Y115.13 E6.75414
G1 X106.937 Y114.788 E6.75625
G0 F5400 X109.772 Y115.245
G0 X110.902 Y115.249
G0 X113.771 Y114.76
G1 F3168 X113.992 Y114.59 E6.76553
G1 X114.259 Y114.385 E6.77672
G1 X114.323 Y114.336 E6.7794
G1 X114.569 Y114.097 E6.79081
G1 X114.487 Y114.383 E6.79259
G1 X114.424 Y114.599 E6.79789
G1 X114.391 Y114.607 E6.7984
G1 X114.064 Y114.688 E6.80766
G1 X113.77 Y114.761 E6.81774
G1 X113.771 Y114.76 E6.81778
G0 F5400 X115.236 Y112.343
G0 X115.584 Y111.565
G0 X115.94 Y108.203
G1 F3168 X116.195 Y108.469 E6.83004
G1 X116.118 Y108.736 E6.83928
G1 X116.06 Y108.561 E6.83955
G1 X116.046 Y108.519
G1 X115.94 Y108.204 E6.84853
G1 X115.94 Y108.203
G0 F5400 X113.662 Y105.986
G0 X113.081 Y105.586
G0 X110.1 Y104.282
G1 F3168 X110.47 Y104.191 E6.8612
G1 X111.214 Y104.006 E6.8867
G1 X111.771 Y103.868 E6.90579
G1 X112.175 Y104.288 E6.92517
G1 X112.598 Y104.728 E6.94547
G1 X111.951 Y104.504 E6.95545
G1 X111.303 Y104.363 E6.97751
G1 X110.491 Y104.272 E6.99414
G1 X110.1 Y104.282 E6.99572
G0 F5400 X110.474 Y104.673
G1 F3168 X109.64 Y104.693 E7.02347
G1 X108.818 Y104.836 E7.05122
G1 X108.249 Y105.021 E7.07112
G1 X107.649 Y105.282 E7.09288
G1 X106.965 Y105.699 E7.11952
G1 X106.506 Y106.064 E7.13903
G1 X105.997 Y106.582 E7.16318
G1 X105.589 Y107.128 E7.18585
G1 X105.255 Y107.721 E7.20849
G1 X105.003 Y108.351 E7.23106
G1 X104.832 Y109.009 E7.25367
G1 X104.748 Y109.681 E7.27619
G1 X104.744 Y110.258 E7.29539
G1 X104.826 Y110.967 E7.31912
G1 X105.007 Y111.659 E7.34291
G1 X105.251 Y112.26 E7.36449
G1 X105.561 Y112.828 E7.38601
G1 X105.959 Y113.379 E7.40862
G1 X106.467 Y113.921 E7.43333
G1 X106.995 Y114.35 E7.45595
G1 X107.54 Y114.701 E7.47751
G1 X108.223 Y115.02 E7.50259
G1 X108.959 Y115.258 E7.52831
G1 X109.751 Y115.404 E7.5551
G1 X110.373 Y115.442 E7.57583
G1 X111.044 Y115.411 E7.59817
G1 X111.449 Y115.334 E7.61188
G1 X111.659 Y115.295 E7.61898
G1 X111.886 Y115.227 E7.62686
G1 X112.272 Y115.11 E7.64028
G1 X112.87 Y114.853 E7.66193
G1 X113.486 Y114.475 E7.68597
G1 X114.061 Y114.033 E7.71009
G1 X114.618 Y113.492 E7.73591
G1 X114.824 Y113.234 E7.74689
G1 X114.999 Y113.016 E7.75619
G1 X115.377 Y112.421 E7.77964
G1 X115.621 Y111.895 E7.79892
G1 X115.463 Y112.445 E7.80099
G1 X115.275 Y113.095 E7.81205
G1 X115.198 Y113.364 E7.82007
G1 X114.744 Y114.932 E7.87437
G1 X113.867 Y115.148 E7.90441
G1 X113.866 Y115.148 E7.90444
G1 X111.983 Y115.615 E7.96897
G1 X111.753 Y115.671 E7.97672
G1 X111.546 Y115.722 E7.98371
G1 X109.718 Y116.174 E8.04634
G1 X108.326 Y116.519 E8.09404
G1 X108.101 Y116.575 E8.10175
G1 X107.942 Y116.409 E8.1094
G1 X106.65 Y115.065 E8.17141
G1 X104.888 Y113.233 E8.25595
G1 X104.886 Y113.231 E8.25604
G1 X103.357 Y111.642 E8.32938
G1 X105.256 Y105.068 E8.55698
G1 X111.675 Y103.481 E8.7769
G1 X111.899 Y103.425 E8.78458
G1 X112.058 Y103.591 E8.79223
G1 X112.885 Y104.451 E8.83191
G1 X113.825 Y105.428 E8.877
G1 X114.012 Y105.622 E8.88597
G1 X114.421 Y106.047 E8.90558
G1 X114.908 Y106.554 E8.92897
G1 X115.295 Y106.957 E8.94755
G1 X116.227 Y107.926 E8.99227
G1 X116.228 Y107.927 E8.99231
G1 X116.643 Y108.358 E9.01221
G1 X116.272 Y109.643 E9.0567
G1 X116.114 Y110.191 E9.07567
G1 X115.929 Y110.829 E9.09776
G1 X115.948 Y110.144 E9.10309
G1 X115.885 Y109.577 E9.11677
G1 X115.865 Y109.401 E9.12266
G1 X115.694 Y108.683 E9.14721
G1 X115.435 Y107.999 E9.17153
G1 X115.095 Y107.358 E9.19567
G1 X115.004 Y107.229 E9.20092
G1 X114.681 Y106.773 E9.21755
G1 X114.208 Y106.253 E9.23548
G1 X113.764 Y105.861 E9.25129
G1 X113.542 Y105.708 E9.25964
G1 X113.164 Y105.449 E9.27488
G1 X112.517 Y105.123 E9.29898
G1 X111.843 Y104.89 E9.3227
G1 X111.238 Y104.758 E9.3433
G1 X110.474 Y104.673 E9.36886
G0 F5400 X112.456 Y105.272
G0 X113.081 Y105.586
G0 X114.098 Y106.369
G0 X114.553 Y106.872
G0 X115.592 Y108.695
G0 X115.311 Y108.801
;TYPE:WALL-OUTER
G1 F2112 X115.07 Y108.164 E9.39152
G1 X114.754 Y107.568 E9.41395
G1 X114.369 Y107.024 E9.43612
G1 X113.927 Y106.538 E9.45797
G1 X113.518 Y106.177 E9.47611
G1 X112.96 Y105.794 E9.49862
G1 X112.361 Y105.492 E9.52094
G1 X111.735 Y105.276 E9.54296
G1 X111.173 Y105.153 E9.5621
G1 X110.457 Y105.074 E9.58605
G1 X109.679 Y105.092 E9.61194
G1 X108.915 Y105.225 E9.63773
G1 X108.391 Y105.395 E9.65605
G1 X107.834 Y105.638 E9.67627
G1 X107.194 Y106.028 E9.70119
G1 X106.774 Y106.362 E9.71904
G1 X106.301 Y106.843 E9.74148
G1 X105.925 Y107.347 E9.76239
G1 X105.617 Y107.894 E9.78327
G1 X105.384 Y108.476 E9.80412
G1 X105.226 Y109.084 E9.82502
G1 X105.148 Y109.707 E9.8459
G1 X105.144 Y110.236 E9.86349
G1 X105.22 Y110.893 E9.88549
G1 X105.387 Y111.533 E9.90749
G1 X105.613 Y112.088 E9.92742
G1 X105.9 Y112.614 E9.94735
G1 X106.268 Y113.124 E9.96827
G1 X106.74 Y113.628 E9.99124
G1 X107.23 Y114.026 E10.01223
G1 X107.734 Y114.35 E10.03216
G1 X108.37 Y114.647 E10.05551
G1 X109.057 Y114.869 E10.07952
G1 X109.8 Y115.006 E10.10465
G1 X110.376 Y115.041 E10.12384
G1 X110.998 Y115.013 E10.14455
G1 X111.564 Y114.906 E10.16371
G1 X112.135 Y114.734 E10.18354
G1 X112.685 Y114.497 E10.20346
G1 X113.259 Y114.145 E10.22586
G1 X113.799 Y113.73 E10.24851
G1 X114.321 Y113.223 E10.27271
G1 X114.673 Y112.783 E10.29145
G1 X115.025 Y112.229 E10.31328
G1 X115.343 Y111.545 E10.33837
G1 X115.526 Y110.947 E10.35917
G1 X115.547 Y110.161 E10.38532
G1 X115.47 Y109.47 E10.40845
G1 X115.311 Y108.801 E10.43132
G0 F5400 X115.241 Y108.614
G0 X115.652 Y108.46
G0 X116.77 Y108.326
G0 X117.091 Y108.247
G1 F2112 X115.064 Y115.265 E10.67428
G1 X107.973 Y117.018 E10.91723
G1 X102.909 Y111.753 E11.1602
G1 X104.936 Y104.735 E11.40316
G1 X112.027 Y102.982 E11.64611
G1 X117.091 Y108.247 E11.88907
G0 F5400 X117.036 Y108.439
G0 X116.579 Y108.349
G0 X113.662 Y105.986
G0 X113.081 Y105.586
G0 X112.576 Y105.333
G0 X109.94 Y104.453
G0 X109.921 Y104.472
;TYPE:SKIN
G1 F3168 X109.759 Y104.351 E11.89413
G1 X109.098 Y104.446 E11.91082
G1 X107.887 Y104.809 E11.94243
G1 X107.679 Y104.735 E11.94795
G0 F5400 X107.768 Y104.646
G0 X105.1 Y107.597
G0 X104.839 Y107.858
G1 F3168 X104.682 Y108.297 E11.96397
G1 X104.447 Y109.098 E11.99265
G1 X104.484 Y109.343 E12.00116
G0 F5400 X104.608 Y109.22
G0 X104.692 Y107.722
G1 F3168 X104.936 Y107.478 E12.0069
G0 F5400 X104.905 Y110.252
G0 X105.525 Y113.112
G0 X105.402 Y113.235
G1 F3168 X105.53 Y113.389 E12.01244
G1 X106.647 Y114.534 E12.05671
G1 X106.74 Y114.724 E12.06256
G0 F5400 X106.665 Y114.8
G0 X105.14 Y113.214
G1 F3168 X105.177 Y113.177 E12.06343
;MESH:NONMESH
G0 F600 X105.177 Y113.177 Z0.6
G0 F5400 X107.621 Y114.562
G0 X108.276 Y114.868
G0 X109.004 Y115.103
