;FLAVOR:Marlin
;TIME:4048
;Filament used: 7.75707m
;Layer height: 0.2
;MINX:30.2
;MINY:80.802
;MINZ:0.2
;MAXX:189.8
;MAXY:138.349
;MAXZ:16.2
;LINEARADVANCEPROCESSED
;Generated with Cura_SteamEngine 4.8.0
M140 S75
M105
M190 S75
M104 S245
M105
M109 S245
M82 ;absolute extrusion mode
G92 E0 ; Reset Extruder
G28 ; Home all axes
G29; Probe Bed
M500; Save to eprom
G1 Z2.0 F3000 ; Move Z Axis up little to prevent scratching of Heat Bed
G1 X0.1 Y20 Z0.3 F5000.0 ; Move to start position
G1 X0.1 Y200.0 Z0.3 F1500.0 E15 ; Draw the first line
G1 X0.4 Y200.0 Z0.3 F5000.0 ; Move to side a little
G1 X0.4 Y20 Z0.3 F1500.0 E30 ; Draw the second line
G92 E0 ; Reset Extruder
G1 Z2.0 F3000 ; Move Z Axis up little to prevent scratching of Heat Bed
G1 X5 Y20 Z0.3 F5000.0 ; Move over to prevent blob squish
G92 E0
G92 E0
G1 F2400 E-1.2
;LAYER_COUNT:81
M900 K0.000000 T0 ;added by LinearAdvanceSettingPlugin
;LAYER:0
M107
G1 F600 Z0.4
;MESH:df71cabb-9be8-4503-8b64-7bceb41d5251.stl
G0 F3600 X105.549 Y116.491 Z0.4
;TYPE:WALL-INNER
G1 F600 Z0.2
G1 F2400 E0
G1 F3600 X105.212 Y117.496 E0.03526
G1 X105.097 Y118.55 E0.07052
G1 X105.212 Y119.603 E0.10575
G1 X105.549 Y120.608 E0.14101
G1 X106.097 Y121.518 E0.17634
G1 X106.825 Y122.287 E0.21156
G1 X107.703 Y122.882 E0.24683
G1 X108.688 Y123.275 E0.28211
G1 X109.734 Y123.446 E0.31736
G1 X110.794 Y123.389 E0.35267
G1 X111.815 Y123.105 E0.38791
G1 X112.752 Y122.609 E0.42318
G1 X113.56 Y121.921 E0.45847
G1 X114.201 Y121.077 E0.49372
G1 X114.647 Y120.116 E0.52896
G1 X114.875 Y119.079 E0.56427
G1 X114.875 Y118.02 E0.5995
G1 X114.647 Y116.984 E0.63478
G1 X114.201 Y116.022 E0.67005
G1 X113.56 Y115.178 E0.7053
G1 X112.752 Y114.49 E0.74059
G1 X111.815 Y113.994 E0.77585
G1 X110.794 Y113.71 E0.8111
G1 X109.734 Y113.653 E0.84641
G1 X108.688 Y113.824 E0.88166
G1 X107.703 Y114.217 E0.91693
G1 X106.825 Y114.812 E0.95221
G1 X106.097 Y115.581 E0.98743
G1 X105.549 Y116.491 E1.02276
G0 X105.914 Y116.66
;TYPE:WALL-OUTER
G1 X105.605 Y117.582 E1.0551
G1 X105.499 Y118.55 E1.08749
G1 X105.605 Y119.517 E1.11985
G1 X105.914 Y120.439 E1.15219
G1 X106.417 Y121.274 E1.18461
G1 X107.086 Y121.98 E1.21696
G1 X107.892 Y122.527 E1.24936
G1 X108.796 Y122.887 E1.28172
G1 X109.756 Y123.044 E1.31408
G1 X110.729 Y122.992 E1.34648
G1 X111.666 Y122.731 E1.37884
G1 X112.526 Y122.276 E1.4112
G1 X113.268 Y121.645 E1.44359
G1 X113.856 Y120.87 E1.47595
G1 X114.266 Y119.987 E1.50833
G1 X114.475 Y119.036 E1.54071
G1 X114.475 Y118.063 E1.57308
G1 X114.266 Y117.113 E1.60543
G1 X113.856 Y116.229 E1.63784
G1 X113.268 Y115.454 E1.67019
G1 X112.526 Y114.823 E1.70259
G1 X111.666 Y114.368 E1.73495
G1 X110.729 Y114.107 E1.7673
G1 X109.756 Y114.055 E1.79971
G1 X108.796 Y114.212 E1.83206
G1 X107.892 Y114.572 E1.86443
G1 X107.086 Y115.119 E1.89683
G1 X106.417 Y115.825 E1.92918
G1 X105.914 Y116.66 E1.9616
G0 X105.851 Y116.849
G0 X105.434 Y116.709
G0 X105.378 Y116.69
G0 X92.213 Y110.265
G0 X92.176 Y110.358
;TYPE:WALL-INNER
G1 X66.6 Y100.453 E2.87382
G1 X66.6 Y88.966 E3.25588
G1 X81.4 Y88.966 E3.74813
G1 X81.4 Y101.2 E4.15504
G1 X93.37 Y108.486 E4.62111
G1 X94.832 Y106.457 E4.70429
G1 X96.07 Y105.047 E4.7667
G1 X97.443 Y103.762 E4.82925
G1 X98.952 Y102.604 E4.89251
G1 X100.551 Y101.607 E4.95519
G1 X102.6 Y100.591 E5.03125
G1 X102.6 Y88.966 E5.4179
G1 X117.4 Y88.966 E5.91015
G1 X117.4 Y100.591 E6.2968
G1 X119.462 Y101.615 E6.37338
G1 X121.067 Y102.618 E6.43633
G1 X122.555 Y103.762 E6.49875
G1 X123.949 Y105.07 E6.56233
G1 X125.183 Y106.475 E6.62453
G1 X126.63 Y108.486 E6.70693
G1 X138.6 Y101.2 E7.17301
G1 X138.6 Y88.966 E7.57991
G1 X153.4 Y88.966 E8.07216
G1 X153.4 Y100.453 E8.45422
G1 X127.828 Y110.357 E9.36631
G1 X127.641 Y110.429 E9.37297
G1 X127.715 Y110.615 E9.37727
G1 X128.148 Y111.695 E9.41597
G1 X128.47 Y112.572 E9.44704
G1 X174.6 Y100.289 E11.03479
G1 X174.6 Y88.966 E11.4114
G1 X189.4 Y88.966 E11.90365
G1 X189.4 Y101.401 E12.31724
G1 X128.963 Y114.273 E14.37246
G1 X129.324 Y116.841 E14.45872
G1 X129.395 Y118.874 E14.52637
G1 X129.259 Y120.87 E14.59292
G1 X128.914 Y122.861 E14.66012
G1 X128.378 Y124.761 E14.72578
G1 X127.626 Y126.652 E14.79347
G1 X126.689 Y128.44 E14.86061
G1 X125.576 Y130.112 E14.92742
G1 X124.311 Y131.647 E14.99357
G1 X122.87 Y133.065 E15.06081
G1 X121.29 Y134.323 E15.12799
G1 X119.612 Y135.4 E15.19431
G1 X117.799 Y136.311 E15.26179
G1 X115.934 Y137.019 E15.32814
G1 X113.997 Y137.532 E15.39479
G1 X111.986 Y137.846 E15.46248
G1 X110.001 Y137.949 E15.52859
G1 X107.981 Y137.843 E15.59587
G1 X106.003 Y137.532 E15.66247
G1 X104.066 Y137.019 E15.72911
G1 X102.171 Y136.299 E15.79654
G1 X100.389 Y135.4 E15.86292
G1 X98.688 Y134.308 E15.93015
G1 X97.126 Y133.061 E15.99663
G1 X95.689 Y131.647 E16.06368
G1 X94.41 Y130.092 E16.13065
G1 X93.302 Y128.424 E16.19725
G1 X92.374 Y126.652 E16.26378
G1 X91.629 Y124.778 E16.33086
G1 X91.077 Y122.821 E16.39849
G1 X90.741 Y120.869 E16.46437
G1 X90.604 Y118.841 E16.53197
G1 X90.679 Y116.823 E16.59914
G1 X91.037 Y114.273 E16.68478
G1 X30.6 Y101.401 E18.74001
G1 X30.6 Y88.966 E19.1536
G1 X45.4 Y88.966 E19.64585
G1 X45.4 Y100.289 E20.02245
G1 X91.525 Y112.572 E21.61004
G1 X91.983 Y111.356 E21.65326
G1 X92.288 Y110.618 E21.67982
G1 X92.365 Y110.431 E21.68655
G1 X92.176 Y110.358 E21.69087
G0 X91.839 Y110.656
;TYPE:WALL-OUTER
G1 X91.649 Y110.583 E21.69764
G1 X66.2 Y100.727 E22.60534
G1 X66.2 Y88.566 E23.00982
G1 X81.8 Y88.566 E23.52868
G1 X81.8 Y100.975 E23.9414
G1 X93.262 Y107.952 E24.3877
G1 X94.513 Y106.214 E24.45893
G1 X95.784 Y104.768 E24.52296
G1 X97.182 Y103.459 E24.58666
G1 X98.728 Y102.273 E24.65147
G1 X100.356 Y101.258 E24.71527
G1 X102.2 Y100.343 E24.78374
G1 X102.2 Y88.566 E25.17545
G1 X117.8 Y88.566 E25.6943
G1 X117.8 Y100.343 E26.08601
G1 X119.657 Y101.266 E26.15498
G1 X121.297 Y102.29 E26.21929
G1 X122.818 Y103.459 E26.28309
G1 X124.237 Y104.791 E26.34782
G1 X125.497 Y106.226 E26.41134
G1 X126.738 Y107.952 E26.48205
G1 X138.2 Y100.975 E26.92835
G1 X138.2 Y88.566 E27.34107
G1 X153.8 Y88.566 E27.85993
G1 X153.8 Y100.727 E28.26441
G1 X128.351 Y110.584 E29.17212
G1 X128.163 Y110.656 E29.17881
G1 X128.238 Y110.843 E29.18312
G1 X128.524 Y111.557 E29.2087
G1 X128.72 Y112.092 E29.22765
G1 X174.2 Y99.982 E30.79303
G1 X174.2 Y88.566 E31.17273
G1 X189.8 Y88.566 E31.69159
G1 X189.8 Y101.724 E32.12922
G1 X129.411 Y114.587 E34.18283
G1 X129.723 Y116.809 E34.25746
G1 X129.796 Y118.877 E34.32628
G1 X129.657 Y120.917 E34.39429
G1 X129.304 Y122.953 E34.46302
G1 X128.755 Y124.897 E34.5302
G1 X127.992 Y126.815 E34.59886
G1 X127.032 Y128.647 E34.66765
G1 X125.896 Y130.353 E34.73582
G1 X124.605 Y131.919 E34.80332
G1 X123.138 Y133.363 E34.87179
G1 X121.521 Y134.651 E34.94055
G1 X119.814 Y135.746 E35.008
G1 X117.958 Y136.679 E35.07709
G1 X116.055 Y137.401 E35.14479
G1 X114.083 Y137.923 E35.21264
G1 X112.03 Y138.244 E35.28175
G1 X110.001 Y138.349 E35.34932
G1 X107.937 Y138.241 E35.41807
G1 X105.917 Y137.923 E35.48608
G1 X103.945 Y137.401 E35.55393
G1 X102.012 Y136.666 E35.62271
G1 X100.186 Y135.746 E35.69072
G1 X98.452 Y134.632 E35.75927
G1 X96.862 Y133.363 E35.82693
G1 X95.395 Y131.919 E35.89539
G1 X94.09 Y130.333 E35.9637
G1 X92.956 Y128.626 E36.03186
G1 X92.008 Y126.815 E36.09985
G1 X91.25 Y124.909 E36.16808
G1 X90.687 Y122.912 E36.23709
G1 X90.343 Y120.916 E36.30445
G1 X90.203 Y118.844 E36.37352
G1 X90.279 Y116.797 E36.44165
G1 X90.589 Y114.587 E36.51588
G1 X30.2 Y101.724 E38.56948
G1 X30.2 Y88.566 E39.00712
G1 X45.8 Y88.566 E39.52598
G1 X45.8 Y99.982 E39.90568
G1 X91.278 Y112.092 E41.47099
G1 X91.613 Y111.203 E41.50259
G1 X91.761 Y110.844 E41.5155
G1 X91.839 Y110.656 E41.51985
G0 X91.652 Y110.585
G0 X91.811 Y110.174
G0 X91.833 Y110.118
G0 X92.878 Y110.211
;TYPE:SKIN
G1 X66.99 Y100.186 E42.44319
G1 X66.99 Y89.356 E42.8034
G1 X81.01 Y89.356 E43.2697
G1 X81.01 Y101.419 E43.67092
G1 X93.475 Y109.007 E44.15628
G1 X95.137 Y106.7 E44.25085
G1 X96.345 Y105.324 E44.31175
G1 X97.694 Y104.062 E44.37319
G1 X99.183 Y102.919 E44.43563
G1 X100.745 Y101.946 E44.49683
G1 X102.99 Y100.833 E44.58018
G1 X102.99 Y89.356 E44.9619
G1 X117.01 Y89.356 E45.42821
G1 X117.01 Y100.833 E45.80994
G1 X119.267 Y101.954 E45.89375
G1 X120.84 Y102.936 E45.95543
G1 X122.304 Y104.062 E46.01686
G1 X123.674 Y105.347 E46.07933
G1 X124.878 Y106.718 E46.14002
G1 X126.525 Y109.007 E46.23381
G1 X138.99 Y101.419 E46.71918
G1 X138.99 Y89.356 E47.12039
G1 X153.01 Y89.356 E47.5867
G1 X153.01 Y100.186 E47.94691
G1 X127.132 Y110.208 E48.86991
G1 X127.782 Y111.83 E48.92802
G1 X128.226 Y113.04 E48.97089
G1 X174.99 Y100.589 E50.58046
G1 X174.99 Y89.356 E50.95407
G1 X189.01 Y89.356 E51.42037
G1 X189.01 Y101.085 E51.81048
G1 X128.526 Y113.967 E53.86731
G1 X128.934 Y116.87 E53.96481
G1 X129.005 Y118.861 E54.03108
G1 X128.869 Y120.836 E54.09692
G1 X128.534 Y122.774 E54.16233
G1 X128.012 Y124.625 E54.2263
G1 X127.267 Y126.497 E54.29331
G1 X126.353 Y128.243 E54.35886
G1 X125.268 Y129.873 E54.42399
G1 X124.021 Y131.386 E54.4892
G1 X122.614 Y132.77 E54.55484
G1 X121.063 Y134.005 E54.62078
G1 X119.422 Y135.059 E54.68565
G1 X117.639 Y135.954 E54.75201
G1 X115.813 Y136.648 E54.81698
G1 X113.922 Y137.148 E54.88203
G1 X111.945 Y137.457 E54.94859
G1 X110.001 Y137.557 E55.01333
G1 X108.024 Y137.455 E55.07917
G1 X106.077 Y137.148 E55.14473
G1 X104.191 Y136.649 E55.20962
G1 X102.332 Y135.942 E55.27577
G1 X100.576 Y135.056 E55.34119
G1 X98.915 Y133.99 E55.40683
G1 X97.382 Y132.767 E55.47206
G1 X95.979 Y131.386 E55.53753
G1 X94.723 Y129.859 E55.6033
G1 X93.635 Y128.22 E55.66873
G1 X92.733 Y126.497 E55.73341
G1 X91.995 Y124.642 E55.79981
G1 X91.457 Y122.734 E55.86575
G1 X91.131 Y120.834 E55.92986
G1 X90.994 Y118.829 E55.99671
G1 X91.069 Y116.852 E56.06251
G1 X91.474 Y113.967 E56.15941
G1 X30.99 Y101.085 E58.21623
G1 X30.99 Y89.356 E58.60634
G1 X45.01 Y89.356 E59.07265
G1 X45.01 Y100.589 E59.44626
G1 X91.765 Y113.04 E61.05553
G1 X92.344 Y111.505 E61.1101
G1 X92.878 Y110.211 E61.15666
G0 X105.192 Y116.327
G1 X104.829 Y117.412 E61.19471
G1 X104.705 Y118.55 E61.23279
G1 X104.829 Y119.687 E61.27083
G1 X105.192 Y120.772 E61.30888
G1 X105.785 Y121.756 E61.34709
G1 X106.571 Y122.586 E61.38511
G1 X107.519 Y123.229 E61.42321
G1 X108.583 Y123.653 E61.46131
G1 X109.713 Y123.838 E61.49939
G1 X110.858 Y123.777 E61.53753
G1 X111.96 Y123.47 E61.57558
G1 X112.972 Y122.933 E61.61368
G1 X113.845 Y122.19 E61.65181
G1 X114.537 Y121.28 E61.68983
G1 X115.019 Y120.241 E61.72793
G1 X115.265 Y119.122 E61.76603
G1 X115.265 Y117.977 E61.80412
G1 X115.019 Y116.859 E61.84219
G1 X114.537 Y115.819 E61.88032
G1 X113.845 Y114.909 E61.91834
G1 X112.972 Y114.166 E61.95647
G1 X111.96 Y113.629 E61.99457
G1 X110.858 Y113.322 E62.03262
G1 X109.713 Y113.261 E62.07076
G1 X108.583 Y113.446 E62.10884
G1 X107.519 Y113.87 E62.14694
G1 X106.571 Y114.513 E62.18504
G1 X105.785 Y115.343 E62.22306
G1 X105.192 Y116.327 E62.26127
G0 X31.169 Y100.749
G1 X31.41 Y100.989 E62.27258
G0 X32.129 Y101.143
G1 X31.169 Y100.183 E62.31774
G0 X31.169 Y99.617
G1 X32.847 Y101.295 E62.39666
G0 X33.567 Y101.449
G1 X31.169 Y99.052 E62.50944
G0 X31.169 Y98.486
G1 X34.285 Y101.602 E62.656
G0 X35.004 Y101.755
G1 X31.169 Y97.92 E62.83639
G0 X31.169 Y97.355
G1 X35.723 Y101.908 E63.05057
G0 X36.442 Y102.061
G1 X31.169 Y96.789 E63.29857
G0 X31.169 Y96.223
G1 X37.16 Y102.214 E63.58037
G0 X37.879 Y102.367
G1 X31.169 Y95.658 E63.89597
G0 X31.169 Y95.092
G1 X38.598 Y102.52 E64.24538
G0 X39.317 Y102.674
G1 X31.169 Y94.526 E64.62864
G0 X31.169 Y93.961
G1 X40.035 Y102.826 E65.04564
G0 X40.754 Y102.98
G1 X31.169 Y93.395 E65.49649
G0 X31.169 Y92.829
G1 X41.473 Y103.132 E65.98114
G0 X42.192 Y103.286
G1 X31.169 Y92.263 E66.49963
G0 X31.169 Y91.698
G1 X42.91 Y103.439 E67.05189
G0 X43.629 Y103.592
G1 X31.169 Y91.132 E67.63797
G0 X31.169 Y90.566
G1 X44.348 Y103.745 E68.25787
G0 X45.067 Y103.898
G1 X31.169 Y90.001 E68.91156
G0 X31.269 Y89.535
G1 X45.785 Y104.051 E69.59435
G0 X46.504 Y104.204
G1 X31.835 Y89.535 E70.28433
G0 X32.401 Y89.535
G1 X47.223 Y104.357 E70.98152
G0 X47.942 Y104.511
G1 X32.966 Y89.535 E71.68594
G0 X33.532 Y89.535
G1 X48.66 Y104.663 E72.39752
G0 X49.38 Y104.817
G1 X45.457 Y100.894 E72.58204
G0 X46.228 Y101.1
G1 X50.098 Y104.97 E72.76407
G0 X50.817 Y105.123
G1 X46.999 Y101.305 E72.94366
G0 X47.77 Y101.51
G1 X51.536 Y105.276 E73.1208
G0 X52.255 Y105.429
G1 X48.541 Y101.715 E73.2955
G0 X49.312 Y101.92
G1 X52.973 Y105.582 E73.46772
G0 X53.692 Y105.735
G1 X50.083 Y102.126 E73.63748
G0 X50.854 Y102.331
G1 X54.411 Y105.888 E73.80479
G0 X55.13 Y106.041
G1 X51.625 Y102.536 E73.96965
G0 X52.396 Y102.742
G1 X55.848 Y106.194 E74.13203
G0 X56.567 Y106.348
G1 X53.167 Y102.947 E74.29198
G0 X53.938 Y103.152
G1 X57.286 Y106.5 E74.44946
G0 X58.005 Y106.654
G1 X54.709 Y103.358 E74.60449
G0 X55.48 Y103.563
G1 X58.723 Y106.807 E74.75705
G0 X59.442 Y106.96
G1 X56.251 Y103.768 E74.90717
G0 X57.022 Y103.974
G1 X60.161 Y107.113 E75.05482
G0 X60.88 Y107.266
G1 X57.793 Y104.179 E75.20002
G0 X58.564 Y104.385
G1 X61.598 Y107.419 E75.34273
G0 X62.318 Y107.572
G1 X59.335 Y104.59 E75.48302
G0 X60.106 Y104.795
G1 X63.036 Y107.725 E75.62084
G0 X63.755 Y107.879
G1 X60.877 Y105.001 E75.75621
G0 X61.648 Y105.206
G1 X64.473 Y108.031 E75.88909
G0 X65.193 Y108.185
G1 X62.419 Y105.411 E76.01957
G0 X63.19 Y105.617
G1 X65.911 Y108.337 E76.14754
G0 X66.63 Y108.491
G1 X63.961 Y105.822 E76.27308
G0 X64.732 Y106.027
G1 X67.349 Y108.644 E76.39617
G0 X68.068 Y108.797
G1 X65.503 Y106.232 E76.51682
G0 X66.274 Y106.437
G1 X68.786 Y108.95 E76.635
G0 X69.505 Y109.103
G1 X67.045 Y106.643 E76.75071
G0 X67.816 Y106.848
G1 X70.224 Y109.256 E76.86398
G0 X70.943 Y109.409
G1 X68.587 Y107.053 E76.9748
G0 X69.358 Y107.259
G1 X71.661 Y109.562 E77.08312
G0 X72.38 Y109.716
G1 X70.129 Y107.464 E77.18903
G0 X70.9 Y107.669
G1 X73.099 Y109.868 E77.29246
G0 X73.818 Y110.022
G1 X71.671 Y107.875 E77.39345
G0 X72.442 Y108.08
G1 X74.536 Y110.175 E77.49197
G0 X75.255 Y110.328
G1 X73.213 Y108.285 E77.58804
G0 X73.984 Y108.491
G1 X75.974 Y110.481 E77.68165
G0 X76.693 Y110.634
G1 X74.755 Y108.696 E77.7728
G0 X75.526 Y108.901
G1 X77.411 Y110.787 E77.86149
G0 X78.131 Y110.94
G1 X76.297 Y109.107 E77.94773
G0 X77.068 Y109.312
G1 X78.849 Y111.093 E78.03151
G0 X79.568 Y111.246
G1 X77.839 Y109.518 E78.11281
G0 X78.61 Y109.723
G1 X80.287 Y111.399 E78.19167
G0 X81.006 Y111.553
G1 X79.381 Y109.928 E78.2681
G0 X80.152 Y110.134
G1 X81.725 Y111.706 E78.34207
G0 X82.443 Y111.859
G1 X80.923 Y110.339 E78.41356
G0 X81.694 Y110.544
G1 X83.162 Y112.012 E78.48261
G0 X83.881 Y112.165
G1 X82.465 Y110.749 E78.54922
G0 X83.236 Y110.954
G1 X84.6 Y112.318 E78.61338
G0 X85.318 Y112.471
G1 X84.007 Y111.16 E78.67504
G0 X84.778 Y111.365
G1 X86.037 Y112.625 E78.73428
G0 X86.756 Y112.777
G1 X85.549 Y111.57 E78.79106
G0 X86.32 Y111.775
G1 X87.475 Y112.931 E78.84541
G0 X88.193 Y113.084
G1 X87.091 Y111.981 E78.89727
G0 X87.862 Y112.186
G1 X88.913 Y113.237 E78.9467
G0 X89.631 Y113.39
G1 X88.633 Y112.392 E78.99365
G0 X89.404 Y112.597
G1 X90.35 Y113.543 E79.03814
G0 X91.068 Y113.696
G1 X90.175 Y112.802 E79.08017
G0 X90.946 Y113.008
G1 X114.694 Y136.756 E80.1972
G0 X114.247 Y136.874
G1 X91.616 Y114.243 E81.2617
G0 X91.546 Y114.739
G1 X113.791 Y136.984 E82.30803
G0 X113.302 Y137.061
G1 X91.476 Y115.235 E83.33466
G0 X91.407 Y115.732
G1 X112.813 Y137.138 E84.34153
G0 X112.324 Y137.214
G1 X91.338 Y116.228 E85.32865
G0 X91.268 Y116.724
G1 X111.826 Y137.282 E86.29564
G0 X111.288 Y137.309
G1 X91.234 Y117.255 E87.23892
G0 X91.213 Y117.8
G1 X110.749 Y137.337 E88.15785
G0 X110.211 Y137.363
G1 X91.192 Y118.345 E89.05242
G0 X91.18 Y118.898
G1 X109.637 Y137.356 E89.92061
G0 X109.041 Y137.325
G1 X91.221 Y119.505 E90.75881
G0 X91.262 Y120.112
G1 X108.445 Y137.295 E91.56704
G0 X107.825 Y137.24
G1 X91.303 Y120.719 E92.34416
G0 X91.408 Y121.389
G1 X107.152 Y137.134 E93.08474
G0 X106.481 Y137.028
G1 X91.525 Y122.072 E93.78822
G0 X91.65 Y122.763
G1 X105.766 Y136.878 E94.45217
G0 X104.997 Y136.675
G1 X91.873 Y123.552 E95.06946
G1 X91.803 Y123.482
G0 X92.096 Y124.34
G1 X104.224 Y136.468 E95.63992
G1 X104.294 Y136.538
G0 X103.311 Y136.12
G1 X92.425 Y125.235 E96.15194
G1 X92.355 Y125.165
G0 X92.799 Y126.175
G1 X102.395 Y135.77 E96.60329
G1 X102.465 Y135.84
G0 X101.253 Y135.194
