;FLAVOR:Marlin
;TIME:12926
;Filament used: 25.5673m
;Layer height: 0.2
;MINX:12.048
;MINY:13.829
;MINZ:0.2
;MAXX:207.94
;MAXY:206.172
;MAXZ:24.8
;LINEARADVANCEPROCESSED
;Generated with Cura_SteamEngine 4.8.0
M140 S75
M105
M190 S75
M104 S245
M105
M109 S245
M82 ;absolute extrusion mode
G92 E0 ; Reset Extruder
G28 ; Home all axes
G29; Probe Bed
M500; Save to eprom
G1 Z2.0 F3000 ; Move Z Axis up little to prevent scratching of Heat Bed
G1 X0.1 Y20 Z0.3 F5000.0 ; Move to start position
G1 X0.1 Y200.0 Z0.3 F1500.0 E15 ; Draw the first line
G1 X0.4 Y200.0 Z0.3 F5000.0 ; Move to side a little
G1 X0.4 Y20 Z0.3 F1500.0 E30 ; Draw the second line
G92 E0 ; Reset Extruder
G1 Z2.0 F3000 ; Move Z Axis up little to prevent scratching of Heat Bed
G1 X5 Y20 Z0.3 F5000.0 ; Move over to prevent blob squish
G92 E0
G92 E0
G1 F2400 E-1.2
;LAYER_COUNT:124
M900 K0.000000 T0 ;added by LinearAdvanceSettingPlugin
;LAYER:0
M107
G1 F600 Z0.4
;MESH:66608f7f-28ea-4abe-9b24-e96f2dfe434b.stl
G0 F3600 X161.931 Y48.496 Z0.4
;TYPE:WALL-INNER
G1 F600 Z0.2
G1 F2400 E0
G1 F3600 X161.531 Y46.973 E0.05237
G1 X160.783 Y45.589 E0.1047
G1 X159.728 Y44.419 E0.1571
G1 X158.426 Y43.534 E0.20946
G1 X156.952 Y42.982 E0.26181
G1 X155.424 Y42.798 E0.313
G1 X127.966 Y42.798 E1.22625
G1 X126.53 Y42.961 E1.27432
G1 X125.135 Y43.449 E1.32348
G1 X123.883 Y44.235 E1.37264
G1 X122.837 Y45.282 E1.42187
G1 X122.05 Y46.533 E1.47103
G1 X121.562 Y47.928 E1.52018
G1 X121.4 Y49.365 E1.56828
G1 X121.4 Y75.048 E2.4225
G1 X121.573 Y76.533 E2.47222
G1 X122.096 Y77.971 E2.52312
G1 X122.936 Y79.251 E2.57404
G1 X124.047 Y80.304 E2.62495
G1 X125.372 Y81.071 E2.67587
G1 X126.836 Y81.513 E2.72674
G1 X128.364 Y81.607 E2.77765
G1 X129.872 Y81.346 E2.82855
G1 X131.28 Y80.746 E2.87946
G1 X132.482 Y79.857 E2.92918
G1 X159.923 Y54.195 E4.17879
G1 X160.914 Y53.017 E4.22999
G1 X161.613 Y51.607 E4.28233
G1 X161.958 Y50.07 E4.33472
G1 X161.931 Y48.496 E4.38708
G0 X161.532 Y48.551
;TYPE:WALL-OUTER
G1 X161.156 Y47.121 E4.43626
G1 X160.454 Y45.821 E4.4854
G1 X159.463 Y44.723 E4.5346
G1 X158.241 Y43.892 E4.58375
G1 X156.857 Y43.373 E4.63291
G1 X155.4 Y43.198 E4.68172
G1 X127.989 Y43.198 E5.59341
G1 X126.62 Y43.353 E5.63923
G1 X125.31 Y43.812 E5.6854
G1 X124.134 Y44.55 E5.73158
G1 X123.152 Y45.533 E5.77779
G1 X122.413 Y46.708 E5.82396
G1 X121.954 Y48.018 E5.87013
G1 X121.8 Y49.387 E5.91595
G1 X121.8 Y75.025 E6.76867
G1 X121.965 Y76.44 E6.81606
G1 X122.456 Y77.791 E6.86387
G1 X123.245 Y78.993 E6.91169
G1 X124.288 Y79.981 E6.95947
G1 X125.532 Y80.702 E7.00729
G1 X126.907 Y81.117 E7.05506
G1 X128.342 Y81.205 E7.10288
G1 X129.758 Y80.96 E7.15068
G1 X131.08 Y80.396 E7.19848
G1 X132.226 Y79.549 E7.24588
G1 X159.632 Y53.919 E8.4939
G1 X160.577 Y52.796 E8.54272
G1 X161.233 Y51.472 E8.59187
G1 X161.557 Y50.029 E8.64105
G1 X161.532 Y48.551 E8.69022
G0 X161.482 Y48.358
G0 X161.907 Y48.248
G0 X161.965 Y48.234
G0 X161.978 Y75.231
G0 X150.897 Y85.583
G0 X148.47 Y88.082
G0 X146.281 Y90.813
G0 X144.363 Y93.74
G0 X142.734 Y96.838
G0 X141.407 Y100.076
G0 X140.396 Y103.426
G0 X139.707 Y106.858
G0 X139.35 Y110.338
G0 X139.327 Y113.836
G0 X139.637 Y117.323
G0 X140.279 Y120.763
G0 X141.246 Y124.126
G0 X142.529 Y127.382
G0 X144.117 Y130.5
G0 X145.996 Y133.454
G0 X148.146 Y136.213
G0 X150.541 Y138.745
G0 X160.868 Y148.651
G0 X162.03 Y176.288
G0 X161.931 Y176.275
;TYPE:WALL-INNER
G1 X161.958 Y174.701 E8.74258
G1 X161.613 Y173.164 E8.79497
G1 X160.914 Y171.754 E8.84732
G1 X159.923 Y170.576 E8.89852
G1 X132.482 Y144.914 E10.14812
G1 X131.28 Y144.025 E10.19784
G1 X129.872 Y143.425 E10.24875
G1 X128.364 Y143.164 E10.29965
G1 X126.836 Y143.258 E10.35057
G1 X125.372 Y143.7 E10.40143
G1 X124.047 Y144.467 E10.45235
G1 X122.936 Y145.52 E10.50326
G1 X122.096 Y146.8 E10.55419
G1 X121.573 Y148.238 E10.60508
G1 X121.4 Y149.723 E10.6548
G1 X121.4 Y175.405 E11.50899
G1 X121.562 Y176.843 E11.55712
G1 X122.05 Y178.238 E11.60628
G1 X122.837 Y179.49 E11.65546
G1 X123.883 Y180.535 E11.70464
G1 X125.135 Y181.322 E11.75382
G1 X126.53 Y181.81 E11.80298
G1 X127.967 Y181.972 E11.85108
G1 X155.424 Y181.972 E12.7643
G1 X156.952 Y181.789 E12.81549
G1 X158.426 Y181.237 E12.86784
G1 X159.728 Y180.352 E12.9202
G1 X160.783 Y179.182 E12.9726
G1 X161.531 Y177.798 E13.02492
G1 X161.931 Y176.275 E13.07729
G0 X161.532 Y176.22
;TYPE:WALL-OUTER
G1 X161.557 Y174.742 E13.12646
G1 X161.233 Y173.299 E13.17565
G1 X160.577 Y171.975 E13.22479
G1 X159.632 Y170.852 E13.27361
G1 X132.226 Y145.222 E14.52163
G1 X131.08 Y144.375 E14.56903
G1 X129.758 Y143.811 E14.61684
G1 X128.342 Y143.566 E14.66463
G1 X126.907 Y143.654 E14.71245
G1 X125.532 Y144.069 E14.76022
G1 X124.288 Y144.79 E14.80804
G1 X123.245 Y145.778 E14.85583
G1 X122.456 Y146.98 E14.90365
G1 X121.965 Y148.331 E14.95146
G1 X121.8 Y149.746 E14.99884
G1 X121.8 Y175.383 E15.85153
G1 X121.954 Y176.753 E15.89738
G1 X122.413 Y178.063 E15.94355
G1 X123.152 Y179.239 E15.98975
G1 X124.134 Y180.22 E16.03591
G1 X125.31 Y180.959 E16.08211
G1 X126.62 Y181.418 E16.12828
G1 X127.989 Y181.572 E16.1741
G1 X155.4 Y181.572 E17.08579
G1 X156.857 Y181.398 E17.1346
G1 X158.241 Y180.879 E17.18376
G1 X159.463 Y180.048 E17.23291
G1 X160.454 Y178.95 E17.2821
G1 X161.156 Y177.65 E17.33124
G1 X161.532 Y176.22 E17.38042
G0 X161.535 Y176.02
G0 X161.975 Y176.028
G0 X162.035 Y176.029
G0 X161.568 Y177.812
G0 X160.815 Y179.205
G0 X159.754 Y180.382
G0 X158.444 Y181.272
G0 X156.961 Y181.827
G0 X155.426 Y182.011
G0 X64.574 Y182.011
G0 X63.039 Y181.827
G0 X61.556 Y181.272
G0 X60.246 Y180.382
G0 X59.185 Y179.205
G0 X58.508 Y177.952
G0 X57.97 Y176.288
G0 X58.069 Y176.275
;TYPE:WALL-INNER
G1 X58.469 Y177.798 E17.43279
G1 X59.217 Y179.182 E17.48512
G1 X60.272 Y180.352 E17.53752
G1 X61.574 Y181.237 E17.58988
G1 X63.048 Y181.789 E17.64223
G1 X64.576 Y181.972 E17.69341
G1 X92.033 Y181.972 E18.60664
G1 X93.47 Y181.81 E18.65474
G1 X94.865 Y181.322 E18.70389
G1 X96.117 Y180.535 E18.75308
G1 X97.163 Y179.49 E18.80225
G1 X97.95 Y178.238 E18.85144
G1 X98.438 Y176.843 E18.90059
G1 X98.6 Y175.405 E18.94872
G1 X98.6 Y149.723 E19.80291
G1 X98.427 Y148.238 E19.85264
G1 X97.904 Y146.8 E19.90353
G1 X97.064 Y145.52 E19.95445
G1 X95.953 Y144.467 E20.00536
G1 X94.628 Y143.7 E20.05628
G1 X93.164 Y143.258 E20.10715
G1 X91.636 Y143.164 E20.15807
G1 X90.128 Y143.425 E20.20897
G1 X88.72 Y144.025 E20.25987
G1 X87.518 Y144.914 E20.3096
G1 X60.077 Y170.576 E21.5592
G1 X59.086 Y171.754 E21.6104
G1 X58.387 Y173.164 E21.66274
G1 X58.042 Y174.701 E21.71514
G1 X58.069 Y176.275 E21.7675
G0 X58.468 Y176.22
;TYPE:WALL-OUTER
G1 X58.844 Y177.65 E21.81667
G1 X59.546 Y178.95 E21.86581
G1 X60.537 Y180.048 E21.91501
G1 X61.759 Y180.879 E21.96416
G1 X63.143 Y181.398 E22.01332
G1 X64.6 Y181.572 E22.06213
G1 X92.011 Y181.572 E22.97382
G1 X93.38 Y181.418 E23.01964
G1 X94.69 Y180.959 E23.06581
G1 X95.866 Y180.22 E23.112
G1 X96.848 Y179.239 E23.15817
G1 X97.587 Y178.063 E23.20437
G1 X98.046 Y176.753 E23.25053
G1 X98.2 Y175.383 E23.29639
G1 X98.2 Y149.746 E24.14908
G1 X98.035 Y148.331 E24.19646
G1 X97.544 Y146.98 E24.24427
G1 X96.755 Y145.778 E24.29209
G1 X95.712 Y144.79 E24.33987
G1 X94.468 Y144.069 E24.3877
G1 X93.093 Y143.654 E24.43547
G1 X91.658 Y143.566 E24.48329
G1 X90.242 Y143.811 E24.53108
G1 X88.92 Y144.375 E24.57889
G1 X87.774 Y145.222 E24.62628
G1 X60.368 Y170.852 E25.87431
G1 X59.423 Y171.975 E25.92312
G1 X58.767 Y173.299 E25.97227
G1 X58.443 Y174.742 E26.02146
G1 X58.468 Y176.22 E26.07062
G0 X58.518 Y176.413
G0 X58.093 Y176.523
G0 X58.035 Y176.537
G0 X58.003 Y174.697
G0 X58.35 Y173.151
G0 X92.072 Y105.536
G0 X92.158 Y105.585
;TYPE:WALL-INNER
G1 X90.967 Y108.002 E26.16024
G1 X90.1 Y110.553 E26.24986
G1 X89.575 Y113.197 E26.33951
G1 X89.399 Y115.885 E26.42911
G1 X89.575 Y118.574 E26.51874
G1 X90.1 Y121.218 E26.60839
G1 X90.967 Y123.769 E26.698
G1 X92.158 Y126.185 E26.78759
G1 X93.656 Y128.427 E26.87728
G1 X95.433 Y130.453 E26.96691
G1 X97.459 Y132.23 E27.05654
G1 X99.7 Y133.727 E27.14618
G1 X102.116 Y134.918 E27.23577
G1 X104.668 Y135.785 E27.32541
G1 X107.311 Y136.31 E27.41504
G1 X110 Y136.486 E27.50466
G1 X112.689 Y136.31 E27.59429
G1 X115.332 Y135.785 E27.68392
G1 X117.884 Y134.918 E27.77356
G1 X120.3 Y133.727 E27.86315
G1 X122.541 Y132.23 E27.95279
G1 X124.567 Y130.453 E28.04242
G1 X126.344 Y128.427 E28.13205
G1 X127.842 Y126.185 E28.22173
G1 X129.033 Y123.769 E28.31132
G1 X129.9 Y121.218 E28.40094
G1 X130.425 Y118.574 E28.49059
G1 X130.601 Y115.885 E28.58022
G1 X130.425 Y113.197 E28.66982
G1 X129.9 Y110.553 E28.75947
G1 X129.033 Y108.002 E28.84909
G1 X127.842 Y105.585 E28.93871
G1 X126.344 Y103.344 E29.02836
G1 X124.567 Y101.318 E29.11799
G1 X122.541 Y99.541 E29.20762
G1 X120.3 Y98.044 E29.29726
G1 X117.884 Y96.853 E29.38685
G1 X115.332 Y95.986 E29.4765
G1 X112.689 Y95.461 E29.56612
G1 X110 Y95.284 E29.65575
G1 X107.311 Y95.461 E29.74538
G1 X104.668 Y95.986 E29.835
G1 X102.116 Y96.853 E29.92465
G1 X99.7 Y98.044 E30.01424
G1 X97.459 Y99.541 E30.10387
G1 X95.433 Y101.318 E30.19351
G1 X93.656 Y103.344 E30.28314
G1 X92.158 Y105.585 E30.37279
G0 X92.505 Y105.785
;TYPE:WALL-OUTER
G1 X91.337 Y108.155 E30.46067
G1 X90.487 Y110.657 E30.54856
G1 X89.972 Y113.249 E30.63646
G1 X89.8 Y115.885 E30.72432
G1 X89.972 Y118.522 E30.81221
G1 X90.487 Y121.114 E30.90011
G1 X91.337 Y123.616 E30.98799
G1 X92.505 Y125.985 E31.07584
G1 X93.974 Y128.183 E31.16377
G1 X95.716 Y130.17 E31.25166
G1 X97.703 Y131.912 E31.33955
G1 X99.9 Y133.38 E31.42744
G1 X102.269 Y134.548 E31.51529
G1 X104.772 Y135.398 E31.6032
G1 X107.363 Y135.913 E31.69107
G1 X110 Y136.085 E31.77896
G1 X112.637 Y135.913 E31.86685
G1 X115.228 Y135.398 E31.95472
G1 X117.731 Y134.548 E32.04264
G1 X120.1 Y133.38 E32.13049
G1 X122.297 Y131.912 E32.21837
G1 X124.284 Y130.17 E32.30626
G1 X126.026 Y128.183 E32.39415
G1 X127.495 Y125.985 E32.48208
G1 X128.663 Y123.616 E32.56993
G1 X129.513 Y121.114 E32.65782
G1 X130.028 Y118.522 E32.74571
G1 X130.2 Y115.885 E32.83361
G1 X130.028 Y113.249 E32.92147
G1 X129.513 Y110.657 E33.00936
G1 X128.663 Y108.155 E33.09725
G1 X127.495 Y105.785 E33.18513
G1 X126.026 Y103.588 E33.27303
G1 X124.284 Y101.601 E33.36092
G1 X122.297 Y99.859 E33.44881
G1 X120.1 Y98.391 E33.53669
G1 X117.731 Y97.223 E33.62454
G1 X115.228 Y96.373 E33.71246
G1 X112.637 Y95.858 E33.80032
G1 X110 Y95.685 E33.88822
G1 X107.363 Y95.858 E33.97612
G1 X104.772 Y96.373 E34.06398
G1 X102.269 Y97.223 E34.1519
G1 X99.9 Y98.391 E34.23975
G1 X97.703 Y99.859 E34.32763
G1 X95.716 Y101.601 E34.41552
G1 X93.974 Y103.588 E34.50341
G1 X92.505 Y105.785 E34.59131
G0 X92.417 Y105.964
G0 X92.023 Y105.769
G0 X91.97 Y105.742
G0 X59.053 Y53.038
G0 X58.35 Y51.62
G0 X58.038 Y50.229
G0 X57.97 Y48.483
G0 X58.069 Y48.496
;TYPE:WALL-INNER
G1 X58.042 Y50.07 E34.64367
G1 X58.387 Y51.607 E34.69606
G1 X59.086 Y53.017 E34.74841
G1 X60.077 Y54.195 E34.79961
G1 X87.518 Y79.857 E36.04921
G1 X88.72 Y80.746 E36.09894
G1 X90.128 Y81.346 E36.14984
G1 X91.636 Y81.607 E36.20074
G1 X93.164 Y81.513 E36.25166
G1 X94.628 Y81.071 E36.30252
G1 X95.953 Y80.304 E36.35344
G1 X97.064 Y79.251 E36.40436
G1 X97.904 Y77.971 E36.45528
G1 X98.427 Y76.533 E36.50617
G1 X98.6 Y75.048 E36.5559
G1 X98.6 Y49.365 E37.41012
G1 X98.438 Y47.928 E37.45821
G1 X97.95 Y46.533 E37.50737
G1 X97.163 Y45.282 E37.55653
G1 X96.117 Y44.235 E37.60575
G1 X94.865 Y43.449 E37.65492
G1 X93.47 Y42.961 E37.70407
G1 X92.034 Y42.798 E37.75214
G1 X64.576 Y42.798 E38.6654
G1 X63.048 Y42.982 E38.71659
G1 X61.574 Y43.534 E38.76894
G1 X60.272 Y44.419 E38.8213
G1 X59.217 Y45.589 E38.8737
G1 X58.469 Y46.973 E38.92602
G1 X58.069 Y48.496 E38.9784
G0 X58.468 Y48.551
;TYPE:WALL-OUTER
G1 X58.443 Y50.029 E39.02756
G1 X58.767 Y51.472 E39.07675
G1 X59.423 Y52.796 E39.1259
G1 X60.368 Y53.919 E39.17471
G1 X87.774 Y79.549 E40.42274
G1 X88.92 Y80.396 E40.47013
G1 X90.242 Y80.96 E40.51794
G1 X91.658 Y81.205 E40.56573
G1 X93.093 Y81.117 E40.61355
G1 X94.468 Y80.702 E40.66132
G1 X95.712 Y79.981 E40.70914
G1 X96.755 Y78.993 E40.75693
G1 X97.544 Y77.791 E40.80475
G1 X98.035 Y76.44 E40.85256
G1 X98.2 Y75.025 E40.89994
G1 X98.2 Y49.387 E41.75267
G1 X98.046 Y48.018 E41.79849
G1 X97.587 Y46.708 E41.84465
G1 X96.848 Y45.533 E41.89082
G1 X95.866 Y44.55 E41.93703
G1 X94.69 Y43.812 E41.98321
G1 X93.38 Y43.353 E42.02938
G1 X92.011 Y43.198 E42.0752
G1 X64.6 Y43.198 E42.9869
G1 X63.143 Y43.373 E43.03571
G1 X61.759 Y43.892 E43.08487
G1 X60.537 Y44.723 E43.13402
G1 X59.546 Y45.821 E43.18321
G1 X58.844 Y47.121 E43.23235
G1 X58.468 Y48.551 E43.28153
G0 X58.465 Y48.751
G0 X58.025 Y48.743
G0 X57.965 Y48.742
G0 X28.33 Y24.906
G0 X28.4 Y24.836
;TYPE:WALL-INNER
G1 X47.6 Y24.836 E43.92013
G1 X47.6 Y21.571 E44.02872
G1 X64.4 Y21.571 E44.58749
G1 X64.4 Y24.836 E44.69609
G1 X83.6 Y24.836 E45.33468
G1 X83.6 Y21.571 E45.44328
G1 X100.4 Y21.571 E46.00205
G1 X100.4 Y24.836 E46.11064
G1 X119.6 Y24.836 E46.74923
G1 X119.6 Y21.571 E46.85783
G1 X136.4 Y21.571 E47.4166
G1 X136.4 Y24.836 E47.52519
G1 X155.6 Y24.836 E48.16379
G1 X155.6 Y21.571 E48.27238
G1 X172.4 Y21.571 E48.83115
G1 X172.4 Y24.836 E48.93975
G1 X191.6 Y24.836 E49.57834
G1 X191.6 Y21.571 E49.68694
G1 X206.488 Y21.57 E50.18211
G1 X206.687 Y21.57 E50.18873
G1 X206.687 Y21.769 E50.19301
G1 X206.686 Y31.104 E50.5035
G1 X206.572 Y32.216 E50.54068
G1 X206.238 Y33.267 E50.57736
G1 X205.7 Y34.226 E50.61393
G1 X204.95 Y35.085 E50.65186
G1 X150.925 Y85.611 E53.11211
G1 X148.499 Y88.108 E53.22791
G1 X146.313 Y90.836 E53.34418
G1 X144.397 Y93.76 E53.46045
G1 X142.77 Y96.854 E53.57672
G1 X141.444 Y100.089 E53.693
G1 X140.434 Y103.435 E53.80925
G1 X139.746 Y106.863 E53.92554
G1 X139.389 Y110.34 E54.04179
G1 X139.366 Y113.835 E54.15804
G1 X139.676 Y117.318 E54.27434
G1 X140.317 Y120.754 E54.39059
G1 X141.283 Y124.114 E54.50687
G1 X142.565 Y127.366 E54.62314
G1 X144.151 Y130.481 E54.7394
G1 X146.028 Y133.431 E54.85569
G1 X148.176 Y136.187 E54.97191
G1 X150.569 Y138.717 E55.08774
G1 X205.004 Y191.01 E57.59832
G1 X205.731 Y191.866 E57.63568
G1 X206.25 Y192.809 E57.67148
G1 X206.575 Y193.85 E57.70775
G1 X206.687 Y194.958 E57.74479
G1 X206.687 Y205.143 E58.08354
G1 X13.313 Y205.143 E64.51519
G1 X13.313 Y194.958 E64.85394
G1 X13.425 Y193.85 E64.89098
G1 X13.75 Y192.809 E64.92725
G1 X14.269 Y191.866 E64.96306
G1 X14.996 Y191.01 E65.00041
G1 X69.431 Y138.717 E67.51099
G1 X71.824 Y136.187 E67.62682
G1 X73.972 Y133.431 E67.74304
G1 X75.849 Y130.481 E67.85933
G1 X77.435 Y127.366 E67.97559
G1 X78.717 Y124.114 E68.09186
G1 X79.683 Y120.754 E68.20814
G1 X80.324 Y117.318 E68.32439
G1 X80.634 Y113.835 E68.44069
G1 X80.611 Y110.34 E68.55694
G1 X80.254 Y106.863 E68.67319
G1 X79.566 Y103.435 E68.78948
G1 X78.556 Y100.089 E68.90573
G1 X77.23 Y96.854 E69.02202
G1 X75.603 Y93.76 E69.13828
G1 X73.687 Y90.836 E69.25455
G1 X71.501 Y88.108 E69.37083
G1 X69.075 Y85.611 E69.48662
G1 X15.035 Y35.071 E71.94756
G1 X14.298 Y34.223 E71.98493
G1 X13.764 Y33.27 E72.02126
G1 X13.429 Y32.215 E72.05807
G1 X13.313 Y31.085 E72.09586
G1 X13.313 Y21.571 E72.41229
G1 X28.4 Y21.571 E72.91409
G1 X28.4 Y24.836 E73.02268
G0 X28.8 Y24.436
;TYPE:WALL-OUTER
G1 X47.2 Y24.436 E73.63467
G1 X47.2 Y21.171 E73.74326
G1 X64.8 Y21.171 E74.32864
G1 X64.8 Y24.436 E74.43724
G1 X83.2 Y24.436 E75.04922
G1 X83.2 Y21.171 E75.15782
G1 X100.8 Y21.171 E75.7432
G1 X100.8 Y24.436 E75.85179
G1 X119.2 Y24.436 E76.46378
G1 X119.2 Y21.171 E76.57237
G1 X136.8 Y21.171 E77.15775
G1 X136.8 Y24.436 E77.26634
G1 X155.2 Y24.436 E77.87833
G1 X155.2 Y21.171 E77.98692
G1 X172.8 Y21.171 E78.5723
G1 X172.8 Y24.436 E78.6809
G1 X191.2 Y24.436 E79.29288
G1 X191.2 Y21.171 E79.40148
G1 X206.887 Y21.17 E79.92323
G1 X207.087 Y21.17 E79.92988
G1 X207.087 Y21.37 E79.93419
G1 X207.086 Y31.126 E80.25868
G1 X206.966 Y32.296 E80.29779
G1 X206.609 Y33.421 E80.33705
G1 X206.601 Y33.439 E80.33771
G1 X206.03 Y34.456 E80.3765
G1 X205.238 Y35.363 E80.41655
G1 X151.205 Y85.897 E82.87718
G1 X148.799 Y88.373 E82.99201
G1 X146.637 Y91.071 E83.107
G1 X144.742 Y93.963 E83.222
G1 X143.133 Y97.023 E83.33699
G1 X141.821 Y100.223 E83.45202
G1 X140.822 Y103.532 E83.56698
G1 X140.142 Y106.923 E83.68201
G1 X139.789 Y110.362 E83.797
G1 X139.766 Y113.819 E83.91198
G1 X140.073 Y117.263 E84.02698
G1 X140.707 Y120.662 E84.14198
