;FLAVOR:Marlin
;TIME:1169
;Filament used: 2.35778m
;Layer height: 0.2
;MINX:97.74
;MINY:13.815
;MINZ:0.2
;MAXX:122.26
;MAXY:206.186
;MAXZ:8
;LINEARADVANCEPROCESSED
;Generated with Cura_SteamEngine 4.8.0
M140 S55
M105
M190 S55
M104 S220
M105
M109 S220
M82 ;absolute extrusion mode
G92 E0 ; Reset Extruder
G28 ; Home all axes
G29; Probe Bed
M500; Save to eprom
G1 Z2.0 F3000 ; Move Z Axis up little to prevent scratching of Heat Bed
G1 X0.1 Y20 Z0.3 F5000.0 ; Move to start position
G1 X0.1 Y200.0 Z0.3 F1500.0 E15 ; Draw the first line
G1 X0.4 Y200.0 Z0.3 F5000.0 ; Move to side a little
G1 X0.4 Y20 Z0.3 F1500.0 E30 ; Draw the second line
G92 E0 ; Reset Extruder
G1 Z2.0 F3000 ; Move Z Axis up little to prevent scratching of Heat Bed
G1 X5 Y20 Z0.3 F5000.0 ; Move over to prevent blob squish
G92 E0
G92 E0
G1 F2400 E-1.2
;LAYER_COUNT:40
M900 K0.000000 T0 ;added by LinearAdvanceSettingPlugin
;LAYER:0
M107
;MESH:f3f6c46e-2732-4cb4-bc6e-6e26756a4f2c.stl
G0 F3600 X110.79 Y26.789 Z0.2
;TYPE:WALL-INNER
G1 F2400 E0
G1 F3600 X111.828 Y27.31 E0.03863
G1 X112.959 Y27.579 E0.0773
G1 X114.121 Y27.579 E0.11594
G1 X115.252 Y27.31 E0.15461
G1 X116.29 Y26.789 E0.19324
G1 X117.179 Y26.042 E0.23186
G1 X117.873 Y25.112 E0.27046
G1 X118.334 Y24.045 E0.30911
G1 X118.536 Y22.9 E0.34779
G1 X118.468 Y21.74 E0.38643
G1 X118.135 Y20.627 E0.42507
G1 X117.554 Y19.62 E0.46374
G1 X116.756 Y18.775 E0.5024
G1 X115.786 Y18.137 E0.54101
G1 X114.694 Y17.739 E0.57967
G1 X113.54 Y17.605 E0.61831
G1 X112.386 Y17.739 E0.65695
G1 X111.294 Y18.137 E0.69561
G1 X110.324 Y18.775 E0.73422
G1 X109.526 Y19.62 E0.77288
G1 X108.945 Y20.627 E0.81155
G1 X108.612 Y21.74 E0.85019
G1 X108.544 Y22.9 E0.88884
G1 X108.746 Y24.045 E0.92751
G1 X109.206 Y25.112 E0.96615
G1 X109.901 Y26.042 E1.00477
G1 X110.79 Y26.789 E1.04339
G0 X111.011 Y26.453
;TYPE:WALL-OUTER
G1 X111.966 Y26.932 E1.07892
G1 X113.006 Y27.179 E1.11448
G1 X114.074 Y27.179 E1.15
G1 X115.114 Y26.932 E1.18555
G1 X116.069 Y26.453 E1.22109
G1 X116.886 Y25.766 E1.25659
G1 X117.524 Y24.91 E1.2921
G1 X117.948 Y23.929 E1.32764
G1 X118.134 Y22.877 E1.36318
G1 X118.071 Y21.81 E1.39873
G1 X117.765 Y20.786 E1.43427
G1 X117.231 Y19.861 E1.4698
G1 X116.497 Y19.084 E1.50535
G1 X115.605 Y18.497 E1.54086
G1 X114.601 Y18.131 E1.57641
G1 X113.54 Y18.008 E1.61193
G1 X112.479 Y18.131 E1.64746
G1 X111.475 Y18.497 E1.683
G1 X110.583 Y19.084 E1.71852
G1 X109.849 Y19.861 E1.75407
G1 X109.315 Y20.786 E1.78959
G1 X109.009 Y21.81 E1.82514
G1 X108.946 Y22.877 E1.86069
G1 X109.132 Y23.929 E1.89622
G1 X109.555 Y24.91 E1.93175
G1 X110.194 Y25.766 E1.96728
G1 X111.011 Y26.453 E2.00278
G0 X111.189 Y26.542
G0 X110.991 Y26.935
G0 X110.965 Y26.987
G0 X119.21 Y30.461
G0 X119.14 Y30.531
;TYPE:WALL-INNER
G1 X110.77 Y30.531 E2.28117
G1 X109.58 Y30.015 E2.32431
G1 X108.428 Y29.273 E2.36989
G1 X107.413 Y28.353 E2.41545
G1 X106.559 Y27.278 E2.46111
G1 X105.892 Y26.076 E2.50684
G1 X105.429 Y24.785 E2.55245
G1 X105.183 Y23.439 E2.59796
G1 X105.16 Y22.067 E2.6436
G1 X105.36 Y20.704 E2.68942
G1 X105.777 Y19.403 E2.73486
G1 X106.401 Y18.186 E2.78035
G1 X107.221 Y17.078 E2.8262
G1 X108.206 Y16.122 E2.87185
G1 X109.33 Y15.342 E2.91735
G1 X110.572 Y14.753 E2.96307
G1 X111.89 Y14.375 E3.00868
G1 X113.247 Y14.216 E3.05412
G1 X114.624 Y14.282 E3.09997
G1 X115.969 Y14.57 E3.14572
G1 X117.236 Y15.067 E3.19099
G1 X118.417 Y15.772 E3.23673
G1 X119.471 Y16.663 E3.28264
G1 X120.355 Y17.701 E3.32798
G1 X121.062 Y18.873 E3.37351
G1 X121.571 Y20.157 E3.41945
G1 X121.86 Y21.476 E3.46436
G1 X121.86 Y205.365 E9.58053
G1 X121.602 Y205.533 E9.59077
G1 X121.09 Y205.718 E9.60888
G1 X120.506 Y205.786 E9.62843
G1 X104.543 Y205.785 E10.15937
G1 X103.431 Y205.688 E10.19649
G1 X102.351 Y205.399 E10.23368
G1 X101.345 Y204.929 E10.27061
G1 X100.427 Y204.286 E10.30788
G1 X99.642 Y203.5 E10.34483
G1 X98.996 Y202.578 E10.38228
G1 X98.527 Y201.575 E10.4191
G1 X98.238 Y200.494 E10.45632
G1 X98.14 Y199.374 E10.49371
G1 X98.141 Y193.422 E10.69168
G1 X98.199 Y193.188 E10.6997
G1 X98.345 Y193.044 E10.70652
G1 X98.58 Y192.986 E10.71457
G1 X99.903 Y192.987 E10.75857
G1 X100.138 Y193.045 E10.76662
G1 X100.282 Y193.191 E10.77344
G1 X100.34 Y193.426 E10.78149
G1 X100.341 Y195.428 E10.84808
G1 X100.453 Y196.706 E10.89075
G1 X100.796 Y197.986 E10.93482
G1 X101.356 Y199.187 E10.9789
G1 X102.116 Y200.272 E11.02296
G1 X103.053 Y201.21 E11.06705
G1 X104.139 Y201.97 E11.11114
G1 X105.34 Y202.53 E11.15522
G1 X106.619 Y202.873 E11.19926
G1 X107.914 Y202.986 E11.24249
G1 X112.581 Y202.985 E11.39772
G1 X113.838 Y202.877 E11.43968
G1 X115.099 Y202.545 E11.48305
G1 X116.284 Y202.002 E11.52641
G1 X117.359 Y201.265 E11.56976
G1 X118.292 Y200.357 E11.61306
G1 X119.14 Y199.186 E11.66115
G1 X119.14 Y30.531 E17.27063
G0 X118.74 Y30.931
;TYPE:WALL-OUTER
G1 X110.687 Y30.931 E17.53848
G1 X109.391 Y30.369 E17.58546
G1 X108.184 Y29.591 E17.63322
G1 X107.12 Y28.627 E17.68098
G1 X106.225 Y27.5 E17.72884
G1 X105.525 Y26.24 E17.77678
G1 X105.043 Y24.894 E17.82434
G1 X104.784 Y23.475 E17.87231
G1 X104.759 Y22.04 E17.92005
G1 X104.969 Y20.614 E17.96799
G1 X105.406 Y19.251 E18.01559
G1 X106.062 Y17.971 E18.06343
G1 X106.918 Y16.814 E18.1113
G1 X107.951 Y15.812 E18.15917
G1 X109.127 Y14.996 E18.20677
G1 X110.433 Y14.376 E18.25486
G1 X111.807 Y13.982 E18.3024
G1 X113.238 Y13.815 E18.35032
G1 X114.673 Y13.883 E18.3981
G1 X116.083 Y14.185 E18.44606
G1 X117.413 Y14.707 E18.49358
G1 X118.653 Y15.448 E18.54163
G1 X119.75 Y16.375 E18.5894
G1 X120.683 Y17.47 E18.63724
G1 X121.422 Y18.696 E18.68486
G1 X121.955 Y20.038 E18.73288
G1 X122.26 Y21.432 E18.78034
G1 X122.26 Y205.582 E24.9052
G1 X121.781 Y205.893 E24.92419
G1 X121.183 Y206.11 E24.94535
G1 X120.526 Y206.186 E24.96735
G1 X104.531 Y206.185 E25.49934
G1 X103.36 Y206.083 E25.53844
G1 X102.215 Y205.776 E25.57787
G1 X101.142 Y205.275 E25.61725
G1 X100.168 Y204.593 E25.6568
G1 X99.333 Y203.757 E25.6961
G1 X98.651 Y202.784 E25.73562
G1 X98.15 Y201.711 E25.77501
G1 X97.843 Y200.565 E25.81447
G1 X97.74 Y199.386 E25.85383
G1 X97.741 Y193.392 E26.05319
G1 X97.77 Y193.174 E26.06051
G1 X97.851 Y192.984 E26.06738
G1 X97.98 Y192.818 E26.07437
G1 X98.145 Y192.694 E26.08123
G1 X98.336 Y192.614 E26.08812
G1 X98.551 Y192.586 E26.09533
G1 X99.934 Y192.587 E26.14133
G1 X100.152 Y192.616 E26.14865
G1 X100.342 Y192.697 E26.15552
G1 X100.508 Y192.826 E26.16251
G1 X100.632 Y192.991 E26.16937
G1 X100.712 Y193.182 E26.17626
G1 X100.74 Y193.397 E26.18347
G1 X100.741 Y195.41 E26.25042
G1 X100.848 Y196.636 E26.29136
G1 X101.173 Y197.849 E26.33312
G1 X101.704 Y198.986 E26.37486
G1 X102.424 Y200.014 E26.4166
G1 X103.311 Y200.902 E26.45835
G1 X104.34 Y201.622 E26.50012
G1 X105.477 Y202.153 E26.54186
G1 X106.689 Y202.478 E26.58359
G1 X107.931 Y202.586 E26.62506
G1 X112.564 Y202.585 E26.77915
G1 X113.769 Y202.481 E26.81938
G1 X114.964 Y202.167 E26.86048
G1 X116.086 Y201.653 E26.90152
G1 X117.104 Y200.955 E26.94258
G1 X117.988 Y200.094 E26.98362
G1 X118.74 Y199.056 E27.02625
G1 X118.74 Y30.931 E32.61811
G0 X118.54 Y30.931
G0 X118.54 Y30.491
G0 X118.54 Y30.431
G0 X119.53 Y30.141
;TYPE:SKIN
G1 X110.85 Y30.141 E32.90681
G1 X109.766 Y29.671 E32.94611
G1 X108.667 Y28.963 E32.98959
G1 X107.699 Y28.086 E33.03303
G1 X106.884 Y27.06 E33.07661
G1 X106.248 Y25.915 E33.12018
G1 X105.807 Y24.685 E33.16364
G1 X105.573 Y23.399 E33.20711
G1 X105.55 Y22.093 E33.25056
G1 X105.742 Y20.789 E33.2944
G1 X106.137 Y19.555 E33.33749
G1 X106.733 Y18.394 E33.3809
G1 X107.518 Y17.332 E33.42482
G1 X108.455 Y16.423 E33.46824
G1 X109.52 Y15.684 E33.51135
G1 X110.714 Y15.118 E33.5553
G1 X111.963 Y14.759 E33.59853
G1 X113.261 Y14.608 E33.64199
G1 X114.572 Y14.67 E33.68564
G1 X115.862 Y14.946 E33.72952
G1 X117.062 Y15.418 E33.77241
G1 X118.189 Y16.09 E33.81605
G1 X119.195 Y16.941 E33.85988
G1 X120.039 Y17.931 E33.90314
G1 X120.71 Y19.043 E33.94634
G1 X121.197 Y20.274 E33.99037
G1 X121.47 Y21.519 E34.03277
G1 X121.47 Y205.153 E40.14046
G1 X121.001 Y205.336 E40.1572
G1 X120.479 Y205.396 E40.17468
G1 X104.553 Y205.395 E40.70438
G1 X103.504 Y205.304 E40.7394
G1 X102.481 Y205.03 E40.77462
G1 X101.546 Y204.593 E40.80895
G1 X100.674 Y203.982 E40.84436
G1 X99.946 Y203.253 E40.87863
G1 X99.334 Y202.379 E40.91412
G1 X98.895 Y201.442 E40.94853
G1 X98.622 Y200.421 E40.98369
G1 X98.53 Y199.374 E41.01864
G1 X98.531 Y193.468 E41.21508
G1 X98.549 Y193.395 E41.21758
G1 X98.629 Y193.376 E41.22031
G1 X99.857 Y193.377 E41.26116
G1 X99.931 Y193.395 E41.26369
G1 X99.95 Y193.475 E41.26642
G1 X99.951 Y195.445 E41.33195
G1 X100.067 Y196.774 E41.37632
G1 X100.428 Y198.12 E41.42267
G1 X101.017 Y199.382 E41.46899
G1 X101.816 Y200.524 E41.51535
G1 X102.801 Y201.51 E41.5617
G1 X103.944 Y202.309 E41.60808
G1 X105.206 Y202.898 E41.65441
G1 X106.551 Y203.259 E41.70072
G1 X107.897 Y203.376 E41.74566
G1 X112.598 Y203.375 E41.90202
G1 X113.905 Y203.263 E41.94565
G1 X115.231 Y202.914 E41.99125
G1 X116.477 Y202.343 E42.03684
G1 X117.607 Y201.567 E42.08243
G1 X118.588 Y200.613 E42.12794
G1 X119.53 Y199.313 E42.18134
G1 X119.53 Y30.141 E47.80802
G0 X116.506 Y27.117
G1 X117.464 Y26.311 E47.84966
G1 X118.213 Y25.309 E47.89127
G1 X118.71 Y24.158 E47.93297
G1 X118.928 Y22.923 E47.97468
G1 X118.854 Y21.672 E48.01636
G1 X118.496 Y20.471 E48.05805
G1 X117.869 Y19.386 E48.09973
G1 X117.008 Y18.474 E48.14144
G1 X115.962 Y17.786 E48.18308
G1 X114.784 Y17.357 E48.22478
G1 X113.54 Y17.213 E48.26643
G1 X112.296 Y17.357 E48.30808
G1 X111.118 Y17.786 E48.34978
G1 X110.072 Y18.474 E48.39142
G1 X109.211 Y19.386 E48.43314
G1 X108.584 Y20.471 E48.47482
G1 X108.226 Y21.672 E48.5165
G1 X108.152 Y22.923 E48.55818
G1 X108.37 Y24.158 E48.59989
G1 X108.866 Y25.309 E48.64158
G1 X109.616 Y26.311 E48.68321
G1 X110.574 Y27.117 E48.72485
G1 X111.694 Y27.679 E48.76652
G1 X112.914 Y27.969 E48.80823
G1 X114.166 Y27.969 E48.84987
G1 X115.386 Y27.679 E48.89158
G1 X116.506 Y27.117 E48.93326
G0 X117.907 Y25.132
G0 X118.372 Y24.056
G0 X118.575 Y22.902
G0 X118.027 Y16.204
G1 X119.942 Y18.119 E49.02334
G1 X120.012 Y18.189
G0 X120.656 Y19.398
G1 X116.744 Y15.486 E49.20734
G1 X116.674 Y15.416
G0 X115.812 Y15.12
G1 X121.026 Y20.334 E49.4526
G0 X121.184 Y21.058
G1 X115.092 Y14.965 E49.73917
G0 X114.403 Y14.842
G1 X121.29 Y21.729 E50.06311
G0 X121.29 Y22.295
G1 X113.809 Y14.814 E50.41499
G0 X113.223 Y14.794
G1 X116.074 Y17.645 E50.5491
G1 X116.144 Y17.715
G0 X115.17 Y17.307
G1 X112.716 Y14.852 E50.66455
G0 X112.21 Y14.912
G1 X114.433 Y17.135 E50.76911
G0 X113.793 Y17.061
G1 X111.741 Y15.009 E50.86563
G0 X111.302 Y15.135
G1 X113.233 Y17.067 E50.95648
G0 X112.726 Y17.126
G1 X110.863 Y15.262 E51.04414
G0 X110.468 Y15.433
G1 X112.226 Y17.191 E51.12683
G0 X111.811 Y17.341
G1 X110.085 Y15.615 E51.20801
G0 X109.701 Y15.798
G1 X111.396 Y17.493 E51.28774
G0 X110.991 Y17.653
G1 X109.355 Y16.017 E51.36469
G0 X109.021 Y16.248
G1 X110.65 Y17.877 E51.44132
G0 X110.309 Y18.102
G1 X108.687 Y16.48 E51.51761
G0 X108.383 Y16.742
G1 X109.967 Y18.326 E51.59212
G0 X109.691 Y18.616
G1 X108.096 Y17.021 E51.66714
G0 X107.809 Y17.3
G1 X109.416 Y18.907 E51.74273
G0 X109.141 Y19.197
G1 X107.543 Y17.599 E51.81789
G0 X107.302 Y17.924
G1 X108.915 Y19.537 E51.89376
G0 X108.707 Y19.895
G1 X107.062 Y18.249 E51.97116
G0 X106.834 Y18.587
G1 X108.5 Y20.253 E52.04953
G0 X108.339 Y20.658
G1 X106.642 Y18.961 E52.12935
G0 X106.45 Y19.335
G1 X108.209 Y21.094 E52.21209
G0 X108.079 Y21.529
G1 X106.27 Y19.72 E52.29718
G0 X106.133 Y20.149
G1 X108.023 Y22.039 E52.38608
G0 X107.992 Y22.573
G1 X105.996 Y20.577 E52.47996
G0 X105.886 Y21.033
G1 X108.01 Y23.157 E52.57987
G0 X108.132 Y23.845
G1 X105.813 Y21.526 E52.68895
G0 X105.74 Y22.019
G1 X108.395 Y24.674 E52.81383
G1 X108.465 Y24.744
G0 X109.165 Y26.009
G1 X105.737 Y22.581 E52.97507
G0 X105.747 Y23.157
G1 X112.55 Y29.96 E53.29507
G0 X111.985 Y29.96
G1 X105.829 Y23.804 E53.58463
G0 X105.955 Y24.496
G1 X111.419 Y29.96 E53.84163
G0 X110.828 Y29.935
G1 X106.231 Y25.338 E54.05786
G1 X106.161 Y25.268
G0 X106.716 Y26.389
G1 X109.817 Y29.49 E54.20373
G1 X109.887 Y29.56
G0 X111.509 Y27.787
G1 X113.682 Y29.96 E54.30594
G0 X114.247 Y29.96
G1 X112.294 Y28.007 E54.3978
G0 X113.002 Y28.149
G1 X114.813 Y29.96 E54.48298
G0 X115.379 Y29.96
G1 X113.567 Y28.149 E54.56819
G0 X114.133 Y28.149
G1 X115.945 Y29.96 E54.6534
G0 X116.51 Y29.96
G1 X114.6 Y28.05 E54.74324
G0 X115.058 Y27.942
G1 X117.076 Y29.96 E54.83816
G0 X117.642 Y29.96
G1 X115.503 Y27.821 E54.93877
G0 X115.879 Y27.632
G1 X118.207 Y29.96 E55.04827
G0 X118.773 Y29.96
G1 X116.256 Y27.443 E55.16667
G0 X116.628 Y27.249
G1 X119.339 Y29.96 E55.29418
G0 X119.709 Y30.331
G1 X121.29 Y31.911 E55.36852
G0 X121.29 Y31.346
G1 X116.934 Y26.99 E55.57342
G0 X117.242 Y26.732
G1 X121.29 Y30.78 E55.76382
G0 X121.29 Y30.214
G1 X117.549 Y26.474 E55.93976
G0 X117.8 Y26.159
G1 X121.29 Y29.648 E56.1039
G0 X121.29 Y29.083
G1 X118.042 Y25.836 E56.25665
G0 X118.284 Y25.512
G1 X121.29 Y28.517 E56.39802
G0 X121.29 Y27.951
G1 X118.48 Y25.142 E56.53017
G0 X118.651 Y24.747
G1 X121.29 Y27.386 E56.6543
G0 X121.29 Y26.82
G1 X118.821 Y24.352 E56.77041
G0 X118.936 Y23.901
G1 X121.29 Y26.254 E56.88111
G0 X121.29 Y25.689
G1 X119.021 Y23.42 E56.98784
G0 X119.106 Y22.939
G1 X121.29 Y25.123 E57.09057
G0 X121.29 Y24.557
G1 X119.072 Y22.34 E57.19487
G0 X119.036 Y21.738
G1 X121.29 Y23.992 E57.3009
G0 X121.29 Y23.426
G1 X118.83 Y20.967 E57.41658
G1 X118.76 Y20.897
G0 X118.433 Y20.004
G1 X121.29 Y22.86 E57.55094
G1 X121.36 Y22.93
G0 X119.709 Y30.897
G1 X121.29 Y32.477 E57.62529
G0 X121.29 Y33.043
G1 X119.709 Y31.462 E57.69965
G0 X119.709 Y32.028
G1 X121.29 Y33.608 E57.77399
G0 X121.29 Y34.174
G1 X119.709 Y32.594 E57.84834
G0 X119.709 Y33.159
G1 X121.29 Y34.74 E57.9227
G0 X121.29 Y35.305
G1 X119.709 Y33.725 E57.99704
G0 X119.709 Y34.291
G1 X121.29 Y35.871 E58.07138
G0 X121.29 Y36.437
G1 X119.709 Y34.856 E58.14575
G0 X119.709 Y35.422
G1 X121.29 Y37.002 E58.22009
G0 X121.29 Y37.568
G1 X119.709 Y35.988 E58.29443
G0 X119.709 Y36.553
G1 X121.29 Y38.134 E58.3688
G0 X121.29 Y38.699
G1 X119.709 Y37.119 E58.44314
G0 X119.709 Y37.685
G1 X121.29 Y39.265 E58.51748
G0 X121.29 Y39.831
G1 X119.709 Y38.25 E58.59185
G0 X119.709 Y38.816
G1 X121.29 Y40.397 E58.66621
G0 X121.29 Y40.962
G1 X119.709 Y39.382 E58.74056
G0 X119.709 Y39.947
G1 X121.29 Y41.528 E58.81492
G0 X121.29 Y42.094
G1 X119.709 Y40.513 E58.88929
G0 X119.709 Y41.079
G1 X121.29 Y42.659 E58.96363
G0 X121.29 Y43.225
G1 X119.709 Y41.645 E59.03797
G0 X119.709 Y42.21
G1 X121.29 Y43.791 E59.11234
G0 X121.29 Y44.356
G1 X119.709 Y42.776 E59.18668
G0 X119.709 Y43.342
G1 X121.29 Y44.922 E59.26102
G0 X121.29 Y45.488
G1 X119.709 Y43.907 E59.33538
G0 X119.709 Y44.473
G1 X121.29 Y46.053 E59.40973
G0 X121.29 Y46.619
G1 X119.709 Y45.039 E59.48407
G0 X119.709 Y45.604
G1 X121.29 Y47.185 E59.55843
G0 X121.29 Y47.75
G1 X119.709 Y46.17 E59.63278
G0 X119.709 Y46.736
G1 X121.29 Y48.316 E59.70712
G0 X121.29 Y48.882
G1 X119.709 Y47.301 E59.78148
G0 X119.709 Y47.867
G1 X121.29 Y49.447 E59.85582
G0 X121.29 Y50.013
G1 X119.709 Y48.433 E59.93017
G0 X119.709 Y48.998
G1 X121.29 Y50.579 E60.00453
G0 X121.29 Y51.145
G1 X119.709 Y49.564 E60.0789
G0 X119.709 Y50.13
G1 X121.29 Y51.71 E60.15324
G0 X121.29 Y52.276
G1 X119.709 Y50.696 E60.22758
G0 X119.709 Y51.261
G1 X121.29 Y52.842 E60.30195
G0 X121.29 Y53.407
G1 X119.709 Y51.827 E60.37629
G0 X119.709 Y52.393
G1 X121.29 Y53.973 E60.45063
G0 X121.29 Y54.539
G1 X119.709 Y52.958 E60.525
G0 X119.709 Y53.524
G1 X121.29 Y55.104 E60.59934
G0 X121.29 Y55.67
G1 X119.709 Y54.09 E60.67368
G0 X119.709 Y54.655
G1 X121.29 Y56.236 E60.74804
G0 X121.29 Y56.801
G1 X119.709 Y55.221 E60.82239
G0 X119.709 Y55.787
G1 X121.29 Y57.367 E60.89673
G0 X121.29 Y57.933
G1 X119.709 Y56.352 E60.97109
G0 X119.709 Y56.918
G1 X121.29 Y58.498 E61.04544
G0 X121.29 Y59.064
G1 X119.709 Y57.484 E61.11978
G0 X119.709 Y58.049
G1 X121.29 Y59.63 E61.19414
G0 X121.29 Y60.196
G1 X119.709 Y58.615 E61.26851
G0 X119.709 Y59.181
G1 X121.29 Y60.761 E61.34285
G0 X121.29 Y61.327
G1 X119.709 Y59.746 E61.41722
G0 X119.709 Y60.312
G1 X121.29 Y61.893 E61.49158
G0 X121.29 Y62.458
G1 X119.709 Y60.878 E61.56592
G0 X119.709 Y61.444
G1 X121.29 Y63.024 E61.64026
G0 X121.29 Y63.59
G1 X119.709 Y62.009 E61.71463
