;FLAVOR:Marlin
;TIME:4481
;Filament used: 8.21733m
;Layer height: 0.2
;MINX:84.28
;MINY:74.5
;MINZ:0.2
;MAXX:135.72
;MAXY:146.361
;MAXZ:30
;LINEARADVANCEPROCESSED
;Generated with Cura_SteamEngine 4.8.0
M140 S55
M105
M190 S55
M104 S220
M105
M109 S220
M82 ;absolute extrusion mode
G92 E0 ; Reset Extruder
G28 ; Home all axes
G29; Probe Bed
M500; Save to eprom
G1 Z2.0 F3000 ; Move Z Axis up little to prevent scratching of Heat Bed
G1 X0.1 Y20 Z0.3 F5000.0 ; Move to start position
G1 X0.1 Y200.0 Z0.3 F1500.0 E15 ; Draw the first line
G1 X0.4 Y200.0 Z0.3 F5000.0 ; Move to side a little
G1 X0.4 Y20 Z0.3 F1500.0 E30 ; Draw the second line
G92 E0 ; Reset Extruder
G1 Z2.0 F3000 ; Move Z Axis up little to prevent scratching of Heat Bed
G1 X5 Y20 Z0.3 F5000.0 ; Move over to prevent blob squish
G92 E0
G92 E0
G1 F2400 E-1.2
;LAYER_COUNT:150
M900 K0.000000 T0 ;added by LinearAdvanceSettingPlugin
;LAYER:0
M107
G0 F3600 X84.4 Y89.546 Z0.2
;TYPE:SUPPORT
G1 F2400 E0
G1 F3600 X84.4 Y96.165 E0.22015
G1 X84.281 Y96.047 E0.22572
G1 X84.28 Y89.665 E0.43799
G1 X84.4 Y89.546 E0.44361
G0 X84.4 Y119.746
G1 X84.4 Y126.365 E0.66376
G1 X84.281 Y126.247 E0.66933
G1 X84.28 Y119.865 E0.8816
G1 X84.4 Y119.746 E0.88722
G1 F2400 E-0.31278
G0 F3600 X84.639 Y145.857
G0 X85.143 Y146.361
G0 X134.857 Y146.361
G0 X135.361 Y145.857
G0 X135.6 Y119.736
G1 F2400 E0.88722
G1 F3600 X135.719 Y119.855 E0.89282
G1 X135.72 Y126.235 E1.10502
G1 X135.6 Y126.354 E1.11064
G1 X135.6 Y119.736 E1.33075
G0 X135.6 Y96.154
G1 X135.6 Y89.536 E1.55087
G1 X135.719 Y89.655 E1.55647
G1 X135.72 Y96.035 E1.76867
G1 X135.6 Y96.154 E1.77429
G1 F2400 E0.57429
;MESH:3375e8ec-07ad-4081-a0fb-d52ce6f266e8.stl
G0 F3600 X134.08 Y96.154
G0 X110.013 Y113.211
G0 X108.37 Y114.08
G0 X108.34 Y113.985
;TYPE:WALL-INNER
G1 F2400 E1.77429
G1 F3600 X109.194 Y113.639 E1.80493
G1 X109.991 Y113.178 E1.83556
G1 X110.717 Y112.612 E1.86618
G1 X111.357 Y111.95 E1.8968
G1 X111.898 Y111.204 E1.92745
G1 X112.33 Y110.392 E1.95804
G1 X112.646 Y109.526 E1.9887
G1 X112.838 Y108.625 E2.01934
G1 X112.901 Y107.706 E2.04998
G1 X112.838 Y106.787 E2.08062
G1 X112.646 Y105.886 E2.11126
G1 X112.33 Y105.021 E2.14189
G1 X111.898 Y104.209 E2.17248
G1 X111.357 Y103.463 E2.20313
G1 X110.717 Y102.8 E2.23378
G1 X109.991 Y102.234 E2.2644
G1 X109.194 Y101.773 E2.29502
G1 X108.34 Y101.428 E2.32566
G1 X107.446 Y101.205 E2.3563
G1 X106.53 Y101.109 E2.38693
G1 X105.61 Y101.141 E2.41755
G1 X104.703 Y101.3 E2.44818
G1 X103.827 Y101.585 E2.47882
G1 X102.999 Y101.989 E2.50946
G1 X102.236 Y102.504 E2.54008
G1 X101.552 Y103.121 E2.57072
G1 X100.96 Y103.826 E2.60133
G1 X100.471 Y104.607 E2.63198
G1 X100.097 Y105.448 E2.6626
G1 X99.843 Y106.334 E2.69325
G1 X99.715 Y107.246 E2.72388
G1 X99.715 Y108.167 E2.75451
G1 X99.843 Y109.079 E2.78514
G1 X100.097 Y109.964 E2.81577
G1 X100.471 Y110.805 E2.84638
G1 X100.96 Y111.587 E2.87706
G1 X101.552 Y112.292 E2.90768
G1 X102.236 Y112.908 E2.93829
G1 X102.999 Y113.423 E2.96891
G1 X103.827 Y113.827 E2.99955
G1 X104.703 Y114.112 E3.03019
G1 X105.61 Y114.271 E3.06082
G1 X106.53 Y114.304 E3.09144
G1 X107.446 Y114.207 E3.12207
G1 X108.34 Y113.985 E3.15271
G0 X108.216 Y113.604
;TYPE:WALL-OUTER
G1 X109.018 Y113.279 E3.18149
G1 X109.767 Y112.846 E3.21027
G1 X110.449 Y112.314 E3.23904
G1 X111.05 Y111.692 E3.2678
G1 X111.558 Y110.992 E3.29657
G1 X111.964 Y110.229 E3.32532
G1 X112.261 Y109.415 E3.35414
G1 X112.441 Y108.569 E3.3829
G1 X112.5 Y107.706 E3.41168
G1 X112.441 Y106.843 E3.44045
G1 X112.261 Y105.997 E3.46921
G1 X111.964 Y105.184 E3.498
G1 X111.558 Y104.421 E3.52675
G1 X111.05 Y103.721 E3.55552
G1 X110.449 Y103.098 E3.58431
G1 X109.767 Y102.566 E3.61308
G1 X109.018 Y102.133 E3.64185
G1 X108.216 Y101.809 E3.67062
G1 X107.377 Y101.6 E3.69938
G1 X106.516 Y101.51 E3.72817
G1 X105.652 Y101.54 E3.75692
G1 X104.8 Y101.689 E3.78569
G1 X103.977 Y101.957 E3.81448
G1 X103.2 Y102.336 E3.84323
G1 X102.483 Y102.82 E3.87201
G1 X101.84 Y103.399 E3.90079
G1 X101.284 Y104.062 E3.92956
G1 X100.825 Y104.795 E3.95833
G1 X100.474 Y105.585 E3.98708
G1 X100.235 Y106.417 E4.01587
G1 X100.115 Y107.274 E4.04466
G1 X100.115 Y108.139 E4.07343
G1 X100.235 Y108.996 E4.10221
G1 X100.474 Y109.827 E4.13097
G1 X100.825 Y110.617 E4.15972
G1 X101.284 Y111.351 E4.18851
G1 X101.84 Y112.013 E4.21727
G1 X102.483 Y112.592 E4.24605
G1 X103.2 Y113.076 E4.27482
G1 X103.977 Y113.455 E4.30357
G1 X104.8 Y113.723 E4.33236
G1 X105.652 Y113.872 E4.36113
G1 X106.516 Y113.903 E4.38988
G1 X107.377 Y113.812 E4.41868
G1 X108.216 Y113.604 E4.44743
G0 X108.401 Y113.529
G0 X108.566 Y113.937
G0 X108.587 Y113.992
G0 X134.03 Y145.03
G0 X134.1 Y145.1
;TYPE:WALL-INNER
G1 X85.9 Y145.1 E6.05057
G1 X85.9 Y74.9 E8.38543
G1 X134.1 Y74.9 E9.98857
G1 X134.1 Y145.1 E12.32343
G0 X134.5 Y145.5
;TYPE:WALL-OUTER
G1 X85.5 Y145.5 E13.95318
G1 X85.5 Y74.5 E16.31464
G1 X134.5 Y74.5 E17.94439
G1 X134.5 Y145.5 E20.30586
G0 X134.3 Y145.5
G0 X134.06 Y145.06
G0 X133.71 Y144.71
;TYPE:SKIN
G1 X86.29 Y144.71 E21.88306
G1 X86.29 Y75.29 E24.19198
G1 X133.71 Y75.29 E25.76917
G1 X133.71 Y144.71 E28.07809
G0 X110.209 Y113.502
G1 X110.978 Y112.903 E28.11051
G1 X111.657 Y112.201 E28.14299
G1 X112.23 Y111.411 E28.17545
G1 X112.687 Y110.552 E28.20782
G1 X113.022 Y109.634 E28.24032
G1 X113.226 Y108.679 E28.2728
G1 X113.291 Y107.706 E28.30523
G1 X113.226 Y106.733 E28.33767
G1 X113.022 Y105.778 E28.37015
G1 X112.687 Y104.861 E28.40262
G1 X112.23 Y104.002 E28.43498
G1 X111.657 Y103.212 E28.46744
G1 X110.978 Y102.509 E28.49995
G1 X110.209 Y101.91 E28.53237
G1 X109.366 Y101.422 E28.56476
G1 X108.461 Y101.056 E28.59723
G1 X107.514 Y100.82 E28.62969
G1 X106.544 Y100.719 E28.66213
G1 X105.569 Y100.753 E28.69458
G1 X104.609 Y100.92 E28.72699
G1 X103.681 Y101.222 E28.75945
G1 X102.804 Y101.65 E28.7919
G1 X101.995 Y102.196 E28.82437
G1 X101.271 Y102.85 E28.85682
G1 X100.644 Y103.596 E28.88923
G1 X100.126 Y104.424 E28.92171
G1 X99.73 Y105.314 E28.95411
G1 X99.461 Y106.252 E28.98657
G1 X99.325 Y107.219 E29.01905
G1 X99.325 Y108.194 E29.05148
G1 X99.461 Y109.161 E29.08395
G1 X99.73 Y110.098 E29.11638
G1 X100.126 Y110.988 E29.14878
G1 X100.644 Y111.817 E29.18129
G1 X101.271 Y112.563 E29.2137
G1 X101.996 Y113.216 E29.24616
G1 X102.804 Y113.762 E29.27859
G1 X103.681 Y114.19 E29.31105
G1 X104.609 Y114.492 E29.34351
G1 X105.569 Y114.659 E29.37592
G1 X106.544 Y114.694 E29.40836
G1 X107.514 Y114.592 E29.4408
G1 X108.461 Y114.357 E29.47326
G1 X109.366 Y113.99 E29.50574
G1 X110.209 Y113.502 E29.53814
G0 X86.829 Y144.529
G1 X86.469 Y144.169 E29.55507
G0 X86.469 Y143.603
G1 X87.394 Y144.529 E29.5986
G0 X87.96 Y144.529
G1 X86.469 Y143.037 E29.66876
G0 X86.469 Y142.472
G1 X88.526 Y144.529 E29.76551
G0 X89.091 Y144.529
G1 X86.469 Y141.906 E29.88887
G0 X86.469 Y141.34
G1 X89.657 Y144.529 E30.03884
G0 X90.223 Y144.529
G1 X86.469 Y140.775 E30.21542
G0 X86.469 Y140.209
G1 X90.788 Y144.529 E30.4186
G0 X91.354 Y144.529
G1 X86.469 Y139.643 E30.6484
G0 X86.469 Y139.078
G1 X91.92 Y144.529 E30.90479
G0 X92.486 Y144.529
G1 X86.469 Y138.512 E31.18782
G0 X86.469 Y137.946
G1 X93.051 Y144.529 E31.49744
G0 X93.617 Y144.529
G1 X86.469 Y137.38 E31.83368
G0 X86.469 Y136.815
G1 X94.183 Y144.529 E32.19652
G0 X94.748 Y144.529
G1 X86.469 Y136.249 E32.58596
G0 X86.469 Y135.683
G1 X95.314 Y144.529 E33.00203
G0 X95.88 Y144.529
G1 X86.469 Y135.118 E33.44469
G0 X86.469 Y134.552
G1 X96.445 Y144.529 E33.91396
G0 X97.011 Y144.529
G1 X86.469 Y133.986 E34.40985
G0 X86.469 Y133.421
G1 X97.577 Y144.529 E34.93233
G0 X98.142 Y144.529
G1 X86.469 Y132.855 E35.48142
G0 X86.469 Y132.289
G1 X98.708 Y144.529 E36.05713
G0 X99.274 Y144.529
G1 X86.469 Y131.724 E36.65943
G0 X86.469 Y131.158
G1 X99.839 Y144.529 E37.28834
G0 X100.405 Y144.529
G1 X86.469 Y130.592 E37.94387
G0 X86.469 Y130.027
G1 X100.971 Y144.529 E38.626
G0 X101.536 Y144.529
G1 X86.469 Y129.461 E39.33473
G0 X86.469 Y128.895
G1 X102.102 Y144.529 E40.07008
G0 X102.668 Y144.529
G1 X86.469 Y128.329 E40.83206
G0 X86.469 Y127.764
G1 X103.234 Y144.529 E41.62063
G0 X103.799 Y144.529
G1 X86.469 Y127.198 E42.4358
G0 X86.469 Y126.632
G1 X104.365 Y144.529 E43.2776
G0 X104.931 Y144.529
G1 X86.469 Y126.067 E44.146
G0 X86.469 Y125.501
G1 X105.496 Y144.529 E45.04099
G0 X106.062 Y144.529
G1 X86.469 Y124.935 E45.96261
G0 X86.469 Y124.37
G1 X106.628 Y144.529 E46.91083
G0 X107.193 Y144.529
G1 X86.469 Y123.804 E47.88564
G0 X86.469 Y123.238
G1 X107.759 Y144.529 E48.88708
G0 X108.325 Y144.529
G1 X86.469 Y122.673 E49.91512
G0 X86.469 Y122.107
G1 X108.89 Y144.529 E50.96976
G0 X109.456 Y144.529
G1 X86.469 Y121.541 E52.05102
G0 X86.469 Y120.976
G1 X110.022 Y144.529 E53.15889
G0 X110.587 Y144.529
G1 X86.469 Y120.41 E54.29335
G0 X86.469 Y119.844
G1 X111.153 Y144.529 E55.45443
G0 X111.719 Y144.529
G1 X86.469 Y119.279 E56.64211
G0 X86.469 Y118.713
G1 X112.285 Y144.529 E57.85642
G0 X112.85 Y144.529
G1 X86.469 Y118.147 E59.09732
G0 X86.469 Y117.581
G1 X113.416 Y144.529 E60.36485
G0 X113.982 Y144.529
G1 X86.469 Y117.016 E61.65898
G0 X86.469 Y116.45
G1 X114.547 Y144.529 E62.9797
G0 X115.113 Y144.529
G1 X86.469 Y115.884 E64.32705
G0 X86.469 Y115.319
G1 X115.679 Y144.529 E65.701
G0 X116.244 Y144.529
G1 X86.469 Y114.753 E67.10155
G0 X86.469 Y114.187
G1 X116.81 Y144.529 E68.52872
G0 X117.376 Y144.529
G1 X86.469 Y113.622 E69.98249
G0 X86.469 Y113.056
G1 X117.941 Y144.529 E71.46286
G0 X118.507 Y144.529
G1 X86.469 Y112.49 E72.96985
G0 X86.469 Y111.925
G1 X119.073 Y144.529 E74.50345
G0 X119.638 Y144.529
G1 X86.469 Y111.359 E76.06364
G0 X86.469 Y110.793
G1 X120.204 Y144.529 E77.65045
G0 X120.77 Y144.529
G1 X86.469 Y110.228 E79.26387
G0 X86.469 Y109.662
G1 X121.335 Y144.529 E80.90388
G0 X121.901 Y144.529
G1 X86.469 Y109.096 E82.57052
G0 X86.469 Y108.53
G1 X122.467 Y144.529 E84.26377
G0 X123.033 Y144.529
G1 X86.469 Y107.965 E85.98363
G0 X86.469 Y107.399
G1 X123.598 Y144.529 E87.73009
G0 X124.164 Y144.529
G1 X86.469 Y106.833 E89.50317
G0 X86.469 Y106.268
G1 X124.73 Y144.529 E91.30285
G0 X125.295 Y144.529
G1 X86.469 Y105.702 E93.12913
G0 X86.469 Y105.136
G1 X125.861 Y144.529 E94.98203
G0 X126.427 Y144.529
G1 X86.469 Y104.571 E96.86154
G0 X86.469 Y104.005
G1 X126.992 Y144.529 E98.76764
G0 X127.558 Y144.529
G1 X86.469 Y103.439 E100.70036
G0 X86.469 Y102.874
G1 X128.124 Y144.529 E102.65968
G0 X128.689 Y144.529
G1 X86.469 Y102.308 E104.64561
G0 X86.469 Y101.742
G1 X129.255 Y144.529 E106.65815
G0 X129.821 Y144.529
G1 X86.469 Y101.177 E108.6973
G0 X86.469 Y100.611
G1 X130.386 Y144.529 E110.76304
G0 X130.952 Y144.529
G1 X86.469 Y100.045 E112.85541
G0 X86.469 Y99.48
G1 X131.518 Y144.529 E114.97438
G0 X132.084 Y144.529
G1 X86.469 Y98.914 E117.11997
G0 X86.469 Y98.348
G1 X132.649 Y144.529 E119.29216
G0 X133.215 Y144.529
G1 X102.375 Y113.689 E120.74277
G1 X102.305 Y113.619
G0 X103.604 Y114.352
G1 X133.53 Y144.278 E122.1504
G0 X133.53 Y143.712
G1 X104.445 Y114.627 E123.51847
G0 X105.151 Y114.767
G1 X133.53 Y143.146 E124.85333
G0 X133.53 Y142.581
G1 X105.795 Y114.846 E126.1579
G0 X106.382 Y114.867
G1 X133.53 Y142.015 E127.43486
G0 X133.53 Y141.449
G1 X106.915 Y114.834 E128.68675
G0 X107.427 Y114.781
G1 X133.53 Y140.883 E129.91453
G0 X133.53 Y140.318
G1 X107.894 Y114.682 E131.12037
G0 X108.348 Y114.571
G1 X133.53 Y139.752 E132.30483
G0 X133.53 Y139.186
G1 X108.768 Y114.425 E133.46953
G0 X109.17 Y114.262
G1 X133.53 Y138.621 E134.61533
G0 X133.53 Y138.055
G1 X109.559 Y114.085 E135.74283
G0 X109.918 Y113.878
G1 X133.53 Y137.489 E136.85344
G0 X133.53 Y136.924
G1 X110.276 Y113.67 E137.94724
G0 X110.598 Y113.426
G1 X133.53 Y136.358 E139.02589
G0 X133.53 Y135.792
G1 X110.916 Y113.179 E140.08956
G0 X111.217 Y112.914
G1 X133.53 Y135.227 E141.13909
G0 X133.53 Y134.661
G1 X111.495 Y112.626 E142.17555
G0 X111.773 Y112.338
G1 X133.53 Y134.095 E143.19894
G0 X133.53 Y133.53
G1 X112.014 Y112.014 E144.21098
G0 X112.251 Y111.686
G1 X133.53 Y132.964 E145.21186
G0 X133.53 Y132.398
G1 X112.47 Y111.339 E146.20243
G0 X112.667 Y110.97
G1 X133.53 Y131.832 E147.18374
G0 X133.53 Y131.267
G1 X112.86 Y110.597 E148.15599
G0 X113.011 Y110.183
G1 X133.53 Y130.701 E149.12112
G0 X133.53 Y130.135
G1 X113.163 Y109.769 E150.0791
G0 X113.273 Y109.313
G1 X133.53 Y129.57 E151.03193
G0 X133.53 Y129.004
G1 X113.373 Y108.847 E151.98005
G0 X113.428 Y108.337
G1 X133.53 Y128.438 E152.92556
G0 X133.53 Y127.873
G1 X113.463 Y107.806 E153.86945
G0 X113.437 Y107.215
G1 X133.53 Y127.307 E154.81454
G0 X133.53 Y126.741
G1 X113.378 Y106.59 E155.76241
G0 X113.224 Y105.87
G1 X133.53 Y126.176 E156.71754
G0 X133.53 Y125.61
G1 X112.932 Y105.013 E157.68638
G1 X112.862 Y104.943
G0 X112.359 Y103.873
G1 X133.53 Y125.044 E158.6822
G0 X133.53 Y124.479
G1 X86.469 Y77.418 E160.89581
G0 X86.469 Y77.983
G1 X110.157 Y101.672 E162.01004
G1 X110.227 Y101.742
G0 X109 Y101.08
G1 X86.469 Y78.549 E163.06983
G0 X86.469 Y79.115
G1 X108.144 Y100.791 E164.08938
G0 X107.418 Y100.629
G1 X86.469 Y79.681 E165.07473
G0 X86.469 Y80.246
G1 X106.785 Y100.563 E166.03036
G0 X106.207 Y100.55
G1 X86.469 Y80.812 E166.95877
G0 X86.469 Y81.378
G1 X105.66 Y100.569 E167.86146
G0 X105.165 Y100.64
G1 X86.469 Y81.943 E168.74089
G0 X86.469 Y82.509
G1 X104.683 Y100.723 E169.59762
G0 X104.243 Y100.848
G1 X86.469 Y83.075 E170.43363
G0 X86.469 Y83.64
G1 X103.816 Y100.987 E171.24958
G0 X103.413 Y101.15
G1 X86.469 Y84.206 E172.04657
G0 X86.469 Y84.772
G1 X103.033 Y101.336 E172.82569
G0 X102.659 Y101.528
G1 X86.469 Y85.337 E173.58724
G0 X86.469 Y85.903
G1 X102.322 Y101.756 E174.33292
G0 X101.984 Y101.984
G1 X86.469 Y86.469 E175.0627
G0 X86.469 Y87.034
G1 X101.675 Y102.241 E175.77796
G0 X101.378 Y102.509
G1 X86.469 Y87.6 E176.47924
G0 X86.469 Y88.166
G1 X101.089 Y102.786 E177.16692
G0 X100.831 Y103.094
G1 X86.469 Y88.732 E177.84246
G0 X86.469 Y89.297
G1 X100.573 Y103.401 E178.50587
G0 X100.343 Y103.737
G1 X86.469 Y89.863 E179.15846
G0 X86.469 Y90.429
G1 X100.125 Y104.085 E179.8008
G0 X99.919 Y104.445
G1 X86.469 Y90.994 E180.43347
G0 X86.469 Y91.56
G1 X99.745 Y104.836 E181.05793
G0 X99.571 Y105.228
G1 X86.469 Y92.126 E181.67421
G0 X86.469 Y92.691
G1 X99.442 Y105.665 E182.28444
G0 X99.316 Y106.104
G1 X86.469 Y93.257 E182.88872
G0 X86.469 Y93.823
G1 X99.233 Y106.587 E183.4891
G0 X99.163 Y107.082
G1 X86.469 Y94.388 E184.08619
G0 X86.469 Y94.954
G1 X99.144 Y107.63 E184.68241
G0 X99.144 Y108.195
G1 X86.469 Y95.52 E185.2786
G0 X86.469 Y96.085
G1 X99.236 Y108.853 E185.87914
G0 X99.393 Y109.576
G1 X86.469 Y96.651 E186.48707
G0 X86.469 Y97.217
G1 X99.68 Y110.428 E187.10848
G1 X99.75 Y110.498
G0 X100.315 Y111.628
G1 X86.469 Y97.782 E187.75975
G1 X86.399 Y97.712
G0 X86.469 Y76.852
G1 X133.53 Y123.913 E189.97336
G0 X133.53 Y123.347
G1 X86.469 Y76.286 E192.18696
G0 X86.469 Y75.721
G1 X133.53 Y122.782 E194.40057
G0 X133.53 Y122.216
G1 X86.783 Y75.47 E196.59938
G0 X87.349 Y75.47
G1 X133.53 Y121.65 E198.77157
G0 X133.53 Y121.084
G1 X87.915 Y75.47 E200.91713
G0 X88.48 Y75.47
G1 X133.53 Y120.519 E203.03613
G0 X133.53 Y119.953
G1 X89.046 Y75.47 E205.12849
G0 X89.612 Y75.47
G1 X133.53 Y119.387 E207.19424
G0 X133.53 Y118.822
G1 X90.178 Y75.47 E209.23338
G0 X90.743 Y75.47
G1 X133.53 Y118.256 E211.24593
G0 X133.53 Y117.69
G1 X91.309 Y75.47 E213.23185
G0 X91.875 Y75.47
G1 X133.53 Y117.125 E215.19117
G0 X133.53 Y116.559
G1 X92.44 Y75.47 E217.1239
G0 X93.006 Y75.47
G1 X133.53 Y115.993 E219.03
G0 X133.53 Y115.428
G1 X93.572 Y75.47 E220.9095
G0 X94.137 Y75.47
G1 X133.53 Y114.862 E222.7624
G0 X133.53 Y114.296
G1 X94.703 Y75.47 E224.58868
G0 X95.269 Y75.47
G1 X133.53 Y113.731 E226.38836
G0 X133.53 Y113.165
G1 X95.834 Y75.47 E228.16144
G0 X96.4 Y75.47
G1 X133.53 Y112.599 E229.9079
G0 X133.53 Y112.033
G1 X96.966 Y75.47 E231.62774
G0 X97.531 Y75.47
G1 X133.53 Y111.468 E233.321
G0 X133.53 Y110.902
G1 X98.097 Y75.47 E234.98763
G0 X98.663 Y75.47
G1 X133.53 Y110.336 E236.62765
G0 X133.53 Y109.771
G1 X99.229 Y75.47 E238.24106
G0 X99.794 Y75.47
G1 X133.53 Y109.205 E239.82787
G0 X133.53 Y108.639
G1 X100.36 Y75.47 E241.38807
G0 X100.926 Y75.47
G1 X133.53 Y108.074 E242.92166
G0 X133.53 Y107.508
G1 X101.491 Y75.47 E244.42865
G0 X102.057 Y75.47
G1 X133.53 Y106.942 E245.90902
G0 X133.53 Y106.377
G1 X102.623 Y75.47 E247.36279
G0 X103.188 Y75.47
G1 X133.53 Y105.811 E248.78996
G0 X133.53 Y105.245
