;FLAVOR:Marlin
;TIME:4316
;Filament used: 8.74477m
;Layer height: 0.2
;MINX:86.6
;MINY:77.3
;MINZ:0.2
;MAXX:133.4
;MAXY:142.7
;MAXZ:44.4
;LINEARADVANCEPROCESSED
;Generated with Cura_SteamEngine 4.8.0
M140 S55
M105
M190 S55
M104 S220
M105
M109 S220
M82 ;absolute extrusion mode
G92 E0 ; Reset Extruder
G28 ; Home all axes
G29; Probe Bed
M500; Save to eprom
G1 Z2.0 F3000 ; Move Z Axis up little to prevent scratching of Heat Bed
G1 X0.1 Y20 Z0.3 F5000.0 ; Move to start position
G1 X0.1 Y200.0 Z0.3 F1500.0 E15 ; Draw the first line
G1 X0.4 Y200.0 Z0.3 F5000.0 ; Move to side a little
G1 X0.4 Y20 Z0.3 F1500.0 E30 ; Draw the second line
G92 E0 ; Reset Extruder
G1 Z2.0 F3000 ; Move Z Axis up little to prevent scratching of Heat Bed
G1 X5 Y20 Z0.3 F5000.0 ; Move over to prevent blob squish
G92 E0
G92 E0
G1 F2400 E-1.2
;LAYER_COUNT:222
M900 K0.000000 T0 ;added by LinearAdvanceSettingPlugin
;LAYER:0
M107
;MESH:355cd939-486b-40db-bb06-5d0c9e1108db.stl
G0 F3600 X118.268 Y137.298 Z0.2
;TYPE:WALL-INNER
G1 F2400 E0
G1 F3600 X118.198 Y137.922 E0.02088
G1 X118.279 Y138.544 E0.04175
G1 X118.505 Y139.128 E0.06257
G1 X118.866 Y139.642 E0.08347
G1 X119.34 Y140.055 E0.10438
G1 X119.898 Y140.341 E0.12523
G1 X120.508 Y140.485 E0.14608
G1 X121.135 Y140.481 E0.16693
G1 X121.743 Y140.326 E0.1878
G1 X122.296 Y140.03 E0.20866
G1 X122.762 Y139.609 E0.22955
G1 X123.114 Y139.09 E0.25041
G1 X123.332 Y138.502 E0.27127
G1 X123.402 Y137.878 E0.29215
G1 X123.321 Y137.256 E0.31301
G1 X123.095 Y136.672 E0.33384
G1 X122.734 Y136.158 E0.35473
G1 X122.26 Y135.745 E0.37564
G1 X121.702 Y135.459 E0.3965
G1 X121.092 Y135.315 E0.41734
G1 X120.465 Y135.319 E0.4382
G1 X119.857 Y135.474 E0.45907
G1 X119.304 Y135.77 E0.47993
G1 X118.838 Y136.191 E0.50082
G1 X118.486 Y136.71 E0.52167
G1 X118.268 Y137.298 E0.54253
G0 X118.66 Y137.391
;TYPE:WALL-OUTER
G1 X118.601 Y137.919 E0.5602
G1 X118.669 Y138.445 E0.57784
G1 X118.86 Y138.938 E0.59543
G1 X119.165 Y139.372 E0.61307
G1 X119.566 Y139.721 E0.63075
G1 X120.037 Y139.963 E0.64836
G1 X120.553 Y140.085 E0.666
G1 X121.083 Y140.081 E0.68363
G1 X121.597 Y139.95 E0.70127
G1 X122.064 Y139.7 E0.71889
G1 X122.458 Y139.344 E0.73655
G1 X122.756 Y138.905 E0.7542
G1 X122.94 Y138.409 E0.77179
G1 X122.999 Y137.881 E0.78946
G1 X122.931 Y137.355 E0.8071
G1 X122.74 Y136.862 E0.82469
G1 X122.435 Y136.428 E0.84233
G1 X122.034 Y136.079 E0.86001
G1 X121.563 Y135.837 E0.87762
G1 X121.047 Y135.715 E0.89526
G1 X120.517 Y135.719 E0.91289
G1 X120.003 Y135.85 E0.93053
G1 X119.536 Y136.1 E0.94815
G1 X119.142 Y136.456 E0.96581
G1 X118.844 Y136.895 E0.98346
G1 X118.66 Y137.391 E1.00105
G0 X118.638 Y137.589
G0 X118.201 Y137.54
G0 X118.142 Y137.533
G0 X116.467 Y132.272
G0 X113.613 Y132.23
G0 X113.683 Y132.3
;TYPE:WALL-INNER
G1 X113.683 Y140.51 E1.27412
G1 X116.439 Y140.51 E1.36578
G1 X116.439 Y132.3 E1.63885
G1 X113.683 Y132.3 E1.73051
G0 X114.083 Y132.7
;TYPE:WALL-OUTER
G1 X114.083 Y140.11 E1.97697
G1 X116.039 Y140.11 E2.04203
G1 X116.039 Y132.7 E2.28849
G1 X114.083 Y132.7 E2.35354
G0 X114.083 Y132.9
G0 X113.643 Y132.9
G0 X113.583 Y132.9
G0 X106.345 Y132.272
G0 X103.533 Y132.272
G0 X97.881 Y135.738
G0 X97.408 Y136.165
G0 X96.771 Y137.275
G0 X96.868 Y137.298
;TYPE:WALL-INNER
G1 X96.798 Y137.922 E2.37443
G1 X96.879 Y138.544 E2.39529
G1 X97.105 Y139.128 E2.41612
G1 X97.466 Y139.642 E2.43701
G1 X97.94 Y140.055 E2.45792
G1 X98.498 Y140.341 E2.47877
G1 X99.108 Y140.485 E2.49962
G1 X99.735 Y140.481 E2.52047
G1 X100.343 Y140.326 E2.54134
G1 X100.896 Y140.03 E2.56221
G1 X101.362 Y139.609 E2.58309
G1 X101.714 Y139.09 E2.60395
G1 X101.932 Y138.502 E2.62481
G1 X102.002 Y137.878 E2.64569
G1 X101.921 Y137.256 E2.66656
G1 X101.695 Y136.672 E2.68738
G1 X101.334 Y136.158 E2.70827
G1 X100.86 Y135.745 E2.72918
G1 X100.302 Y135.459 E2.75004
G1 X99.692 Y135.315 E2.77089
G1 X99.065 Y135.319 E2.79174
G1 X98.457 Y135.474 E2.81261
G1 X97.904 Y135.77 E2.83347
G1 X97.438 Y136.191 E2.85436
G1 X97.086 Y136.71 E2.87522
G1 X96.868 Y137.298 E2.89607
G0 X97.26 Y137.391
;TYPE:WALL-OUTER
G1 X97.201 Y137.919 E2.91375
G1 X97.269 Y138.445 E2.93139
G1 X97.46 Y138.938 E2.94897
G1 X97.765 Y139.372 E2.96661
G1 X98.166 Y139.721 E2.98429
G1 X98.637 Y139.963 E3.00191
G1 X99.153 Y140.085 E3.01954
G1 X99.683 Y140.081 E3.03717
G1 X100.197 Y139.95 E3.05481
G1 X100.664 Y139.7 E3.07243
G1 X101.058 Y139.344 E3.09009
G1 X101.356 Y138.905 E3.10774
G1 X101.54 Y138.409 E3.12534
G1 X101.599 Y137.881 E3.14301
G1 X101.531 Y137.355 E3.16065
G1 X101.34 Y136.862 E3.17823
G1 X101.035 Y136.428 E3.19587
G1 X100.634 Y136.079 E3.21356
G1 X100.163 Y135.837 E3.23117
G1 X99.647 Y135.715 E3.2488
G1 X99.117 Y135.719 E3.26643
G1 X98.603 Y135.85 E3.28407
G1 X98.136 Y136.1 E3.30169
G1 X97.742 Y136.456 E3.31935
G1 X97.444 Y136.895 E3.337
G1 X97.26 Y137.391 E3.3546
G0 X97.238 Y137.589
G0 X96.801 Y137.54
G0 X96.742 Y137.533
G0 X97.051 Y136.692
G0 X97.408 Y136.165
G0 X97.79 Y135.82
G0 X103.491 Y132.23
G0 X103.561 Y132.3
;TYPE:WALL-INNER
G1 X103.561 Y140.51 E3.62766
G1 X106.317 Y140.51 E3.71933
G1 X106.317 Y132.3 E3.99239
G1 X103.561 Y132.3 E4.08406
G0 X103.961 Y132.7
;TYPE:WALL-OUTER
G1 X103.961 Y140.11 E4.33052
G1 X105.917 Y140.11 E4.39557
G1 X105.917 Y132.7 E4.64203
G1 X103.961 Y132.7 E4.70709
G0 X103.961 Y132.9
G0 X103.521 Y132.9
G0 X103.461 Y132.9
G0 X90.572 Y131.128
G0 X90.53 Y88.83
G0 X90.6 Y88.9
;TYPE:WALL-INNER
G1 X90.6 Y131.1 E6.11066
G1 X129.4 Y131.1 E7.40116
G1 X129.4 Y88.9 E8.80474
G1 X90.6 Y88.9 E10.09523
G0 X91 Y89.3
;TYPE:WALL-OUTER
G1 X91 Y130.7 E11.4722
G1 X129 Y130.7 E12.73608
G1 X129 Y89.3 E14.11305
G1 X91 Y89.3 E15.37694
G0 X91 Y89.5
G0 X90.56 Y89.5
G0 X90.5 Y89.5
G0 X90.564 Y88.935
G0 X96.771 Y81.275
G0 X96.868 Y81.298
;TYPE:WALL-INNER
G1 X96.798 Y81.922 E15.39782
G1 X96.879 Y82.544 E15.41868
G1 X97.105 Y83.128 E15.43951
G1 X97.466 Y83.642 E15.4604
G1 X97.94 Y84.055 E15.48131
G1 X98.498 Y84.341 E15.50217
G1 X99.108 Y84.485 E15.52301
G1 X99.735 Y84.481 E15.54387
G1 X100.343 Y84.326 E15.56474
G1 X100.896 Y84.03 E15.5856
G1 X101.362 Y83.609 E15.60649
G1 X101.714 Y83.09 E15.62735
G1 X101.932 Y82.502 E15.6482
G1 X102.002 Y81.878 E15.66909
G1 X101.921 Y81.256 E15.68995
G1 X101.695 Y80.672 E15.71078
G1 X101.334 Y80.158 E15.73167
G1 X100.86 Y79.745 E15.75258
G1 X100.302 Y79.459 E15.77343
G1 X99.692 Y79.315 E15.79428
G1 X99.065 Y79.319 E15.81513
G1 X98.457 Y79.474 E15.836
G1 X97.904 Y79.77 E15.85687
G1 X97.438 Y80.191 E15.87775
G1 X97.086 Y80.71 E15.89861
G1 X96.868 Y81.298 E15.91947
G0 X97.26 Y81.391
;TYPE:WALL-OUTER
G1 X97.201 Y81.919 E15.93714
G1 X97.269 Y82.445 E15.95478
G1 X97.46 Y82.938 E15.97236
G1 X97.765 Y83.372 E15.99001
G1 X98.166 Y83.721 E16.00769
G1 X98.637 Y83.963 E16.0253
G1 X99.153 Y84.085 E16.04294
G1 X99.683 Y84.081 E16.06057
G1 X100.197 Y83.95 E16.07821
G1 X100.664 Y83.7 E16.09583
G1 X101.058 Y83.344 E16.11349
G1 X101.356 Y82.905 E16.13113
G1 X101.54 Y82.409 E16.14873
G1 X101.599 Y81.881 E16.1664
G1 X101.531 Y81.355 E16.18404
G1 X101.34 Y80.862 E16.20163
G1 X101.035 Y80.428 E16.21927
G1 X100.634 Y80.079 E16.23695
G1 X100.163 Y79.837 E16.25456
G1 X99.647 Y79.715 E16.2722
G1 X99.117 Y79.719 E16.28983
G1 X98.603 Y79.85 E16.30747
G1 X98.136 Y80.1 E16.32509
G1 X97.742 Y80.456 E16.34275
G1 X97.444 Y80.895 E16.3604
G1 X97.26 Y81.391 E16.37799
G0 X97.238 Y81.589
G0 X96.801 Y81.54
G0 X96.742 Y81.533
G0 X97.051 Y80.692
G0 X97.408 Y80.165
G0 X97.881 Y79.738
G0 X98.443 Y79.437
G0 X99.06 Y79.28
G0 X103.715 Y79.43
G0 X103.785 Y79.5
;TYPE:WALL-INNER
G1 X103.785 Y87.7 E16.65072
G1 X106.628 Y87.7 E16.74528
G1 X106.628 Y79.5 E17.01802
G1 X103.785 Y79.5 E17.11257
G0 X104.185 Y79.9
;TYPE:WALL-OUTER
G1 X104.185 Y87.3 E17.3587
G1 X106.228 Y87.3 E17.42665
G1 X106.228 Y79.9 E17.67277
G1 X104.185 Y79.9 E17.74073
G0 X104.185 Y80.1
G0 X103.745 Y80.1
G0 X103.685 Y80.1
G0 X103.757 Y79.472
G0 X113.302 Y79.43
G0 X113.372 Y79.5
;TYPE:WALL-INNER
G1 X113.372 Y87.7 E18.01346
G1 X116.215 Y87.7 E18.10802
G1 X116.215 Y79.5 E18.38075
G1 X113.372 Y79.5 E18.47531
G0 X113.772 Y79.9
;TYPE:WALL-OUTER
G1 X113.772 Y87.3 E18.72143
G1 X115.815 Y87.3 E18.78938
G1 X115.815 Y79.9 E19.03551
G1 X113.772 Y79.9 E19.10346
G0 X113.772 Y80.1
G0 X113.332 Y80.1
G0 X113.272 Y80.1
G0 X113.344 Y79.472
G0 X116.243 Y79.472
G0 X118.171 Y81.275
G0 X118.268 Y81.298
;TYPE:WALL-INNER
G1 X118.198 Y81.922 E19.12434
G1 X118.279 Y82.544 E19.14521
G1 X118.505 Y83.128 E19.16603
G1 X118.866 Y83.642 E19.18693
G1 X119.34 Y84.055 E19.20784
G1 X119.898 Y84.341 E19.22869
G1 X120.508 Y84.485 E19.24954
G1 X121.135 Y84.481 E19.27039
G1 X121.743 Y84.326 E19.29126
G1 X122.296 Y84.03 E19.31212
G1 X122.762 Y83.609 E19.33301
G1 X123.114 Y83.09 E19.35387
G1 X123.332 Y82.502 E19.37473
G1 X123.402 Y81.878 E19.39561
G1 X123.321 Y81.256 E19.41647
G1 X123.095 Y80.672 E19.4373
G1 X122.734 Y80.158 E19.45819
G1 X122.26 Y79.745 E19.4791
G1 X121.702 Y79.459 E19.49996
G1 X121.092 Y79.315 E19.5208
G1 X120.465 Y79.319 E19.54166
G1 X119.857 Y79.474 E19.56253
G1 X119.304 Y79.77 E19.58339
G1 X118.838 Y80.191 E19.60428
G1 X118.486 Y80.71 E19.62513
G1 X118.268 Y81.298 E19.64599
G0 X118.66 Y81.391
;TYPE:WALL-OUTER
G1 X118.601 Y81.919 E19.66366
G1 X118.669 Y82.445 E19.6813
G1 X118.86 Y82.938 E19.69889
G1 X119.165 Y83.372 E19.71653
G1 X119.566 Y83.721 E19.73421
G1 X120.037 Y83.963 E19.75182
G1 X120.553 Y84.085 E19.76946
G1 X121.083 Y84.081 E19.78709
G1 X121.597 Y83.95 E19.80473
G1 X122.064 Y83.7 E19.82235
G1 X122.458 Y83.344 E19.84001
G1 X122.756 Y82.905 E19.85766
G1 X122.94 Y82.409 E19.87525
G1 X122.999 Y81.881 E19.89292
G1 X122.931 Y81.355 E19.91056
G1 X122.74 Y80.862 E19.92815
G1 X122.435 Y80.428 E19.94579
G1 X122.034 Y80.079 E19.96347
G1 X121.563 Y79.837 E19.98108
G1 X121.047 Y79.715 E19.99872
G1 X120.517 Y79.719 E20.01635
G1 X120.003 Y79.85 E20.03399
G1 X119.536 Y80.1 E20.05161
G1 X119.142 Y80.456 E20.06927
G1 X118.844 Y80.895 E20.08692
G1 X118.66 Y81.391 E20.10451
G0 X118.638 Y81.589
G0 X118.201 Y81.54
G0 X118.142 Y81.533
G0 X118.451 Y80.692
G0 X118.808 Y80.165
G0 X119.281 Y79.738
G0 X119.843 Y79.437
G0 X130.58 Y77.8
G0 X130.584 Y77.701
;TYPE:WALL-INNER
G1 X131.07 Y77.749 E20.12076
G1 X131.52 Y77.885 E20.13639
G1 X131.927 Y78.103 E20.15175
G1 X132.295 Y78.405 E20.16758
G1 X132.597 Y78.773 E20.18342
G1 X132.815 Y79.18 E20.19877
G1 X132.951 Y79.63 E20.21441
G1 X133 Y80.126 E20.23098
G1 X132.999 Y140.875 E22.2515
G1 X132.959 Y141.217 E22.26296
G1 X132.853 Y141.513 E22.27341
G1 X132.687 Y141.774 E22.2837
G1 X132.461 Y141.999 E22.29431
G1 X132.2 Y142.159 E22.30449
G1 X131.902 Y142.262 E22.31498
G1 X131.568 Y142.3 E22.32616
G1 X88.425 Y142.299 E23.7611
G1 X88.083 Y142.259 E23.77255
G1 X87.787 Y142.153 E23.78301
G1 X87.526 Y141.987 E23.7933
G1 X87.302 Y141.761 E23.80388
G1 X87.14 Y141.499 E23.81413
G1 X87.039 Y141.203 E23.82453
G1 X87 Y140.86 E23.83601
G1 X87.001 Y80.116 E25.85636
G1 X87.049 Y79.63 E25.87261
G1 X87.185 Y79.18 E25.88824
G1 X87.403 Y78.773 E25.9036
G1 X87.705 Y78.405 E25.91943
G1 X88.073 Y78.103 E25.93527
G1 X88.48 Y77.885 E25.95062
G1 X88.93 Y77.749 E25.96626
G1 X89.429 Y77.7 E25.98294
G1 X130.584 Y77.701 E27.35176
G0 X130.604 Y77.301
;TYPE:WALL-OUTER
G1 X131.148 Y77.355 E27.36994
G1 X131.672 Y77.513 E27.38814
G1 X132.152 Y77.771 E27.40627
G1 X132.579 Y78.121 E27.42463
G1 X132.929 Y78.548 E27.44299
G1 X133.187 Y79.028 E27.46112
G1 X133.345 Y79.552 E27.47932
G1 X133.4 Y80.106 E27.49784
G1 X133.399 Y140.897 E29.51976
G1 X133.35 Y141.312 E29.53366
G1 X133.216 Y141.687 E29.5469
G1 X132.999 Y142.028 E29.56034
G1 X132.712 Y142.313 E29.5738
G1 X132.372 Y142.523 E29.58709
G1 X131.991 Y142.654 E29.60049
G1 X131.587 Y142.7 E29.61401
G1 X88.403 Y142.699 E31.05032
G1 X87.988 Y142.65 E31.06422
G1 X87.613 Y142.516 E31.07746
G1 X87.272 Y142.299 E31.0909
G1 X86.987 Y142.012 E31.10436
G1 X86.776 Y141.67 E31.11772
G1 X86.645 Y141.288 E31.13115
G1 X86.6 Y140.887 E31.14458
G1 X86.601 Y80.096 E33.16649
G1 X86.655 Y79.552 E33.18468
G1 X86.813 Y79.028 E33.20288
G1 X87.071 Y78.548 E33.221
G1 X87.421 Y78.121 E33.23937
G1 X87.848 Y77.771 E33.25773
G1 X88.328 Y77.513 E33.27585
G1 X88.852 Y77.355 E33.29406
G1 X89.41 Y77.3 E33.31271
G1 X130.604 Y77.301 E34.68283
G0 X130.803 Y77.32
G0 X130.759 Y77.758
G0 X130.565 Y78.091
;TYPE:SKIN
G1 X130.995 Y78.133 E34.6972
G1 X131.373 Y78.247 E34.71033
G1 X131.706 Y78.426 E34.7229
G1 X132.018 Y78.682 E34.73632
G1 X132.274 Y78.994 E34.74975
G1 X132.453 Y79.327 E34.76232
G1 X132.567 Y79.705 E34.77545
G1 X132.61 Y80.145 E34.79016
G1 X132.609 Y140.846 E36.80908
G1 X132.575 Y141.131 E36.81863
G1 X132.501 Y141.34 E36.826
G1 X132.219 Y141.69 E36.84095
G1 X131.817 Y141.878 E36.85571
G1 X131.541 Y141.91 E36.86495
G1 X88.453 Y141.909 E38.29807
G1 X88.169 Y141.875 E38.30758
G1 X87.96 Y141.801 E38.31495
G1 X87.61 Y141.517 E38.32994
G1 X87.494 Y141.33 E38.33726
G1 X87.423 Y141.12 E38.34464
G1 X87.39 Y140.833 E38.35425
G1 X87.391 Y80.135 E40.37307
G1 X87.433 Y79.705 E40.38744
G1 X87.547 Y79.327 E40.40057
G1 X87.726 Y78.994 E40.41315
G1 X87.982 Y78.682 E40.42657
G1 X88.294 Y78.426 E40.43999
G1 X88.627 Y78.247 E40.45257
G1 X89.005 Y78.133 E40.4657
G1 X89.447 Y78.09 E40.48047
G1 X130.565 Y78.091 E41.84806
G0 X123.442 Y80.487
G1 X123.026 Y79.895 E41.87212
G1 X122.48 Y79.419 E41.89622
G1 X121.838 Y79.09 E41.92021
G1 X121.137 Y78.925 E41.94416
G1 X120.415 Y78.929 E41.96818
G1 X119.715 Y79.108 E41.99221
G1 X119.078 Y79.448 E42.01622
G1 X118.542 Y79.933 E42.04027
G1 X118.137 Y80.53 E42.06426
G1 X117.886 Y81.207 E42.08827
G1 X117.806 Y81.926 E42.11234
G1 X117.899 Y82.641 E42.13632
G1 X118.158 Y83.313 E42.16027
G1 X118.574 Y83.905 E42.18434
G1 X119.12 Y84.381 E42.20843
G1 X119.762 Y84.71 E42.23242
G1 X120.463 Y84.875 E42.25637
G1 X121.185 Y84.871 E42.28039
G1 X121.885 Y84.692 E42.30442
G1 X122.522 Y84.352 E42.32844
G1 X123.058 Y83.867 E42.35248
G1 X123.463 Y83.27 E42.37647
G1 X123.714 Y82.593 E42.40049
G1 X123.794 Y81.874 E42.42455
G1 X123.701 Y81.159 E42.44853
G1 X123.442 Y80.487 E42.47248
G0 X122.282 Y79.712
G0 X121.715 Y79.422
G0 X121.214 Y79.305
G0 X116.605 Y79.11
G1 X112.982 Y79.11 E42.59298
G1 X112.982 Y88.09 E42.89166
G1 X116.605 Y88.09 E43.01216
G1 X116.605 Y79.11 E43.31084
G0 X107.018 Y79.11
G1 X103.395 Y79.11 E43.43134
G1 X103.395 Y88.09 E43.73002
G1 X107.018 Y88.09 E43.85052
G1 X107.018 Y79.11 E44.14919
G0 X103.757 Y79.472
G0 X102.301 Y81.159
G1 X102.042 Y80.487 E44.17315
G1 X101.626 Y79.895 E44.19721
G1 X101.08 Y79.419 E44.2213
G1 X100.438 Y79.09 E44.2453
G1 X99.737 Y78.925 E44.26925
G1 X99.015 Y78.929 E44.29326
G1 X98.315 Y79.108 E44.3173
G1 X97.678 Y79.448 E44.34131
G1 X97.142 Y79.933 E44.36535
G1 X96.737 Y80.53 E44.38935
G1 X96.486 Y81.207 E44.41336
G1 X96.406 Y81.926 E44.43742
G1 X96.499 Y82.641 E44.46141
G1 X96.758 Y83.313 E44.48536
G1 X97.174 Y83.905 E44.50942
G1 X97.72 Y84.381 E44.53352
G1 X98.362 Y84.71 E44.55751
G1 X99.063 Y84.875 E44.58146
G1 X99.785 Y84.871 E44.60548
G1 X100.485 Y84.692 E44.62951
G1 X101.122 Y84.352 E44.65352
G1 X101.658 Y83.867 E44.67757
G1 X102.063 Y83.27 E44.70156
G1 X102.314 Y82.593 E44.72558
G1 X102.394 Y81.874 E44.74964
G1 X102.301 Y81.159 E44.77362
G0 X103.757 Y79.472
G0 X106.656 Y79.472
G0 X113.344 Y87.728
G0 X129.79 Y88.51
G1 X90.21 Y88.51 E46.09005
G1 X90.21 Y131.49 E47.51957
G1 X129.79 Y131.49 E48.83601
G1 X129.79 Y88.51 E50.26553
G0 X129.428 Y131.128
G0 X116.829 Y131.91
G1 X113.293 Y131.91 E50.38314
G1 X113.293 Y140.9 E50.68215
G1 X116.829 Y140.9 E50.79976
G1 X116.829 Y131.91 E51.09876
G0 X121.137 Y134.925
G1 X120.415 Y134.929 E51.12278
G1 X119.715 Y135.108 E51.14681
G1 X119.078 Y135.448 E51.17083
G1 X118.542 Y135.933 E51.19487
G1 X118.137 Y136.53 E51.21886
G1 X117.886 Y137.207 E51.24288
G1 X117.806 Y137.926 E51.26694
G1 X117.899 Y138.641 E51.29092
G1 X118.158 Y139.313 E51.31487
G1 X118.574 Y139.905 E51.33894
G1 X119.12 Y140.381 E51.36303
G1 X119.762 Y140.71 E51.38702
G1 X120.463 Y140.875 E51.41098
G1 X121.185 Y140.871 E51.43499
G1 X121.885 Y140.692 E51.45902
G1 X122.522 Y140.352 E51.48304
G1 X123.058 Y139.867 E51.50708
G1 X123.463 Y139.27 E51.53107
G1 X123.714 Y138.593 E51.55509
G1 X123.794 Y137.874 E51.57915
G1 X123.701 Y137.159 E51.60313
G1 X123.442 Y136.487 E51.62709
G1 X123.026 Y135.895 E51.65115
G1 X122.48 Y135.419 E51.67524
