;FLAVOR:Marlin
;TIME:331
;Filament used: 0.344574m
;Layer height: 0.2
;MINX:105.2
;MINY:105.2
;MINZ:0.2
;MAXX:114.8
;MAXY:114.8
;MAXZ:12
;LINEARADVANCEPROCESSED
;Generated with Cura_SteamEngine 4.8.0
M140 S60
M105
M190 S60
M104 S210
M105
M109 S210
M82 ;absolute extrusion mode
G92 E0 ; Reset Extruder
G28 ; Home all axes
G29; Probe Bed
M500; Save to eprom
G1 Z2.0 F3000 ; Move Z Axis up little to prevent scratching of Heat Bed
G1 X0.1 Y20 Z0.3 F5000.0 ; Move to start position
G1 X0.1 Y200.0 Z0.3 F1500.0 E15 ; Draw the first line
G1 X0.4 Y200.0 Z0.3 F5000.0 ; Move to side a little
G1 X0.4 Y20 Z0.3 F1500.0 E30 ; Draw the second line
G92 E0 ; Reset Extruder
G1 Z2.0 F3000 ; Move Z Axis up little to prevent scratching of Heat Bed
G1 X5 Y20 Z0.3 F5000.0 ; Move over to prevent blob squish
G92 E0
G92 E0
G1 F2400 E-1.2
;LAYER_COUNT:60
M900 K0.000000 T0 ;added by LinearAdvanceSettingPlugin
;LAYER:0
M107
G1 F600 Z0.4
;MESH:c548f344-7ee4-40b6-b593-8738d8e9dedd.stl
G0 F3600 X105.6 Y105.6 Z0.4
;TYPE:WALL-INNER
G1 F600 Z0.2
G1 F2400 E0
G1 F3600 X112.117 Y105.6 E0.21676
G1 X112.117 Y108.113 E0.30034
G1 X112.117 Y108.617 E0.3171
G1 X112.117 Y108.677 E0.3191
G1 X112.087 Y108.617 E0.31936
G1 X111.762 Y108.232 E0.32883
G1 X111.712 Y108.173 E0.3314
G1 X111.244 Y107.827 E0.35076
G1 X110.709 Y107.6 E0.37009
G1 X110.136 Y107.5 E0.38943
G1 X109.556 Y107.536 E0.40876
G1 X109 Y107.704 E0.42808
G1 X108.497 Y107.997 E0.44744
G1 X108.077 Y108.398 E0.46676
G1 X107.759 Y108.884 E0.48607
G1 X107.562 Y109.432 E0.50544
G1 X107.496 Y110.009 E0.52476
G1 X107.565 Y110.586 E0.54409
G1 X107.766 Y111.132 E0.56344
G1 X108.089 Y111.616 E0.58279
G1 X108.511 Y112.014 E0.60208
G1 X109.017 Y112.302 E0.62145
G1 X109.574 Y112.467 E0.64077
G1 X110.153 Y112.499 E0.66006
G1 X110.728 Y112.396 E0.67949
G1 X111.26 Y112.163 E0.6988
G1 X111.721 Y111.818 E0.71795
G1 X111.725 Y111.815 E0.71812
G1 X112.097 Y111.368 E0.73746
G1 X112.118 Y111.326 E0.73903
G1 X112.118 Y111.368 E0.73903
G1 X112.118 Y111.815 E0.74615
G1 X112.118 Y111.82 E0.74632
G1 X112.118 Y114.4 E0.83213
G1 X105.6 Y114.4 E1.04892
G1 X105.6 Y105.6 E1.34161
G0 X107.91 Y111.056
G0 X108.214 Y111.513
G0 X108.605 Y111.882
G0 X109.08 Y112.152
G0 X109.607 Y112.308
G0 X110.139 Y112.337
G0 X111.235 Y112.056
G0 X111.057 Y111.815
;TYPE:WALL-OUTER
G1 X111.448 Y111.523 E1.35784
G1 X111.759 Y111.148 E1.37404
G1 X111.976 Y110.711 E1.39027
G1 X112.087 Y110.237 E1.40646
G1 X112.086 Y109.748 E1.42272
G1 X111.971 Y109.273 E1.43898
G1 X111.751 Y108.839 E1.45516
G1 X111.437 Y108.467 E1.47135
G1 X111.044 Y108.177 E1.4876
G1 X110.595 Y107.986 E1.50383
G1 X110.114 Y107.902 E1.52007
G1 X109.627 Y107.932 E1.5363
G1 X109.161 Y108.073 E1.55249
G1 X108.739 Y108.319 E1.56874
G1 X108.386 Y108.656 E1.58497
G1 X108.119 Y109.064 E1.60119
G1 X107.954 Y109.523 E1.61741
G1 X107.899 Y110.008 E1.63364
G1 X107.957 Y110.492 E1.64986
G1 X108.125 Y110.95 E1.66608
G1 X108.396 Y111.356 E1.68232
G1 X108.751 Y111.69 E1.69853
G1 X109.175 Y111.932 E1.71477
G1 X109.643 Y112.07 E1.731
G1 X110.129 Y112.097 E1.74718
G1 X110.611 Y112.011 E1.76347
G1 X111.057 Y111.815 E1.77967
G0 X111.217 Y111.696
G0 X111.479 Y112.048
G0 X112.248 Y114.53
G0 X112.518 Y114.6
G1 X112.518 Y114.8 E1.78632
G1 X112.318 Y114.8 E1.79063
G1 X105.2 Y114.8 E2.02738
G1 X105.2 Y105.2 E2.34667
G1 X112.517 Y105.2 E2.59004
G1 X112.518 Y114.6 E2.90268
G0 X112.518 Y114.8
G0 X112.248 Y114.53
G0 X111.728 Y114.01
;TYPE:SKIN
G1 X105.99 Y114.01 E3.09353
G1 X105.99 Y105.99 E3.36028
G1 X111.727 Y105.99 E3.55109
G1 X111.727 Y107.699 E3.60793
G1 X111.439 Y107.486 E3.61985
G1 X110.82 Y107.224 E3.6422
G1 X110.158 Y107.108 E3.66456
G1 X109.486 Y107.15 E3.68695
G1 X108.844 Y107.344 E3.70926
G1 X108.261 Y107.683 E3.73169
G1 X107.775 Y108.147 E3.75404
G1 X107.408 Y108.709 E3.77636
G1 X107.18 Y109.343 E3.79877
G1 X107.104 Y110.01 E3.8211
G1 X107.183 Y110.678 E3.84347
G1 X107.415 Y111.31 E3.86586
G1 X107.789 Y111.869 E3.88823
G1 X108.277 Y112.33 E3.91056
G1 X108.863 Y112.663 E3.93298
G1 X109.507 Y112.853 E3.95531
G1 X110.177 Y112.891 E3.97763
G1 X110.843 Y112.772 E4.00013
G1 X111.457 Y112.502 E4.02244
G1 X111.728 Y112.3 E4.03368
G1 X111.728 Y114.01 E4.09056
G0 X106.475 Y113.829
G1 X106.169 Y113.523 E4.10495
G0 X106.169 Y112.958
G1 X107.041 Y113.829 E4.14594
G0 X107.606 Y113.829
G1 X106.169 Y112.392 E4.21354
G0 X106.169 Y111.826
G1 X108.172 Y113.829 E4.30775
G0 X108.738 Y113.829
G1 X106.169 Y111.261 E4.42857
G0 X106.169 Y110.695
G1 X109.303 Y113.829 E4.57598
G0 X109.869 Y113.829
G1 X108.902 Y112.862 E4.62146
G0 X109.646 Y113.04
G1 X110.435 Y113.829 E4.65858
G0 X111 Y113.829
G1 X110.234 Y113.062 E4.69463
G0 X110.714 Y112.977
G1 X111.548 Y113.81 E4.73384
G0 X111.548 Y113.245
G1 X111.14 Y112.837 E4.75303
G0 X109.286 Y112.221
G0 X107.15 Y111.11
G1 X106.169 Y110.129 E4.79917
G0 X106.169 Y109.564
G1 X106.964 Y110.358 E4.83654
G0 X106.949 Y109.778
G1 X106.169 Y108.998 E4.87323
G0 X106.169 Y108.432
G1 X107.013 Y109.276 E4.91293
G0 X107.162 Y108.859
G1 X106.169 Y107.867 E4.95961
G0 X106.169 Y107.301
G1 X107.344 Y108.475 E5.01486
G0 X107.567 Y108.133
G1 X106.169 Y106.735 E5.08062
G0 X106.169 Y106.169
G1 X107.836 Y107.836 E5.15903
G0 X108.126 Y107.56
G1 X106.735 Y106.169 E5.22445
G0 X107.301 Y106.169
G1 X108.478 Y107.347 E5.27984
G0 X108.85 Y107.153
G1 X107.867 Y106.169 E5.3261
G0 X108.432 Y106.169
G1 X109.284 Y107.022 E5.3662
G0 X109.779 Y106.95
G1 X108.998 Y106.169 E5.40294
G0 X109.564 Y106.169
G1 X110.353 Y106.959 E5.44007
G0 X111.111 Y107.151
G1 X110.129 Y106.169 E5.48626
G0 X110.695 Y106.169
G1 X111.546 Y107.021 E5.52631
G0 X111.546 Y106.455
G1 X111.261 Y106.169 E5.53974
;MESH:NONMESH
G0 F600 X111.261 Y106.169 Z0.4
G0 F3600 X106 Y106
;TIME_ELAPSED:8.274420
;LAYER:1
M106 S153
;TYPE:WALL-INNER
;MESH:c548f344-7ee4-40b6-b593-8738d8e9dedd.stl
G1 F2802.8 X111.781 Y106 E5.73202
G1 X111.781 Y107.434 E5.77971
G1 X111.781 Y107.467 E5.78081
G1 X111.781 Y107.726 E5.78943
G1 X111.426 Y107.467 E5.79825
G1 X111.396 Y107.455 E5.79927
G1 X110.802 Y107.207 E5.82068
G1 X110.135 Y107.098 E5.84316
G1 X109.464 Y107.144 E5.86553
G1 X108.818 Y107.345 E5.88803
G1 X108.238 Y107.69 E5.91048
G1 X107.752 Y108.158 E5.93292
G1 X107.389 Y108.725 E5.95531
G1 X107.165 Y109.361 E5.97774
G1 X107.094 Y110.034 E6.00025
G1 X107.18 Y110.702 E6.02265
G1 X107.418 Y111.335 E6.04514
G1 X107.797 Y111.892 E6.06755
G1 X108.291 Y112.351 E6.08998
G1 X108.881 Y112.682 E6.11248
G1 X109.527 Y112.866 E6.13482
G1 X110.202 Y112.9 E6.1573
G1 X110.868 Y112.773 E6.17985
G1 X111.413 Y112.528 E6.19972
G1 X111.481 Y112.498 E6.20219
G1 X111.782 Y112.27 E6.21475
G1 X111.782 Y112.498 E6.21668
G1 X111.782 Y112.573 E6.21892
G1 X111.782 Y114 E6.26638
G1 X106 Y114 E6.45869
G1 X106 Y106 E6.72477
G0 F5400 X105.6 Y105.6
G1 F2802.8 X112.181 Y105.6 E6.94366
G1 X112.181 Y108.205 E7.0303
G1 X112.181 Y108.601 E7.04347
G1 X112.181 Y108.807 E7.05032
G1 X112.075 Y108.601 E7.05188
G1 X111.817 Y108.3 E7.06053
G1 X111.697 Y108.16 E7.06666
G1 X111.228 Y107.818 E7.08597
G1 X110.691 Y107.594 E7.10532
G1 X110.116 Y107.5 E7.1247
G1 X109.538 Y107.54 E7.14397
G1 X108.982 Y107.713 E7.16333
G1 X108.482 Y108.01 E7.18268
G1 X108.064 Y108.413 E7.20199
G1 X107.751 Y108.902 E7.2213
G1 X107.558 Y109.45 E7.24062
G1 X107.497 Y110.029 E7.25999
G1 X107.571 Y110.605 E7.2793
G1 X107.776 Y111.15 E7.29867
G1 X108.102 Y111.63 E7.31797
G1 X108.528 Y112.025 E7.33729
G1 X109.036 Y112.31 E7.35666
G1 X109.593 Y112.469 E7.37593
G1 X110.174 Y112.498 E7.39528
G1 X110.747 Y112.389 E7.41468
G1 X111.276 Y112.152 E7.43396
G1 X111.739 Y111.801 E7.45328
G1 X111.82 Y111.702 E7.45754
G1 X112.107 Y111.351 E7.47262
G1 X112.182 Y111.198 E7.47828
G1 X112.182 Y111.351 E7.47863
G1 X112.182 Y111.805 E7.48796
G1 X112.182 Y114.4 E7.57427
G1 X105.6 Y114.4 E7.79319
G1 X105.6 Y105.6 E8.08588
G0 F5400 X107.919 Y111.074
G0 X108.226 Y111.526
G0 X108.622 Y111.893
G0 X109.098 Y112.16
G0 X109.619 Y112.309
G0 X110.164 Y112.336
G0 X111.251 Y112.044
G0 X111.071 Y111.806
;TYPE:WALL-OUTER
G1 F1868.5 X111.459 Y111.511 E8.10209
G1 X111.768 Y111.134 E8.1183
G1 X111.981 Y110.696 E8.1345
G1 X112.088 Y110.22 E8.15073
G1 X112.083 Y109.732 E8.16696
G1 X111.965 Y109.259 E8.18317
G1 X111.741 Y108.826 E8.19939
G1 X111.424 Y108.456 E8.21559
G1 X111.03 Y108.169 E8.23181
G1 X110.58 Y107.981 E8.24803
G1 X110.097 Y107.902 E8.2643
G1 X109.612 Y107.936 E8.28048
G1 X109.146 Y108.081 E8.29671
G1 X108.726 Y108.33 E8.31295
G1 X108.376 Y108.668 E8.32913
G1 X108.113 Y109.079 E8.34536
G1 X107.951 Y109.539 E8.36158
G1 X107.9 Y110.024 E8.3778
G1 X107.962 Y110.508 E8.39403
G1 X108.134 Y110.965 E8.41027
G1 X108.407 Y111.368 E8.42646
G1 X108.765 Y111.699 E8.44268
G1 X109.191 Y111.938 E8.45892
G1 X109.659 Y112.072 E8.47511
G1 X110.146 Y112.096 E8.49133
G1 X110.626 Y112.005 E8.50758
G1 X111.071 Y111.806 E8.52379
G0 F5400 X111.23 Y111.685
G0 X111.496 Y112.036
G0 X112.312 Y114.53
G0 X112.582 Y114.6
G1 F1868.5 X112.582 Y114.8 E8.53045
G1 X112.382 Y114.8 E8.53475
G1 X105.2 Y114.8 E8.77363
G1 X105.2 Y105.2 E9.09293
G1 X112.581 Y105.2 E9.33842
G1 X112.582 Y114.6 E9.65106
G0 F5400 X112.582 Y114.8
G0 X112.312 Y114.53
G0 X111.392 Y113.61
;TYPE:SKIN
G1 F1868.5 X106.39 Y113.61 E9.81743
G1 X106.39 Y106.39 E10.05757
G1 X111.391 Y106.39 E10.2239
G1 X111.391 Y107.029 E10.24516
G1 X110.909 Y106.829 E10.26251
G1 X110.153 Y106.706 E10.28799
G1 X109.392 Y106.758 E10.31336
G1 X108.658 Y106.986 E10.33892
G1 X108 Y107.378 E10.3644
G1 X107.448 Y107.909 E10.38987
G1 X107.036 Y108.553 E10.4153
G1 X106.782 Y109.275 E10.44076
G1 X106.702 Y110.038 E10.46627
G1 X106.799 Y110.797 E10.49172
G1 X107.069 Y111.516 E10.51727
G1 X107.499 Y112.148 E10.54269
G1 X108.059 Y112.669 E10.56813
G1 X108.731 Y113.045 E10.59374
G1 X109.463 Y113.254 E10.61906
G1 X110.229 Y113.292 E10.64457
G1 X110.985 Y113.147 E10.67017
G1 X111.392 Y112.965 E10.685
G1 X111.392 Y113.61 E10.70646
G0 F5400 X111.147 Y113.429
G1 F1868.5 X111.211 Y113.365 E10.70947
G0 F5400 X109.004 Y113.309
G1 F1868.5 X108.885 Y113.429 E10.71509
G0 F5400 X108.581 Y113.167
G1 F1868.5 X108.319 Y113.429 E10.72741
G0 F5400 X108.219 Y112.963
G1 F1868.5 X107.753 Y113.429 E10.74933
G0 F5400 X107.188 Y113.429
G1 F1868.5 X107.875 Y112.741 E10.78167
G0 F5400 X107.582 Y112.469
G1 F1868.5 X106.622 Y113.429 E10.82682
G0 F5400 X106.57 Y112.915
G1 F1868.5 X107.304 Y112.181 E10.86135
G0 F5400 X107.075 Y111.845
G1 F1868.5 X106.57 Y112.35 E10.8851
G0 F5400 X106.57 Y111.784
G1 F1868.5 X106.866 Y111.488 E10.89902
G0 F5400 X106.57 Y111.218
G1 F1868.5 X106.712 Y111.076 E10.9057
G0 F5400 X106.57 Y108.955
G1 F1868.5 X106.775 Y108.75 E10.91535
G0 F5400 X106.57 Y108.39
G1 F1868.5 X108.39 Y106.569 E11.00098
G0 F5400 X108.76 Y106.766
G1 F1868.5 X108.956 Y106.569 E11.01022
G0 F5400 X107.825 Y106.569
G1 F1868.5 X106.57 Y107.824 E11.06925
G0 F5400 X106.57 Y107.258
G1 F1868.5 X107.259 Y106.569 E11.10166
G0 F5400 X106.693 Y106.569
G1 F1868.5 X106.57 Y106.693 E11.10747
G0 F5400 X111.082 Y106.706
G1 F1868.5 X111.21 Y106.578 E11.11349
;MESH:NONMESH
G0 F600 X111.21 Y106.578 Z0.6
G0 F5400 X105.6 Y105.6
;TIME_ELAPSED:13.818069
;LAYER:2
;TYPE:WALL-INNER
;MESH:c548f344-7ee4-40b6-b593-8738d8e9dedd.stl
G1 F3877 X112.246 Y105.6 E11.33454
G1 X112.246 Y108.297 E11.42424
G1 X112.246 Y108.585 E11.43382
G1 X112.246 Y108.93 E11.44529
G1 X112.063 Y108.585 E11.44913
G1 X111.874 Y108.368 E11.45627
G1 X111.682 Y108.148 E11.46598
G1 X111.209 Y107.81 E11.48532
G1 X110.672 Y107.59 E11.50462
G1 X110.098 Y107.5 E11.52394
G1 X109.518 Y107.544 E11.54329
G1 X108.964 Y107.721 E11.56263
G1 X108.466 Y108.022 E11.58199
G1 X108.052 Y108.43 E11.60132
G1 X107.743 Y108.92 E11.62059
G1 X107.554 Y109.47 E11.63993
G1 X107.498 Y110.049 E11.65928
G1 X107.576 Y110.623 E11.67855
G1 X107.786 Y111.167 E11.69794
G1 X108.115 Y111.646 E11.71727
G1 X108.545 Y112.036 E11.73658
G1 X109.053 Y112.316 E11.75587
G1 X109.612 Y112.472 E11.77517
G1 X110.192 Y112.496 E11.79448
G1 X110.764 Y112.383 E11.81387
G1 X111.293 Y112.142 E11.83321
G1 X111.752 Y111.786 E11.85253
G1 X111.878 Y111.629 E11.85922
G1 X112.116 Y111.333 E11.87185
G1 X112.247 Y111.06 E11.88193
G1 X112.247 Y111.333 E11.88321
G1 X112.247 Y111.713 E11.89185
G1 X112.247 Y114.4 E11.98122
G1 X105.6 Y114.4 E12.2023
G1 X105.6 Y105.6 E12.49499
G0 F7200 X107.929 Y111.091
G0 X108.236 Y111.539
G0 X108.64 Y111.905
G0 X109.114 Y112.166
G0 X109.636 Y112.312
G0 X110.183 Y112.334
G0 X111.268 Y112.035
G0 X111.085 Y111.797
;TYPE:WALL-OUTER
G1 F1938.5 X111.47 Y111.499 E12.51118
G1 X111.775 Y111.119 E12.52739
G1 X111.985 Y110.68 E12.54357
G1 X112.089 Y110.204 E12.55978
G1 X112.081 Y109.716 E12.57601
G1 X111.959 Y109.243 E12.59226
G1 X111.731 Y108.813 E12.60844
G1 X111.411 Y108.446 E12.62464
G1 X111.014 Y108.163 E12.64086
G1 X110.563 Y107.978 E12.65707
G1 X110.082 Y107.902 E12.67327
G1 X109.595 Y107.939 E12.68951
G1 X109.131 Y108.088 E12.70572
G1 X108.713 Y108.34 E12.72195
G1 X108.366 Y108.682 E12.73816
G1 X108.106 Y109.094 E12.75436
G1 X107.948 Y109.555 E12.77057
G1 X107.901 Y110.041 E12.78681
G1 X107.966 Y110.523 E12.80299
G1 X108.142 Y110.979 E12.81924
G1 X108.418 Y111.381 E12.83546
G1 X108.779 Y111.708 E12.85166
G1 X109.205 Y111.943 E12.86784
G1 X109.675 Y112.074 E12.88407
G1 X110.161 Y112.094 E12.90025
G1 X110.641 Y112 E12.91652
G1 X111.085 Y111.797 E12.93276
G0 F7200 X111.243 Y111.675
G0 X111.511 Y112.023
G0 X112.377 Y114.53
G0 X112.647 Y114.6
G1 F1938.5 X112.647 Y114.8 E12.93941
G1 X112.447 Y114.8 E12.94371
G1 X105.2 Y114.8 E13.18475
G1 X105.2 Y105.2 E13.50405
G1 X112.646 Y105.2 E13.7517
G1 X112.647 Y114.6 E14.06435
G0 F7200 X112.647 Y114.8
G0 X112.377 Y114.53
G0 X111.857 Y114.01
;TYPE:SKIN
G1 F1938.5 X105.99 Y114.01 E14.25949
G1 X105.99 Y105.99 E14.52623
G1 X111.856 Y105.99 E14.72134
G1 X111.856 Y107.793 E14.7813
G1 X111.399 Y107.467 E14.79997
G1 X110.777 Y107.212 E14.82233
G1 X110.114 Y107.108 E14.84465
G1 X109.442 Y107.158 E14.86707
G1 X108.802 Y107.364 E14.88943
G1 X108.225 Y107.712 E14.91184
G1 X107.746 Y108.184 E14.93421
G1 X107.389 Y108.75 E14.95646
G1 X107.17 Y109.387 E14.97887
G1 X107.106 Y110.057 E15.00125
G1 X107.196 Y110.721 E15.02354
G1 X107.439 Y111.35 E15.04597
G1 X107.819 Y111.904 E15.06831
G1 X108.317 Y112.356 E15.09068
G1 X108.905 Y112.679 E15.11299
G1 X109.551 Y112.86 E15.13531
G1 X110.222 Y112.888 E15.15765
G1 X110.885 Y112.757 E15.18012
G1 X111.496 Y112.478 E15.20246
G1 X111.857 Y112.198 E15.21766
G1 X111.857 Y114.01 E15.27793
G0 F7200 X106.475 Y113.829
G1 F1938.5 X106.169 Y113.523 E15.29232
G0 F7200 X106.169 Y112.958
G1 F1938.5 X107.041 Y113.829 E15.33331
G0 F7200 X107.606 Y113.829
G1 F1938.5 X106.169 Y112.392 E15.4009
G0 F7200 X106.169 Y111.826
G1 F1938.5 X108.172 Y113.829 E15.49512
G0 F7200 X108.738 Y113.829
G1 F1938.5 X106.169 Y111.261 E15.61593
G0 F7200 X106.169 Y110.695
G1 F1938.5 X109.303 Y113.829 E15.76335
G0 F7200 X109.869 Y113.829
G1 F1938.5 X108.905 Y112.865 E15.80869
G0 F7200 X109.649 Y113.043
G1 F1938.5 X110.435 Y113.829 E15.84566
G0 F7200 X111 Y113.829
G1 F1938.5 X110.239 Y113.067 E15.88148
G0 F7200 X110.711 Y112.974
G1 F1938.5 X111.566 Y113.829 E15.9217
G0 F7200 X111.676 Y113.373
G1 F1938.5 X111.14 Y112.837 E15.94691
G0 F7200 X111.529 Y112.66
G1 F1938.5 X111.676 Y112.808 E15.95385
G0 F7200 X109.114 Y112.166
G0 X107.156 Y111.116
G1 F1938.5 X106.169 Y110.129 E16.00027
G0 F7200 X106.169 Y109.564
G1 F1938.5 X106.966 Y110.36 E16.03774
G0 F7200 X106.952 Y109.78
G1 F1938.5 X106.169 Y108.998 E16.07454
G0 F7200 X106.169 Y108.432
G1 F1938.5 X107.016 Y109.279 E16.11438
G0 F7200 X107.16 Y108.857
G1 F1938.5 X106.169 Y107.867 E16.16097
G0 F7200 X106.169 Y107.301
G1 F1938.5 X107.347 Y108.478 E16.21636
G0 F7200 X107.566 Y108.132
G1 F1938.5 X106.169 Y106.735 E16.28207
G0 F7200 X106.169 Y106.169
G1 F1938.5 X107.838 Y107.838 E16.36058
G0 F7200 X108.125 Y107.56
G1 F1938.5 X106.735 Y106.169 E16.42598
G0 F7200 X107.301 Y106.169
G1 F1938.5 X108.478 Y107.347 E16.48137
G0 F7200 X108.854 Y107.157
G1 F1938.5 X107.867 Y106.169 E16.52781
G0 F7200 X108.432 Y106.169
G1 F1938.5 X109.282 Y107.019 E16.5678
G0 F7200 X109.78 Y106.952
G1 F1938.5 X108.998 Y106.169 E16.6046
G0 F7200 X109.564 Y106.169
G1 F1938.5 X110.358 Y106.964 E16.64197
G0 F7200 X111.117 Y107.157
G1 F1938.5 X110.129 Y106.169 E16.68845
