;FLAVOR:Marlin
;TIME:1256
;Filament used: 2.2486m
;Layer height: 0.2
;MINX:53.836
;MINY:98.95
;MINZ:0.2
;MAXX:165.3
;MAXY:121.913
;MAXZ:13.2
;LINEARADVANCEPROCESSED
;Generated with Cura_SteamEngine 4.8.0
M140 S60
M105
M190 S60
M104 S210
M105
M109 S210
M82 ;absolute extrusion mode
G92 E0 ; Reset Extruder
G28 ; Home all axes
G29; Probe Bed
M500; Save to eprom
G1 Z2.0 F3000 ; Move Z Axis up little to prevent scratching of Heat Bed
G1 X0.1 Y20 Z0.3 F5000.0 ; Move to start position
G1 X0.1 Y200.0 Z0.3 F1500.0 E15 ; Draw the first line
G1 X0.4 Y200.0 Z0.3 F5000.0 ; Move to side a little
G1 X0.4 Y20 Z0.3 F1500.0 E30 ; Draw the second line
G92 E0 ; Reset Extruder
G1 Z2.0 F3000 ; Move Z Axis up little to prevent scratching of Heat Bed
G1 X5 Y20 Z0.3 F5000.0 ; Move over to prevent blob squish
G92 E0
G92 E0
G1 F2400 E-1.2
;LAYER_COUNT:66
M900 K0.000000 T0 ;added by LinearAdvanceSettingPlugin
;LAYER:0
M107
G1 F600 Z0.4
;MESH:Nut_Trap_Burly.STL
G0 F3600 X125.408 Y104.898 Z0.4
;TYPE:WALL-INNER
G1 F600 Z0.2
G1 F2400 E0
G1 F3600 X125.359 Y104.816 E0.00318
G1 X125.282 Y104.688 E0.00815
G1 X125.369 Y104.809 E0.00822
G1 X125.408 Y104.898 E0.0083
G0 X125.59 Y105.423
G1 X125.543 Y105.227 E0.01501
G1 X125.531 Y105.178 E0.01668
G1 X125.551 Y105.224
G1 X125.59 Y105.423 E0.01675
G0 X125.617 Y106.174
G1 X125.62 Y106.123 E0.01845
G1 X125.633 Y105.928 E0.02495
G1 X125.629 Y106.123 E0.02502
G1 X125.617 Y106.174 E0.02506
G0 X125.456 Y106.698
G1 X125.511 Y106.554 E0.03019
G1 X125.548 Y106.459 E0.03358
G1 X125.524 Y106.558 E0.03362
G1 X125.456 Y106.698 E0.03372
G0 X124.578 Y107.67
G1 X124.683 Y107.599 E0.03793
G1 X124.813 Y107.512 E0.04314
G1 X124.691 Y107.61 E0.04322
G1 X124.578 Y107.67 E0.04329
G0 X114.737 Y112.034
G0 X114.324 Y112.746
G0 X114.455 Y113.419
G1 X114.954 Y113.6 E0.06094
G1 X161.436 Y113.601 E1.60694
G1 X161.458 Y113.608 E1.60771
G1 X161.458 Y117.937 E1.75169
G1 X161.458 Y118.136 E1.75831
G1 X161.259 Y118.136 E1.76259
G1 X152.446 Y118.134 E2.05572
G1 X132.621 Y118.136 E2.7151
G1 X132.021 Y118.116 E2.73507
G1 X131.511 Y118.083 E2.75206
G1 X131.016 Y118.034 E2.76861
G1 X130.431 Y117.964 E2.7882
G1 X129.902 Y117.894 E2.80595
G1 X129.35 Y117.814 E2.8245
G1 X128.596 Y117.699 E2.84987
G1 X126.86 Y117.426 E2.90832
G1 X126.01 Y117.295 E2.93692
G1 X124.251 Y117.059 E2.99595
G1 X121.028 Y116.727 E3.10372
G1 X117.742 Y116.526 E3.21322
G1 X114.476 Y116.459 E3.32187
G1 X111.209 Y116.527 E3.43055
G1 X107.948 Y116.729 E3.53922
G1 X104.725 Y117.061 E3.64698
G1 X103.011 Y117.293 E3.70451
G1 X102.348 Y117.392 E3.72681
G1 X101.629 Y117.507 E3.75103
G1 X99.897 Y117.775 E3.80932
G1 X99.071 Y117.897 E3.83709
G1 X98.586 Y117.961 E3.85336
G1 X97.988 Y118.033 E3.87339
G1 X97.493 Y118.082 E3.88994
G1 X96.933 Y118.122 E3.90861
G1 X96.428 Y118.134 E3.92541
G1 X55.177 Y118.134 E5.29743
G1 X55.177 Y113.602 E5.44816
G1 X55.61 Y113.6 E5.46256
G1 X110.501 Y113.6 E7.28824
G1 X110.735 Y113.552 E7.29619
G1 X113.978 Y112.179 E7.41332
G1 X114.159 Y112.103 E7.41985
G1 X114.611 Y111.912 E7.43617
G1 X124.33 Y107.799 E7.78718
G1 X124.349 Y107.791 E7.78787
G1 X124.331 Y107.801
G1 X114.612 Y111.912 E7.78915
G1 X114.229 Y112.266 E7.7936
G1 X114.201 Y112.461 E7.79857
G1 X114.14 Y112.873 E7.81243
G1 X114.455 Y113.419 E7.83339
G0 X114.729 Y113.093
;TYPE:WALL-OUTER
G1 X115.024 Y113.2 E7.84383
G1 X161.499 Y113.201 E9.38959
G1 X161.706 Y113.266 E9.39681
G1 X161.814 Y113.374 E9.40189
G1 X161.858 Y113.529 E9.40725
G1 X161.858 Y118.247 E9.56417
G1 X161.858 Y118.286 E9.56547
G1 X161.808 Y118.459 E9.57146
G1 X161.654 Y118.536 E9.57718
G1 X161.615 Y118.536 E9.57848
G1 X152.446 Y118.534 E9.88344
G1 X132.608 Y118.536 E10.54326
G1 X132.008 Y118.516 E10.56322
G1 X131.476 Y118.481 E10.58096
G1 X130.977 Y118.432 E10.59763
G1 X130.379 Y118.361 E10.61766
G1 X129.85 Y118.291 E10.63541
G1 X129.292 Y118.209 E10.65417
G1 X128.534 Y118.094 E10.67967
G1 X126.799 Y117.821 E10.73809
G1 X125.953 Y117.691 E10.76655
G1 X124.204 Y117.456 E10.82525
G1 X120.995 Y117.126 E10.93254
G1 X117.726 Y116.926 E11.04147
G1 X114.476 Y116.859 E11.14959
G1 X111.226 Y116.927 E11.25771
G1 X107.981 Y117.128 E11.36585
G1 X104.772 Y117.458 E11.47314
G1 X103.067 Y117.689 E11.53037
G1 X102.409 Y117.787 E11.5525
G1 X101.692 Y117.902 E11.57665
G1 X99.955 Y118.171 E11.63511
G1 X99.129 Y118.292 E11.66288
G1 X98.634 Y118.358 E11.67948
G1 X98.031 Y118.431 E11.69969
G1 X97.522 Y118.481 E11.7167
G1 X96.951 Y118.522 E11.73574
G1 X96.437 Y118.534 E11.75284
G1 X54.829 Y118.534 E13.13673
G1 X54.777 Y118.504 E13.13872
G1 X54.777 Y113.218 E13.31454
G1 X54.805 Y113.203 E13.31559
G1 X55.609 Y113.2 E13.34233
G1 X110.46 Y113.2 E15.16669
G1 X110.616 Y113.168 E15.17198
G1 X124.29 Y107.382 E15.66582
G1 X124.707 Y107.1 E15.68256
G1 X125.028 Y106.696 E15.69973
G1 X125.213 Y106.217 E15.7168
G1 X125.247 Y105.703 E15.73394
G1 X125.125 Y105.202 E15.75109
G1 X124.859 Y104.762 E15.76819
G1 X124.477 Y104.423 E15.78518
G1 X124.131 Y104.25 E15.79804
G1 X117.228 Y101.328 E16.04736
G1 X116.862 Y101.173 E16.06058
G1 X116.639 Y100.986 E16.07026
G1 X116.604 Y100.957 E16.07177
G1 X116.682 Y100.934
G1 X116.862 Y100.934 E16.0732
G1 X117.26 Y100.934 E16.08383
G1 X118.354 Y100.937 E16.12022
G1 X124.512 Y103.542 E16.3426
G1 X124.994 Y103.81 E16.36095
G1 X125.4 Y104.17 E16.37899
G1 X125.719 Y104.609 E16.39704
G1 X125.934 Y105.101 E16.4149
G1 X126.039 Y105.631 E16.43287
G1 X126.028 Y106.174 E16.45094
G1 X125.903 Y106.694 E16.46872
G1 X125.663 Y107.184 E16.48687
G1 X125.326 Y107.609 E16.50491
G1 X124.909 Y107.948 E16.52279
G1 X124.51 Y108.159 E16.5378
G1 X114.832 Y112.253 E16.88731
G1 X114.604 Y112.464 E16.89764
G1 X114.556 Y112.793 E16.9087
G1 X114.729 Y113.093 E16.92021
G0 X114.917 Y113.161
G0 X114.766 Y113.575
G0 X114.886 Y113.99
;TYPE:SKIN
G1 X161.068 Y113.991 E18.45623
G1 X161.068 Y117.746 E18.58113
G1 X152.446 Y117.744 E18.86789
G1 X132.634 Y117.746 E19.52684
G1 X132.046 Y117.726 E19.54641
G1 X131.536 Y117.693 E19.56341
G1 X131.063 Y117.646 E19.57922
G1 X130.383 Y117.565 E19.602
G1 X129.958 Y117.508 E19.61626
G1 X129.409 Y117.428 E19.63471
G1 X128.655 Y117.313 E19.66008
G1 X126.919 Y117.04 E19.71853
G1 X126.065 Y116.909 E19.74727
G1 X124.297 Y116.671 E19.8066
G1 X121.06 Y116.339 E19.91483
G1 X117.758 Y116.136 E20.02486
G1 X114.476 Y116.069 E20.13404
G1 X111.193 Y116.137 E20.24326
G1 X107.916 Y116.341 E20.35246
G1 X104.679 Y116.673 E20.46069
G1 X102.956 Y116.907 E20.51852
G1 X102.288 Y117.006 E20.54098
G1 X101.718 Y117.098 E20.56019
G1 X99.837 Y117.389 E20.6235
G1 X99.014 Y117.511 E20.65117
G1 X98.631 Y117.563 E20.66402
G1 X97.941 Y117.645 E20.68713
G1 X97.459 Y117.693 E20.70324
G1 X96.914 Y117.732 E20.72142
G1 X96.418 Y117.744 E20.73792
G1 X55.567 Y117.744 E22.09663
G1 X55.567 Y113.99 E22.22149
G1 X110.542 Y113.99 E24.04996
G1 X110.852 Y113.926 E24.06049
G1 X113.772 Y112.691 E24.16594
G1 X113.734 Y112.951 E24.17468
G1 X114.188 Y113.737 E24.20487
G1 X114.886 Y113.99 E24.22956
G0 X160.887 Y114.501
G1 X160.557 Y114.171 E24.24509
G0 X159.992 Y114.171
G1 X160.887 Y115.066 E24.28718
G0 X160.887 Y115.632
G1 X159.426 Y114.171 E24.35591
G0 X158.86 Y114.171
G1 X160.887 Y116.198 E24.45125
G0 X160.887 Y116.763
G1 X158.295 Y114.171 E24.57317
G0 X157.729 Y114.171
G1 X160.887 Y117.329 E24.72171
G0 X160.557 Y117.564
G1 X157.163 Y114.171 E24.88133
G0 X156.597 Y114.171
G1 X159.991 Y117.564 E25.04095
G0 X159.425 Y117.564
G1 X156.032 Y114.171 E25.20055
G0 X155.466 Y114.171
G1 X158.86 Y117.564 E25.36017
G0 X158.294 Y117.564
G1 X154.9 Y114.171 E25.51979
G0 X154.335 Y114.171
G1 X157.727 Y117.564 E25.67936
G0 X157.162 Y117.564
G1 X153.769 Y114.171 E25.83896
G0 X153.203 Y114.171
G1 X156.596 Y117.564 E25.99855
G0 X156.03 Y117.564
G1 X152.638 Y114.171 E26.15813
G0 X152.072 Y114.171
G1 X155.465 Y117.564 E26.31772
G0 X154.898 Y117.563
G1 X151.506 Y114.171 E26.47727
G0 X150.941 Y114.171
G1 X154.333 Y117.563 E26.63682
G0 X153.767 Y117.563
G1 X150.375 Y114.171 E26.79637
G0 X149.809 Y114.171
G1 X153.201 Y117.563 E26.95592
G0 X152.636 Y117.563
G1 X149.244 Y114.171 E27.11547
G0 X148.678 Y114.171
G1 X152.07 Y117.563 E27.27502
G0 X151.504 Y117.563
G1 X148.112 Y114.171 E27.43457
G0 X147.547 Y114.171
G1 X150.939 Y117.563 E27.59412
G0 X150.373 Y117.563
G1 X146.981 Y114.171 E27.75367
G0 X146.415 Y114.171
G1 X149.807 Y117.563 E27.91321
G0 X149.241 Y117.563
G1 X145.849 Y114.171 E28.07276
G0 X145.284 Y114.171
G1 X148.676 Y117.563 E28.23231
G0 X148.11 Y117.563
G1 X144.718 Y114.171 E28.39186
G0 X144.152 Y114.171
G1 X147.544 Y117.563 E28.55141
G0 X146.979 Y117.564
G1 X143.587 Y114.171 E28.71098
G0 X143.021 Y114.171
G1 X146.414 Y117.564 E28.87058
G0 X145.848 Y117.564
G1 X142.455 Y114.171 E29.03018
G0 X141.89 Y114.171
G1 X145.282 Y117.564 E29.18975
G0 X144.717 Y117.564
G1 X141.324 Y114.171 E29.34935
G0 X140.758 Y114.171
G1 X144.151 Y117.564 E29.50894
G0 X143.585 Y117.564
G1 X140.193 Y114.171 E29.66852
G0 X139.627 Y114.171
G1 X143.02 Y117.564 E29.82811
G0 X142.455 Y117.564
G1 X139.061 Y114.171 E29.98773
G0 X138.496 Y114.171
G1 X141.889 Y117.564 E30.14733
G0 X141.323 Y117.564
G1 X137.93 Y114.171 E30.30692
G0 X137.363 Y114.17
G1 X140.758 Y117.564 E30.46659
G0 X140.192 Y117.564
G1 X136.798 Y114.17 E30.62623
G0 X136.232 Y114.17
G1 X139.626 Y117.564 E30.78588
G0 X139.061 Y117.564
G1 X135.666 Y114.17 E30.94554
G0 X135.101 Y114.17
G1 X138.495 Y117.564 E31.10519
G0 X137.929 Y117.564
G1 X134.535 Y114.17 E31.26483
G0 X133.969 Y114.17
G1 X137.364 Y117.565 E31.42452
G0 X136.798 Y117.565
G1 X133.404 Y114.17 E31.58419
G0 X132.838 Y114.17
G1 X136.233 Y117.565 E31.74388
G0 X135.667 Y117.565
G1 X132.272 Y114.17 E31.90357
G0 X131.707 Y114.17
G1 X135.101 Y117.565 E32.06324
G0 X134.536 Y117.565
G1 X131.141 Y114.17 E32.22293
G0 X130.575 Y114.17
G1 X133.97 Y117.565 E32.38262
G0 X133.404 Y117.565
G1 X130.01 Y114.17 E32.54228
G0 X129.444 Y114.17
G1 X132.839 Y117.565 E32.70197
G0 X132.26 Y117.552
G1 X128.878 Y114.17 E32.86105
G0 X128.313 Y114.17
G1 X131.661 Y117.519 E33.01856
G0 X131.037 Y117.461
G1 X127.747 Y114.17 E33.17333
G0 X127.181 Y114.17
G1 X130.396 Y117.386 E33.32458
G0 X129.739 Y117.294
G1 X126.615 Y114.17 E33.47152
G0 X126.05 Y114.17
G1 X129.074 Y117.195 E33.61379
G0 X128.404 Y117.091
G1 X125.484 Y114.17 E33.75116
G0 X124.918 Y114.17
G1 X127.733 Y116.985 E33.88357
G0 X127.062 Y116.88
G1 X124.353 Y114.17 E34.01101
G0 X123.787 Y114.17
G1 X126.393 Y116.777 E34.13361
G0 X125.734 Y116.683
G1 X123.221 Y114.17 E34.25182
G0 X122.656 Y114.17
G1 X125.08 Y116.594 E34.36584
G0 X124.426 Y116.506
G1 X122.09 Y114.17 E34.47571
G0 X121.524 Y114.17
G1 X123.791 Y116.437 E34.58235
G0 X123.161 Y116.373
G1 X120.959 Y114.17 E34.68594
G0 X120.393 Y114.17
G1 X122.531 Y116.309 E34.78653
G0 X121.901 Y116.244
G1 X119.827 Y114.17 E34.88409
G0 X119.262 Y114.17
G1 X121.27 Y116.179 E34.97856
G0 X120.659 Y116.133
G1 X118.696 Y114.17 E35.0709
G0 X118.13 Y114.17
G1 X120.056 Y116.097 E35.16151
G0 X119.453 Y116.059
G1 X117.564 Y114.17 E35.25036
G0 X116.999 Y114.17
G1 X118.85 Y116.022 E35.33745
G0 X118.248 Y115.985
G1 X116.433 Y114.17 E35.42283
G0 X115.867 Y114.17
G1 X117.649 Y115.952 E35.50665
G0 X117.072 Y115.941
G1 X115.302 Y114.17 E35.58992
G0 X114.668 Y114.102
G1 X116.495 Y115.929 E35.67586
G0 X115.917 Y115.917
G1 X113.149 Y113.149 E35.80606
G0 X112.752 Y113.318
G1 X115.339 Y115.905 E35.92774
G0 X114.762 Y115.894
G1 X112.355 Y113.486 E36.04098
G0 X111.956 Y113.653
G1 X114.197 Y115.894 E36.14639
G0 X113.642 Y115.905
G1 X111.559 Y113.822 E36.24437
G0 X111.162 Y113.99
G1 X113.088 Y115.916 E36.33497
G0 X112.533 Y115.928
G1 X110.738 Y114.132 E36.41942
G0 X110.209 Y114.169
G1 X111.979 Y115.939 E36.50268
G0 X111.425 Y115.95
G1 X109.643 Y114.169 E36.58647
G0 X109.078 Y114.169
G1 X110.883 Y115.974 E36.67137
G0 X110.351 Y116.007
G1 X108.512 Y114.169 E36.75785
G0 X107.946 Y114.169
G1 X109.818 Y116.041 E36.8459
G0 X109.286 Y116.074
G1 X107.381 Y114.169 E36.93551
G0 X106.815 Y114.169
G1 X108.753 Y116.107 E37.02667
G0 X108.221 Y116.14
G1 X106.249 Y114.169 E37.1194
G0 X105.684 Y114.169
G1 X107.696 Y116.181 E37.21404
G0 X107.183 Y116.234
G1 X105.118 Y114.169 E37.31117
G0 X104.552 Y114.169
G1 X106.67 Y116.287 E37.41079
G0 X106.157 Y116.339
G1 X103.987 Y114.169 E37.51286
G0 X103.421 Y114.169
G1 X105.643 Y116.391 E37.61738
G0 X105.131 Y116.444
G1 X102.855 Y114.169 E37.72441
G0 X102.29 Y114.169
G1 X104.619 Y116.498 E37.83396
G0 X104.12 Y116.565
G1 X101.724 Y114.169 E37.94666
G0 X101.158 Y114.169
G1 X103.622 Y116.633 E38.06256
G0 X103.125 Y116.701
G1 X100.593 Y114.169 E38.18166
G0 X100.027 Y114.169
G1 X102.63 Y116.772 E38.3041
G0 X102.138 Y116.846
G1 X99.461 Y114.169 E38.43001
G0 X98.895 Y114.169
G1 X101.652 Y116.925 E38.55967
G0 X101.162 Y117.001
G1 X98.33 Y114.169 E38.69288
G0 X97.764 Y114.169
G1 X100.672 Y117.077 E38.82966
G0 X100.182 Y117.152
G1 X97.198 Y114.169 E38.97
G0 X96.633 Y114.169
G1 X99.691 Y117.227 E39.11384
G0 X99.198 Y117.3
G1 X96.067 Y114.169 E39.26111
G0 X95.501 Y114.169
G1 X98.703 Y117.371 E39.41172
G0 X98.198 Y117.432
G1 X94.936 Y114.169 E39.56518
G0 X94.37 Y114.169
G1 X97.688 Y117.487 E39.72125
G0 X97.167 Y117.532
G1 X93.804 Y114.169 E39.87943
G0 X93.239 Y114.169
G1 X96.627 Y117.557 E40.0388
G0 X96.067 Y117.563
G1 X92.673 Y114.169 E40.19844
G0 X92.107 Y114.169
G1 X95.501 Y117.563 E40.35808
G0 X94.936 Y117.563
G1 X91.542 Y114.169 E40.51773
G0 X90.976 Y114.169
G1 X94.37 Y117.563 E40.67737
G0 X93.804 Y117.563
G1 X90.41 Y114.169 E40.83701
G0 X89.844 Y114.169
G1 X93.239 Y117.563 E40.99668
G0 X92.673 Y117.563
G1 X89.279 Y114.169 E41.15632
G0 X88.713 Y114.169
G1 X92.107 Y117.563 E41.31597
G0 X91.542 Y117.563
G1 X88.147 Y114.169 E41.47563
G0 X87.582 Y114.169
G1 X90.976 Y117.563 E41.63528
G0 X90.41 Y117.563
G1 X87.016 Y114.169 E41.79492
G0 X86.45 Y114.169
G1 X89.844 Y117.563 E41.95456
G0 X89.279 Y117.563
G1 X85.885 Y114.169 E42.11421
G0 X85.319 Y114.169
G1 X88.713 Y117.563 E42.27385
G0 X88.147 Y117.563
G1 X84.753 Y114.169 E42.43349
G0 X84.188 Y114.169
G1 X87.582 Y117.563 E42.59314
G0 X87.016 Y117.563
G1 X83.622 Y114.169 E42.75278
G0 X83.056 Y114.169
G1 X86.45 Y117.563 E42.91242
G0 X85.885 Y117.563
G1 X82.491 Y114.169 E43.07207
G0 X81.925 Y114.169
G1 X85.319 Y117.563 E43.23171
G0 X84.753 Y117.563
G1 X81.359 Y114.169 E43.39135
G0 X80.794 Y114.169
G1 X84.188 Y117.563 E43.551
G0 X83.622 Y117.563
G1 X80.228 Y114.169 E43.71064
G0 X79.662 Y114.169
G1 X83.056 Y117.563 E43.87028
G0 X82.491 Y117.563
G1 X79.096 Y114.169 E44.02995
G0 X78.531 Y114.169
G1 X81.925 Y117.563 E44.18959
G0 X81.359 Y117.563
G1 X77.965 Y114.169 E44.34924
G0 X77.399 Y114.169
G1 X80.794 Y117.563 E44.5089
G0 X80.228 Y117.563
G1 X76.834 Y114.169 E44.66855
G0 X76.268 Y114.169
G1 X79.662 Y117.563 E44.82819
G0 X79.096 Y117.563
G1 X75.702 Y114.169 E44.98783
G0 X75.137 Y114.169
G1 X78.531 Y117.563 E45.14748
G0 X77.965 Y117.563
G1 X74.571 Y114.169 E45.30712
G0 X74.005 Y114.169
G1 X77.399 Y117.563 E45.46676
G0 X76.834 Y117.563
G1 X73.44 Y114.169 E45.62641
G0 X72.874 Y114.169
G1 X76.268 Y117.563 E45.78605
G0 X75.702 Y117.563
G1 X72.308 Y114.169 E45.94569
G0 X71.743 Y114.169
G1 X75.137 Y117.563 E46.10534
G0 X74.571 Y117.563
G1 X71.177 Y114.169 E46.26498
G0 X70.611 Y114.169
G1 X74.005 Y117.563 E46.42462
G0 X73.44 Y117.563
G1 X70.045 Y114.169 E46.58429
G0 X69.48 Y114.169
G1 X72.874 Y117.563 E46.74393
G0 X72.308 Y117.563
G1 X68.914 Y114.169 E46.90358
G0 X68.348 Y114.169
G1 X71.743 Y117.563 E47.06324
G0 X71.177 Y117.563
G1 X67.783 Y114.169 E47.22289
G0 X67.217 Y114.169
G1 X70.611 Y117.563 E47.38253
G0 X70.045 Y117.563
G1 X66.651 Y114.169 E47.54217
G0 X66.086 Y114.169
G1 X69.48 Y117.563 E47.70182
G0 X68.914 Y117.563
G1 X65.52 Y114.169 E47.86146
G0 X64.954 Y114.169
G1 X68.348 Y117.563 E48.0211
G0 X67.783 Y117.563
G1 X64.389 Y114.169 E48.18075
G0 X63.823 Y114.169
G1 X67.217 Y117.563 E48.34039
G0 X66.651 Y117.563
G1 X63.257 Y114.169 E48.50003
G0 X62.692 Y114.169
G1 X66.086 Y117.563 E48.65968
G0 X65.52 Y117.563
G1 X62.126 Y114.169 E48.81932
G0 X61.56 Y114.169
G1 X64.954 Y117.563 E48.97896
G0 X64.389 Y117.563
G1 X60.995 Y114.169 E49.13861
G0 X60.429 Y114.169
G1 X63.823 Y117.563 E49.29825
G0 X63.257 Y117.563
G1 X59.863 Y114.169 E49.45789
G0 X59.297 Y114.169
G1 X62.692 Y117.563 E49.61756
G0 X62.126 Y117.563
