;FLAVOR:Marlin
;TIME:776
;Filament used: 1.11098m
;Layer height: 0.2
;MINX:98.906
;MINY:98.912
;MINZ:0.2
;MAXX:121.094
;MAXY:121.088
;MAXZ:17.8
;LINEARADVANCEPROCESSED
;Generated with Cura_SteamEngine 4.8.0
M140 S55
M105
M190 S55
M104 S220
M105
M109 S220
M82 ;absolute extrusion mode
G92 E0 ; Reset Extruder
G28 ; Home all axes
G29; Probe Bed
M500; Save to eprom
G1 Z2.0 F3000 ; Move Z Axis up little to prevent scratching of Heat Bed
G1 X0.1 Y20 Z0.3 F5000.0 ; Move to start position
G1 X0.1 Y200.0 Z0.3 F1500.0 E15 ; Draw the first line
G1 X0.4 Y200.0 Z0.3 F5000.0 ; Move to side a little
G1 X0.4 Y20 Z0.3 F1500.0 E30 ; Draw the second line
G92 E0 ; Reset Extruder
G1 Z2.0 F3000 ; Move Z Axis up little to prevent scratching of Heat Bed
G1 X5 Y20 Z0.3 F5000.0 ; Move over to prevent blob squish
G92 E0
G92 E0
G1 F2400 E-1.2
;LAYER_COUNT:89
M900 K0.000000 T0 ;added by LinearAdvanceSettingPlugin
;LAYER:0
M107
;MESH:0f56755e-fab6-42d2-bdfe-6bbb09b210e6.stl
G0 F3600 X113.495 Y119.501 Z0.2
;TYPE:WALL-INNER
G1 F2400 E0
G1 F3600 X112.877 Y119.704 E0.02164
G1 X112.262 Y119.866 E0.04279
G1 X111.61 Y119.993 E0.06488
G1 X110.974 Y120.074 E0.08621
G1 X110.321 Y120.116 E0.10797
G1 X109.679 Y120.116 E0.12932
G1 X109.026 Y120.074 E0.15109
G1 X108.39 Y119.993 E0.17241
G1 X107.738 Y119.866 E0.1945
G1 X107.132 Y119.707 E0.21534
G1 X106.496 Y119.496 E0.23763
G1 X105.903 Y119.257 E0.25889
G1 X105.313 Y118.971 E0.2807
G1 X104.757 Y118.658 E0.30192
G1 X104.204 Y118.297 E0.32389
G1 X103.691 Y117.916 E0.34514
G1 X103.195 Y117.494 E0.3668
G1 X102.737 Y117.05 E0.38802
G1 X102.296 Y116.566 E0.4098
G1 X101.885 Y116.05 E0.43174
G1 X101.522 Y115.531 E0.4528
G1 X101.174 Y114.956 E0.47516
G1 X100.882 Y114.396 E0.49616
G1 X100.62 Y113.808 E0.51757
G1 X100.388 Y113.173 E0.54006
G1 X100.209 Y112.568 E0.56104
G1 X100.065 Y111.94 E0.58247
G1 X99.961 Y111.295 E0.6042
G1 X99.9 Y110.657 E0.62552
G1 X99.878 Y110.006 E0.64718
G1 X99.9 Y109.339 E0.66938
G1 X99.962 Y108.698 E0.6908
G1 X100.066 Y108.057 E0.7124
G1 X100.21 Y107.426 E0.73392
G1 X100.388 Y106.828 E0.75468
G1 X100.625 Y106.182 E0.77756
G1 X100.883 Y105.604 E0.79862
G1 X101.176 Y105.038 E0.81981
G1 X101.513 Y104.483 E0.84141
G1 X101.885 Y103.95 E0.86303
G1 X102.297 Y103.433 E0.88502
G1 X102.728 Y102.958 E0.90635
G1 X103.189 Y102.511 E0.92771
G1 X103.692 Y102.083 E0.94967
G1 X104.204 Y101.703 E0.97088
G1 X104.757 Y101.342 E0.99284
G1 X105.319 Y101.026 E1.01429
G1 X105.898 Y100.746 E1.03568
G1 X106.505 Y100.499 E1.05748
G1 X107.123 Y100.296 E1.07911
G1 X107.738 Y100.134 E1.10026
G1 X108.39 Y100.007 E1.12236
G1 X109.026 Y99.926 E1.14368
G1 X109.679 Y99.884 E1.16545
G1 X110.321 Y99.884 E1.1868
G1 X110.974 Y99.926 E1.20856
G1 X111.61 Y100.007 E1.22989
G1 X112.262 Y100.134 E1.25198
G1 X112.868 Y100.293 E1.27282
G1 X113.504 Y100.504 E1.2951
G1 X114.095 Y100.742 E1.3163
G1 X114.687 Y101.029 E1.33818
G1 X115.243 Y101.342 E1.3594
G1 X115.796 Y101.703 E1.38136
G1 X116.308 Y102.083 E1.40257
G1 X116.796 Y102.498 E1.42388
G1 X117.267 Y102.953 E1.44566
G1 X117.703 Y103.433 E1.46723
G1 X118.115 Y103.95 E1.48921
G1 X118.478 Y104.469 E1.51028
G1 X118.826 Y105.044 E1.53263
G1 X119.117 Y105.604 E1.55362
G1 X119.381 Y106.197 E1.57521
G1 X119.604 Y106.804 E1.59672
G1 X119.79 Y107.426 E1.61831
G1 X119.934 Y108.055 E1.63978
G1 X120.039 Y108.703 E1.66161
G1 X120.1 Y109.339 E1.68286
G1 X120.122 Y109.993 E1.70463
G1 X120.1 Y110.657 E1.72672
G1 X120.039 Y111.292 E1.74794
G1 X119.934 Y111.942 E1.76984
G1 X119.791 Y112.568 E1.7912
G1 X119.612 Y113.173 E1.81218
G1 X119.38 Y113.808 E1.83467
G1 X119.117 Y114.396 E1.85609
G1 X118.824 Y114.962 E1.87729
G1 X118.489 Y115.514 E1.89876
G1 X118.115 Y116.05 E1.9205
G1 X117.703 Y116.567 E1.94249
G1 X117.272 Y117.042 E1.96382
G1 X116.814 Y117.486 E1.98504
G1 X116.309 Y117.915 E2.00708
G1 X115.796 Y118.297 E2.02835
G1 X115.243 Y118.658 E2.05032
G1 X114.681 Y118.974 E2.07176
G1 X114.105 Y119.253 E2.09305
G1 X113.495 Y119.501 E2.11495
G0 X113.47 Y119.928
;TYPE:WALL-OUTER
G1 X112.988 Y120.089 E2.13185
G1 X112.343 Y120.258 E2.15403
G1 X111.679 Y120.388 E2.17653
G1 X111.017 Y120.472 E2.19873
G1 X110.331 Y120.516 E2.22159
G1 X109.669 Y120.516 E2.24361
G1 X108.983 Y120.472 E2.26647
G1 X108.321 Y120.388 E2.28867
G1 X107.657 Y120.258 E2.31117
G1 X107.012 Y120.089 E2.33335
G1 X106.36 Y119.873 E2.35619
G1 X105.744 Y119.624 E2.37829
G1 X105.587 Y119.546 E2.38412
G1 X105.128 Y119.326 E2.40105
G1 X104.55 Y119.001 E2.42311
G1 X103.975 Y118.626 E2.44594
G1 X103.444 Y118.231 E2.46795
G1 X103.309 Y118.114 E2.47389
G1 X102.926 Y117.79 E2.49058
G1 X102.445 Y117.324 E2.51285
G1 X101.991 Y116.825 E2.53529
G1 X101.564 Y116.288 E2.55811
G1 X101.185 Y115.746 E2.58011
G1 X100.828 Y115.158 E2.60299
G1 X100.523 Y114.571 E2.62499
G1 X100.247 Y113.952 E2.64753
G1 X100.012 Y113.31 E2.67027
G1 X99.82 Y112.663 E2.69272
G1 X99.672 Y112.015 E2.71482
G1 X99.565 Y111.35 E2.73723
G1 X99.5 Y110.678 E2.75968
G1 X99.478 Y110.006 E2.78204
G1 X99.5 Y109.318 E2.80494
G1 X99.565 Y108.648 E2.82733
G1 X99.593 Y108.484 E2.83286
G1 X99.673 Y107.981 E2.8498
G1 X99.82 Y107.337 E2.87177
G1 X100.012 Y106.69 E2.89422
G1 X100.249 Y106.044 E2.9171
G1 X100.523 Y105.429 E2.9395
G1 X100.827 Y104.843 E2.96145
G1 X101.178 Y104.264 E2.98397
G1 X101.564 Y103.712 E3.00638
G1 X101.992 Y103.174 E3.02924
G1 X102.436 Y102.684 E3.05124
G1 X102.93 Y102.206 E3.0741
G1 X103.444 Y101.769 E3.09654
G1 X103.975 Y101.374 E3.11855
G1 X104.55 Y100.999 E3.14138
G1 X105.128 Y100.674 E3.16344
G1 X105.736 Y100.38 E3.1859
G1 X105.901 Y100.315 E3.1918
G1 X106.366 Y100.124 E3.20852
G1 X106.53 Y100.072 E3.21424
G1 X107.012 Y99.911 E3.23114
G1 X107.657 Y99.742 E3.25332
G1 X108.321 Y99.612 E3.27582
G1 X108.983 Y99.528 E3.29802
G1 X109.669 Y99.484 E3.32088
G1 X110.331 Y99.484 E3.3429
G1 X111.017 Y99.528 E3.36576
G1 X111.679 Y99.612 E3.38796
G1 X112.343 Y99.742 E3.41046
G1 X112.988 Y99.911 E3.43264
G1 X113.64 Y100.127 E3.45548
G1 X114.254 Y100.375 E3.47751
G1 X114.413 Y100.454 E3.48341
G1 X114.872 Y100.674 E3.50034
G1 X115.45 Y100.999 E3.5224
G1 X116.025 Y101.374 E3.54523
G1 X116.555 Y101.768 E3.56719
G1 X116.691 Y101.886 E3.57318
G1 X117.074 Y102.21 E3.58987
G1 X117.553 Y102.673 E3.61203
G1 X118.008 Y103.174 E3.63454
G1 X118.436 Y103.712 E3.6574
G1 X118.815 Y104.254 E3.6794
G1 X119.172 Y104.842 E3.70228
G1 X119.477 Y105.429 E3.72428
G1 X119.751 Y106.044 E3.74667
G1 X119.984 Y106.678 E3.76914
G1 X120.18 Y107.337 E3.79201
G1 X120.327 Y107.98 E3.81394
G1 X120.435 Y108.648 E3.83645
G1 X120.5 Y109.318 E3.85884
G1 X120.522 Y109.994 E3.88134
G1 X120.5 Y110.678 E3.9041
G1 X120.435 Y111.347 E3.92645
G1 X120.327 Y112.016 E3.94899
G1 X120.18 Y112.663 E3.97106
G1 X119.988 Y113.31 E3.99351
G1 X119.753 Y113.952 E4.01625
G1 X119.477 Y114.571 E4.03879
G1 X119.173 Y115.157 E4.06074
G1 X118.822 Y115.736 E4.08326
G1 X118.436 Y116.288 E4.10567
G1 X118.008 Y116.826 E4.12853
G1 X117.564 Y117.316 E4.15053
G1 X117.073 Y117.791 E4.17325
G1 X116.558 Y118.229 E4.19573
G1 X116.025 Y118.626 E4.21784
G1 X115.45 Y119.001 E4.24067
G1 X114.872 Y119.326 E4.26273
G1 X114.264 Y119.62 E4.28519
G1 X114.099 Y119.685 E4.29109
G1 X113.634 Y119.876 E4.30781
G1 X113.47 Y119.928 E4.31353
G0 X113.281 Y119.991
G0 X113.143 Y119.574
G0 X112.76 Y119.331
;TYPE:SKIN
G1 X112.17 Y119.487 E4.33383
G1 X111.548 Y119.609 E4.35491
G1 X110.949 Y119.684 E4.37499
G1 X110.296 Y119.726 E4.39675
G1 X109.704 Y119.726 E4.41644
G1 X109.051 Y119.684 E4.4382
G1 X108.452 Y119.609 E4.45828
G1 X107.83 Y119.487 E4.47936
G1 X107.243 Y119.333 E4.49955
G1 X106.637 Y119.132 E4.52078
G1 X106.059 Y118.899 E4.54151
G1 X105.489 Y118.623 E4.56258
G1 X104.948 Y118.318 E4.58323
G1 X104.433 Y117.981 E4.6037
G1 X103.928 Y117.606 E4.62462
G1 X103.454 Y117.202 E4.64534
G1 X103.021 Y116.783 E4.66538
G1 X102.592 Y116.312 E4.68657
G1 X102.204 Y115.824 E4.7073
G1 X101.842 Y115.307 E4.7283
G1 X101.508 Y114.754 E4.74978
G1 X101.233 Y114.227 E4.76955
G1 X100.985 Y113.67 E4.78983
G1 X100.755 Y113.039 E4.81217
G1 X100.583 Y112.457 E4.83236
G1 X100.448 Y111.865 E4.85255
G1 X100.348 Y111.243 E4.87351
G1 X100.29 Y110.64 E4.89365
G1 X100.268 Y110.019 E4.91432
G1 X100.29 Y109.352 E4.93652
G1 X100.349 Y108.747 E4.95674
G1 X100.449 Y108.131 E4.97749
G1 X100.584 Y107.537 E4.99775
G1 X100.758 Y106.951 E5.01808
G1 X100.982 Y106.341 E5.0397
G1 X101.24 Y105.763 E5.06075
G1 X101.523 Y105.217 E5.0812
G1 X101.84 Y104.696 E5.10149
G1 X102.197 Y104.184 E5.12225
G1 X102.594 Y103.686 E5.14343
G1 X103.008 Y103.23 E5.16392
G1 X103.451 Y102.8 E5.18445
G1 X103.929 Y102.394 E5.20531
G1 X104.436 Y102.017 E5.22632
G1 X104.948 Y101.682 E5.24667
G1 X105.499 Y101.372 E5.2677
G1 X106.068 Y101.097 E5.28872
G1 X106.642 Y100.864 E5.30932
G1 X107.233 Y100.67 E5.33001
G1 X107.83 Y100.513 E5.35054
G1 X108.452 Y100.391 E5.37163
G1 X109.051 Y100.316 E5.39171
G1 X109.704 Y100.274 E5.41347
G1 X110.296 Y100.274 E5.43316
G1 X110.949 Y100.316 E5.45492
G1 X111.548 Y100.391 E5.475
G1 X112.17 Y100.513 E5.49608
G1 X112.757 Y100.667 E5.51627
G1 X113.363 Y100.868 E5.5375
G1 X113.937 Y101.099 E5.55808
G1 X114.507 Y101.375 E5.57915
G1 X115.052 Y101.682 E5.59995
G1 X115.564 Y102.017 E5.6203
G1 X116.071 Y102.394 E5.64132
G1 X116.525 Y102.779 E5.66111
G1 X116.987 Y103.225 E5.68247
G1 X117.406 Y103.686 E5.70319
G1 X117.795 Y104.174 E5.72395
G1 X118.158 Y104.693 E5.74501
G1 X118.486 Y105.236 E5.76611
G1 X118.765 Y105.773 E5.78624
G1 X119.019 Y106.343 E5.807
G1 X119.23 Y106.915 E5.82727
G1 X119.416 Y107.537 E5.84887
G1 X119.551 Y108.13 E5.86909
G1 X119.652 Y108.752 E5.89005
G1 X119.71 Y109.353 E5.91014
G1 X119.732 Y109.98 E5.931
G1 X119.71 Y110.64 E5.95297
G1 X119.652 Y111.241 E5.97305
G1 X119.551 Y111.867 E5.99414
G1 X119.417 Y112.457 E6.01426
G1 X119.242 Y113.05 E6.03483
G1 X119.023 Y113.651 E6.0561
G1 X118.766 Y114.224 E6.07699
G1 X118.48 Y114.777 E6.0977
G1 X118.162 Y115.301 E6.11808
G1 X117.81 Y115.806 E6.13856
G1 X117.4 Y116.32 E6.16042
G1 X116.992 Y116.77 E6.18063
G1 X116.552 Y117.197 E6.20102
G1 X116.062 Y117.614 E6.22242
G1 X115.578 Y117.974 E6.24248
G1 X115.052 Y118.318 E6.26339
G1 X114.503 Y118.627 E6.28434
G1 X113.939 Y118.9 E6.30518
G1 X113.37 Y119.131 E6.32561
G1 X112.76 Y119.331 E6.34696
G0 X101.68 Y114.691
G1 X105.295 Y118.306 E6.517
G1 X105.365 Y118.376
G0 X106.394 Y118.839
G1 X101.147 Y113.592 E6.7638
G1 X101.077 Y113.522
G0 X100.852 Y112.731
G1 X107.272 Y119.151 E7.06578
G0 X108.027 Y119.341
G1 X100.655 Y111.969 E7.41253
G0 X100.536 Y111.284
G1 X108.711 Y119.459 E7.79706
G0 X109.337 Y119.52
G1 X100.472 Y110.654 E8.21407
G0 X100.449 Y110.066
G1 X109.928 Y119.544 E8.65991
G0 X110.481 Y119.532
G1 X100.464 Y109.515 E9.13107
G0 X100.505 Y108.99
G1 X111.009 Y119.494 E9.62515
G0 X111.512 Y119.431
G1 X100.571 Y108.491 E10.13976
G0 X100.659 Y108.013
G1 X111.985 Y119.339 E10.6725
G0 X112.44 Y119.228
G1 X100.766 Y107.554 E11.22161
G0 X100.895 Y107.118
G1 X112.879 Y119.102 E11.7853
G0 X113.305 Y118.962
G1 X101.041 Y106.698 E12.36216
G0 X101.2 Y106.291
G1 X113.707 Y118.798 E12.95045
G0 X114.097 Y118.622
G1 X101.375 Y105.9 E13.54885
G0 X101.565 Y105.525
G1 X114.475 Y118.435 E14.1561
G0 X114.837 Y118.231
G1 X101.766 Y105.16 E14.77092
G0 X101.98 Y104.808
G1 X115.185 Y118.014 E15.39207
G0 X115.524 Y117.787
G1 X102.212 Y104.475 E16.01822
G0 X102.452 Y104.149
G1 X115.849 Y117.546 E16.64838
G0 X116.16 Y117.292
G1 X102.703 Y103.835 E17.28135
G0 X102.971 Y103.536
G1 X116.464 Y117.029 E17.91602
G0 X116.751 Y116.751
G1 X103.248 Y103.248 E18.55116
G0 X103.535 Y102.969
G1 X117.028 Y116.462 E19.18583
G0 X117.294 Y116.163
G1 X103.837 Y102.706 E19.81881
G0 X104.15 Y102.453
G1 X117.545 Y115.848 E20.44887
G0 X117.787 Y115.524
G1 X104.475 Y102.212 E21.07502
G0 X104.814 Y101.986
G1 X118.018 Y115.189 E21.69607
G0 X118.232 Y114.838
G1 X105.162 Y101.768 E22.31085
G0 X105.523 Y101.563
G1 X118.434 Y114.474 E22.91814
G0 X118.624 Y114.098
G1 X105.902 Y101.377 E23.51652
G0 X106.291 Y101.2
G1 X118.8 Y113.709 E24.10491
G0 X118.958 Y113.301
G1 X106.693 Y101.037 E24.68179
G0 X107.119 Y100.897
G1 X119.103 Y112.881 E25.24548
G0 X119.232 Y112.444
G1 X107.558 Y100.77 E25.79459
G0 X108.013 Y100.659
G1 X119.339 Y111.985 E26.32733
G0 X119.426 Y111.507
G1 X108.487 Y100.567 E26.84189
G0 X108.989 Y100.504
G1 X119.493 Y111.007 E27.33594
G0 X119.534 Y110.483
G1 X109.517 Y100.466 E27.80711
G0 X110.071 Y100.454
G1 X119.549 Y109.933 E28.25295
G0 X119.527 Y109.345
G1 X110.661 Y100.479 E28.66998
G0 X111.288 Y100.539
G1 X119.464 Y108.716 E29.05458
G0 X119.343 Y108.029
G1 X111.971 Y100.658 E29.40131
G0 X112.726 Y100.847
G1 X119.146 Y107.266 E29.70327
G1 X119.216 Y107.336
G0 X118.849 Y106.404
G1 X113.605 Y101.16 E29.94993
G1 X113.535 Y101.09
G0 X114.701 Y101.691
G1 X118.318 Y105.307 E30.12004
G1 X118.388 Y105.377
;MESH:NONMESH
G0 F600 X118.388 Y105.377 Z0.4
G0 F3600 X99.994 Y110.006
;TIME_ELAPSED:21.154492
;LAYER:1
M106 S255
;TYPE:WALL-INNER
;MESH:0f56755e-fab6-42d2-bdfe-6bbb09b210e6.stl
G1 F5400 X100.015 Y109.334 E30.1424
G1 X100.073 Y108.734 E30.16245
G1 X100.188 Y108.039 E30.18588
G1 X100.317 Y107.474 E30.20515
G1 X100.507 Y106.833 E30.22739
G1 X100.72 Y106.255 E30.24788
G1 X100.991 Y105.642 E30.27017
G1 X101.289 Y105.072 E30.29156
G1 X101.605 Y104.551 E30.31183
G1 X101.96 Y104.041 E30.3325
G1 X102.4 Y103.49 E30.35595
G1 X102.815 Y103.034 E30.37646
G1 X103.248 Y102.613 E30.39654
G1 X103.762 Y102.176 E30.41898
G1 X104.278 Y101.79 E30.44042
G1 X104.783 Y101.461 E30.46046
G1 X105.375 Y101.125 E30.4831
G1 X105.95 Y100.848 E30.50433
G1 X106.536 Y100.612 E30.52534
G1 X107.145 Y100.409 E30.54669
G1 X107.77 Y100.245 E30.56818
G1 X108.408 Y100.121 E30.5898
G1 X109.044 Y100.04 E30.61113
G1 X109.681 Y99.998 E30.63236
G1 X110.319 Y99.998 E30.65358
G1 X110.951 Y100.04 E30.67464
G1 X111.638 Y100.129 E30.69769
G1 X112.221 Y100.243 E30.71744
G1 X112.852 Y100.408 E30.73914
G1 X113.464 Y100.612 E30.76059
G1 X114.05 Y100.848 E30.7816
G1 X114.622 Y101.124 E30.80273
G1 X115.154 Y101.423 E30.82303
G1 X115.746 Y101.807 E30.84649
G1 X116.235 Y102.173 E30.86681
G1 X116.732 Y102.595 E30.8885
G1 X117.193 Y103.042 E30.90985
G1 X117.6 Y103.49 E30.92998
G1 X118.032 Y104.031 E30.95301
G1 X118.396 Y104.553 E30.97418
G1 X118.704 Y105.06 E30.99391
G1 X119.015 Y105.655 E31.01624
G1 X119.283 Y106.262 E31.03831
G1 X119.493 Y106.833 E31.05854
G1 X119.679 Y107.458 E31.08023
G1 X119.823 Y108.089 E31.10176
G1 X119.926 Y108.722 E31.12309
G1 X119.985 Y109.334 E31.14354
G1 X120.006 Y109.994 E31.1655
G1 X119.985 Y110.655 E31.1875
G1 X119.928 Y111.254 E31.20751
G1 X119.814 Y111.947 E31.23087
G1 X119.683 Y112.526 E31.25061
G1 X119.493 Y113.169 E31.27291
G1 X119.285 Y113.734 E31.29294
G1 X119.015 Y114.345 E31.31516
G1 X118.715 Y114.92 E31.33673
G1 X118.396 Y115.448 E31.35724
G1 X118.032 Y115.97 E31.37841
G1 X117.611 Y116.497 E31.40084
G1 X117.185 Y116.966 E31.42192
G1 X116.752 Y117.387 E31.442
G1 X116.238 Y117.824 E31.46444
G1 X115.722 Y118.21 E31.48588
G1 X115.217 Y118.539 E31.50592
G1 X114.625 Y118.875 E31.52856
G1 X114.052 Y119.151 E31.54972
G1 X113.464 Y119.388 E31.5708
G1 X112.855 Y119.591 E31.59215
G1 X112.23 Y119.755 E31.61365
G1 X111.592 Y119.879 E31.63526
G1 X110.956 Y119.96 E31.65659
G1 X110.319 Y120.002 E31.67782
G1 X109.681 Y120.002 E31.69904
G1 X109.049 Y119.96 E31.72011
G1 X108.362 Y119.871 E31.74315
G1 X107.779 Y119.757 E31.7629
G1 X107.148 Y119.592 E31.7846
G1 X106.536 Y119.388 E31.80605
G1 X105.948 Y119.151 E31.82714
G1 X105.373 Y118.874 E31.84837
G1 X104.816 Y118.559 E31.86965
G1 X104.265 Y118.2 E31.89152
G1 X103.764 Y117.827 E31.9123
G1 X103.268 Y117.405 E31.93396
G1 X102.807 Y116.958 E31.95532
G1 X102.389 Y116.497 E31.97601
G1 X101.976 Y115.98 E31.99802
G1 X101.604 Y115.447 E32.01964
G1 X101.29 Y114.928 E32.03982
G1 X100.98 Y114.334 E32.0621
G1 X100.715 Y113.734 E32.08392
G1 X100.507 Y113.169 E32.10394
G1 X100.317 Y112.526 E32.12624
G1 X100.177 Y111.911 E32.14722
G1 X100.074 Y111.276 E32.16862
G1 X100.015 Y110.656 E32.18933
G1 X99.994 Y110.006 E32.21096
G0 X99.594 Y110.008
G1 X99.615 Y109.314 E32.23405
G1 X99.678 Y108.669 E32.25561
G1 X99.793 Y107.974 E32.27904
G1 X99.931 Y107.369 E32.29968
G1 X100.123 Y106.72 E32.32219
G1 X100.354 Y106.093 E32.34441
G1 X100.625 Y105.479 E32.36674
